(01 ENGRAVER TRACE)
(T58  D=3.175 CR=0 TAPER=20DEG - ZMIN=-0.1 - CHAMFER MILL)
G90 G94 G91.1 G40 G49 G17
G21

(01 ENGRAVER TRACE)
M5
M9
T58
S20000 M3
G54
M8
G0 X-21 Y32.4
G43 Z15 H58
Z1
G1 Z-0.1 F1000
X-6
X-5.801 Y32.38
X-5.61 Y32.321
X-5.435 Y32.225
X-5.282 Y32.096
X-5.158 Y31.94
X-5.068 Y31.762
X-5.014 Y31.569
X-5 Y31.37
X-5.026 Y31.172
X-5.091 Y30.983
X-5.192 Y30.811
X-5.325 Y30.662
X-5.485 Y30.543
X-5.666 Y30.457
X-5.86 Y30.41
X-6 Y30.4
X-5.748 Y30.031
X-5.53 Y29.64
X-5.348 Y29.232
X-5.203 Y28.809
X-5.096 Y28.375
X-5.028 Y27.933
X-5.001 Y27.487
X-5.013 Y27.04
X-5.065 Y26.596
X-5.157 Y26.158
X-5.287 Y25.73
X-5.455 Y25.316
X-5.659 Y24.918
X-5.898 Y24.541
X-6.17 Y24.186
X-6.473 Y23.856
X-6.803 Y23.555
X-7.16 Y23.285
X-7.538 Y23.048
X-7.937 Y22.845
X-8.352 Y22.679
X-8.78 Y22.551
X-9.219 Y22.461
X-9.663 Y22.411
X-10.11 Y22.401
X-10.556 Y22.431
X-10.998 Y22.501
X-11.431 Y22.609
X-11.853 Y22.756
X-12.261 Y22.94
X-12.65 Y23.16
X-13.018 Y23.414
X-13.362 Y23.699
X-13.68 Y24.015
X-13.967 Y24.357
X-14.223 Y24.723
X-14.445 Y25.111
X-14.632 Y25.518
X-14.782 Y25.939
X-14.893 Y26.372
X-14.965 Y26.813
X-14.998 Y27.259
X-14.991 Y27.706
X-14.943 Y28.151
X-14.856 Y28.589
X-14.731 Y29.018
X-14.567 Y29.435
X-14.367 Y29.834
X-14.132 Y30.215
X-14 Y30.4
X-21
X-21.199 Y30.42
X-21.39 Y30.479
X-21.565 Y30.575
X-21.718 Y30.704
X-21.842 Y30.86
X-21.932 Y31.038
X-21.986 Y31.231
X-22 Y31.43
X-21.974 Y31.628
X-21.909 Y31.817
X-21.808 Y31.989
X-21.675 Y32.138
X-21.515 Y32.257
X-21.334 Y32.343
X-21.14 Y32.39
X-21 Y32.4
Z1
G0 Z5
X-12.715 Y28.676
Z1
G1 Z-0.1 F1000
X-12.844 Y28.355
X-12.935 Y28.021
X-12.987 Y27.678
X-12.999 Y27.332
X-12.971 Y26.987
X-12.904 Y26.648
X-12.798 Y26.318
X-12.655 Y26.003
X-12.476 Y25.706
X-12.264 Y25.432
X-12.023 Y25.184
X-11.754 Y24.966
X-11.462 Y24.78
X-11.15 Y24.629
X-10.823 Y24.515
X-10.485 Y24.439
X-10.141 Y24.403
X-10 Y24.4
X-9.654 Y24.42
X-9.313 Y24.48
X-8.981 Y24.578
X-8.663 Y24.714
X-8.362 Y24.886
X-8.084 Y25.092
X-7.83 Y25.328
X-7.606 Y25.592
X-7.414 Y25.88
X-7.256 Y26.188
X-7.134 Y26.512
X-7.051 Y26.848
X-7.007 Y27.192
X-7.003 Y27.538
X-7.039 Y27.882
X-7.114 Y28.22
X-7.228 Y28.547
X-7.379 Y28.859
X-7.564 Y29.151
X-7.782 Y29.42
X-8.03 Y29.663
X-8.304 Y29.874
X-8.6 Y30.053
X-8.915 Y30.197
X-9.245 Y30.303
X-9.584 Y30.371
X-9.93 Y30.399
X-10.276 Y30.387
X-10.618 Y30.336
X-10.952 Y30.245
X-11.274 Y30.116
X-11.578 Y29.951
X-11.862 Y29.752
X-12.12 Y29.522
X-12.351 Y29.264
X-12.55 Y28.981
X-12.715 Y28.676
Z1
G0 Z5
X-12.544 Y21.394
Z1
G1 Z-0.1 F1000
X-12.393 Y21.263
X-12.272 Y21.104
X-12.184 Y20.925
X-12.133 Y20.732
X-12.122 Y20.532
X-12.151 Y20.335
X-12.219 Y20.147
X-12.322 Y19.976
X-12.599 Y19.656
X-12.753 Y19.419
X-12.871 Y19.162
X-12.952 Y18.891
X-12.994 Y18.612
X-12.996 Y18.329
X-12.958 Y18.049
X-12.881 Y17.777
X-12.767 Y17.519
X-12.617 Y17.279
X-12.435 Y17.063
X-12.224 Y16.874
X-11.989 Y16.717
X-11.734 Y16.595
X-11.465 Y16.51
X-11.186 Y16.464
X-10.903 Y16.458
X-10.622 Y16.492
X-10.349 Y16.565
X-10.089 Y16.675
X-9.847 Y16.821
X-9.628 Y17
X-9.437 Y17.208
X-9.277 Y17.441
X-9.151 Y17.694
X-9.062 Y17.962
X-9.012 Y18.241
X-9 Y18.456
X-8.98 Y18.654
X-8.921 Y18.845
X-8.825 Y19.021
X-8.696 Y19.173
X-8.54 Y19.297
X-8.362 Y19.388
X-8.169 Y19.441
X-7.97 Y19.455
X-7.772 Y19.429
X-7.583 Y19.365
X-7.411 Y19.264
X-7.262 Y19.13
X-7.143 Y18.97
X-7.057 Y18.79
X-7.01 Y18.596
X-6.98 Y18.174
X-6.92 Y17.897
X-6.823 Y17.632
X-6.688 Y17.384
X-6.52 Y17.156
X-6.322 Y16.955
X-6.097 Y16.784
X-5.85 Y16.646
X-5.587 Y16.544
X-5.311 Y16.48
X-5.03 Y16.456
X-4.747 Y16.472
X-4.47 Y16.527
X-4.204 Y16.621
X-3.953 Y16.752
X-3.723 Y16.916
X-3.519 Y17.112
X-3.344 Y17.334
X-3.203 Y17.579
X-3.097 Y17.841
X-3.029 Y18.115
X-3.001 Y18.396
X-3.012 Y18.679
X-3.064 Y18.957
X-3.154 Y19.225
X-3.281 Y19.477
X-3.442 Y19.71
X-3.586 Y19.87
X-3.712 Y20.025
X-3.805 Y20.201
X-3.862 Y20.393
X-3.879 Y20.592
X-3.856 Y20.79
X-3.794 Y20.98
X-3.695 Y21.154
X-3.564 Y21.305
X-3.406 Y21.427
X-3.227 Y21.515
X-3.033 Y21.565
X-2.834 Y21.576
X-2.636 Y21.547
X-2.448 Y21.48
X-2.277 Y21.376
X-2.172 Y21.284
X-1.903 Y20.988
X-1.666 Y20.666
X-1.462 Y20.322
X-1.293 Y19.959
X-1.162 Y19.582
X-1.069 Y19.193
X-1.015 Y18.797
X-1 Y18.397
X-1.026 Y17.998
X-1.092 Y17.603
X-1.196 Y17.218
X-1.339 Y16.844
X-1.518 Y16.487
X-1.732 Y16.149
X-1.979 Y15.834
X-2.256 Y15.545
X-2.56 Y15.286
X-2.889 Y15.058
X-3.239 Y14.864
X-3.606 Y14.707
X-3.987 Y14.586
X-4.379 Y14.504
X-4.776 Y14.462
X-5.176 Y14.46
X-5.574 Y14.497
X-5.967 Y14.574
X-6.349 Y14.69
X-6.719 Y14.844
X-7.071 Y15.033
X-7.402 Y15.257
X-7.709 Y15.513
X-7.99 Y15.798
X-8 Y15.81
X-8.279 Y15.524
X-8.585 Y15.267
X-8.916 Y15.042
X-9.267 Y14.851
X-9.636 Y14.696
X-10.018 Y14.578
X-10.41 Y14.499
X-10.808 Y14.46
X-11.208 Y14.461
X-11.606 Y14.502
X-11.998 Y14.582
X-12.379 Y14.701
X-12.747 Y14.858
X-13.098 Y15.05
X-13.427 Y15.276
X-13.733 Y15.535
X-14.011 Y15.822
X-14.259 Y16.136
X-14.474 Y16.473
X-14.655 Y16.83
X-14.799 Y17.203
X-14.905 Y17.588
X-14.972 Y17.982
X-14.999 Y18.381
X-14.987 Y18.781
X-14.934 Y19.177
X-14.843 Y19.567
X-14.713 Y19.945
X-14.545 Y20.308
X-14.343 Y20.653
X-14.107 Y20.975
X-13.84 Y21.273
X-13.828 Y21.284
X-13.674 Y21.411
X-13.497 Y21.504
X-13.305 Y21.56
X-13.106 Y21.577
X-12.908 Y21.554
X-12.718 Y21.492
X-12.544 Y21.394
Z1
G0 Z15

M9
M30
