(01 ENGRAVE LOGO)
(T58  D=3.175 CR=0 TAPER=20DEG - ZMIN=-0.1 - CHAMFER MILL)
G90 G94 G91.1 G40 G49 G17
G21

(01 ENGRAVE LOGO)
M5
M9
T58
S20000 M3
G54
M8
G0 X4.167 Y33.333
G43 Z15 H58
Z1
G1 Z-0.1 F1000
X16.667
X25 Y41.667
X12.5
X4.167 Y33.333
Z1
G0 Z5
X-0.278 Y37.222
Z1
G1 Z-0.1 F1000
X-12.5 Y25
X16.667
Y16.667
X0 Y0
X-29.167
X-20.833 Y8.333
X-4.167
X4.167 Y16.667
X-25
Y25
X-8.333 Y41.667
X4.167
X-0.278 Y37.222
Z1
G0 Z15

M9
M30
