(01 2MM FLAT SLOTS)
(T11  D=2 CR=0 - ZMIN=-1 - FLAT END MILL)
G90 G94 G91.1 G40 G49 G17
G21

(08 2MM FLAT SLOTS)
M5
M9
T11
(DIAMOND OR SPIRAL)
S20000 M3
G54
M8
G0 X-5.95 Y51.432
G43 Z15 H1
Z2
G1 Z0.5 F100
Y57.482 Z0.256 F1000
X-6.05 Z0.252
Y51.382 Z0.006
X-5.95 Z0.002
Y57.482 Z-0.244
X-6.05 Z-0.248
Y51.382 Z-0.494
X-5.95 Z-0.498
Y57.482 Z-0.744
X-6.05 Z-0.748
Y51.382 Z-0.994
X-5.95 Z-0.998
Y51.432 Z-1
Y57.482
X-6.05
Y51.382
X-5.95
Y51.432
G0 Z5
X-27.95
Z2
G1 Z0.5 F100
Y57.482 Z0.256 F1000
X-28.05 Z0.252
Y51.382 Z0.006
X-27.95 Z0.002
Y57.482 Z-0.244
X-28.05 Z-0.248
Y51.382 Z-0.494
X-27.95 Z-0.498
Y57.482 Z-0.744
X-28.05 Z-0.748
Y51.382 Z-0.994
X-27.95 Z-0.998
Y51.432 Z-1
Y57.482
X-28.05
Y51.382
X-27.95
Y51.432
G0 Z15

M9
M30
