(02 1MM FLAT SLOTS REDUCE RADIUSES)
(T10  D=1 CR=0 - ZMIN=-1 - FLAT END MILL)
G90 G94 G91.1 G40 G49 G17
G21

(02 1MM FLAT SLOTS REDUCE RADIUSES)
M5
M9
T10
(DIAMOND OR SPIRAL)
S20000 M3
G54
M8
G0 X-6 Y57.982
G43 Z15 H1
Z2
G1 Z0.25 F60
X-6.55 Z0.233 F500
Y50.882 Z0.017
X-5.45 Z-0.017
Y57.982 Z-0.233
X-6.55 Z-0.267
Y50.882 Z-0.483
X-5.45 Z-0.517
Y57.982 Z-0.733
X-6.55 Z-0.767
Y50.882 Z-0.983
X-6 Z-1
X-5.45
Y57.982
X-6.55
Y50.882
X-6
G0 Z5
X-27.45 Y57.432
Z2
G1 Z0.25 F60
Y57.982 Z0.233 F500
X-28.55 Z0.2
Y50.882 Z-0.017
X-27.45 Z-0.05
Y57.982 Z-0.267
X-28.55 Z-0.3
Y50.882 Z-0.517
X-27.45 Z-0.55
Y57.982 Z-0.767
X-28.55 Z-0.8
Y51.432 Z-1
Y50.882
X-27.45
Y57.982
X-28.55
Y51.432
G0 Z15

M9
M30
