(02 2MM FLAT SLOTS)
(T11  D=2 CR=0 - ZMIN=-3.2 - FLAT END MILL)
G90 G94 G91.1 G40 G49 G17
G21

(02 2MM FLAT SLOTS)
M5
M9
T11
(DIAMOND OR SPIRAL)
S20000 M3
G54
M8
G0 X-11.5 Y7.4
G43 Z15 H1
Z2
G1 Z0.1 F500
X-9.5 Z-0.074 F1000
X-11.5 Z-0.247
X-9.5 Z-0.421
X-11.5 Z-0.595
X-9.5 Z-0.768
X-11.5 Z-0.942
X-9.5 Z-1.116
X-11.5 Z-1.289
X-9.5 Z-1.463
X-11.5 Z-1.637
X-9.5 Z-1.811
X-11.5 Z-1.984
X-9.5 Z-2.158
X-11.5 Z-2.332
X-9.5 Z-2.505
X-11.5 Z-2.679
X-9.5 Z-2.853
X-11.5 Z-3.026
X-9.5 Z-3.2
X-11.5
G0 Z5
X-23.5
Z2
G1 Z0.1 F500
X-21.5 Z-0.074 F1000
X-23.5 Z-0.247
X-21.5 Z-0.421
X-23.5 Z-0.595
X-21.5 Z-0.768
X-23.5 Z-0.942
X-21.5 Z-1.116
X-23.5 Z-1.289
X-21.5 Z-1.463
X-23.5 Z-1.637
X-21.5 Z-1.811
X-23.5 Z-1.984
X-21.5 Z-2.158
X-23.5 Z-2.332
X-21.5 Z-2.505
X-23.5 Z-2.679
X-21.5 Z-2.853
X-23.5 Z-3.026
X-21.5 Z-3.2
X-23.5
G0 Z15

M9
M30
