(03 2MM FLAT OUTER CONTOURS)
(T11  D=2 CR=0 - ZMIN=-3.2 - FLAT END MILL)
G90 G94 G91.1 G40 G49 G17
G21

(03 2MM FLAT OUTER CONTOURS)
M5
M9
T11
(DIAMOND OR SPIRAL)
S20000 M3
G54
M8
G0 X-6.55 Y1.387
G43 Z15 H1
Z2
G1 Z0.1 F100
Y1 Z0.098 F1000
G2 X-7.55 Y0 Z0.091 I-1 J0
G1 X-10.5 Z0.078
G2 X-11.495 Y0.9 Z0.072 I0 J1
G1 X-21.505 Z0.028
G2 X-22.5 Y0 Z0.022 I-0.995 J0.1
G1 X-25.45 Z0.009
G2 X-26.45 Y1 Z0.002 I0 J1
G1 Y2.8 Z-0.006
G2 X-25.45 Y3.8 Z-0.013 I1 J0
G1 X-25.2 Z-0.014
Y4 Z-0.015
X-27.8 Z-0.027
Y3.8
X-27.55 Z-0.028
G2 X-26.55 Y2.8 Z-0.035 I0 J-1
G1 Y1 Z-0.043
G2 X-27.55 Y0 Z-0.05 I-1 J0
G1 X-30.5 Z-0.063
G2 X-31.495 Y0.9 Z-0.07 I0 J1
G1 X-32 Z-0.072
G2 X-33 Y1.9 Z-0.079 I0 J1
G1 Y10.5 Z-0.116
G2 X-28.6 Y14.9 Z-0.147 I4.4 J0
G1 X-4.4 Z-0.253
G2 X0 Y10.5 Z-0.284 I0 J-4.4
G1 Y1.9 Z-0.321
G2 X-1 Y0.9 Z-0.328 I-1 J0
G1 X-1.505 Z-0.33
G2 X-2.5 Y0 Z-0.337 I-0.995 J0.1
G1 X-5.45 Z-0.35
G2 X-6.45 Y1 Z-0.357 I0 J1
G1 Y2.8 Z-0.365
G2 X-5.45 Y3.8 Z-0.372 I1 J0
G1 X-5.2 Z-0.373
Y4
X-7.8 Z-0.385
Y3.8 Z-0.386
X-7.55 Z-0.387
G2 X-6.55 Y2.8 Z-0.394 I0 J-1
G1 Y1 Z-0.402
G2 X-7.55 Y0 Z-0.409 I-1 J0
G1 X-10.5 Z-0.422
G2 X-11.495 Y0.9 Z-0.428 I0 J1
G1 X-21.505 Z-0.472
G2 X-22.5 Y0 Z-0.478 I-0.995 J0.1
G1 X-25.45 Z-0.491
G2 X-26.45 Y1 Z-0.498 I0 J1
G1 Y2.8 Z-0.506
G2 X-25.45 Y3.8 Z-0.513 I1 J0
G1 X-25.2 Z-0.514
Y4 Z-0.515
X-27.8 Z-0.527
Y3.8
X-27.55 Z-0.528
G2 X-26.55 Y2.8 Z-0.535 I0 J-1
G1 Y1 Z-0.543
G2 X-27.55 Y0 Z-0.55 I-1 J0
G1 X-30.5 Z-0.563
G2 X-31.495 Y0.9 Z-0.57 I0 J1
G1 X-32 Z-0.572
G2 X-33 Y1.9 Z-0.579 I0 J1
G1 Y10.5 Z-0.616
G2 X-28.6 Y14.9 Z-0.647 I4.4 J0
G1 X-4.4 Z-0.753
G2 X0 Y10.5 Z-0.784 I0 J-4.4
G1 Y1.9 Z-0.821
G2 X-1 Y0.9 Z-0.828 I-1 J0
G1 X-1.505 Z-0.83
G2 X-2.5 Y0 Z-0.837 I-0.995 J0.1
G1 X-5.45 Z-0.85
G2 X-6.45 Y1 Z-0.857 I0 J1
G1 Y2.8 Z-0.865
G2 X-5.45 Y3.8 Z-0.872 I1 J0
G1 X-5.2 Z-0.873
Y4
X-7.8 Z-0.885
Y3.8 Z-0.886
X-7.55 Z-0.887
G2 X-6.55 Y2.8 Z-0.894 I0 J-1
G1 Y1 Z-0.902
G2 X-7.55 Y0 Z-0.909 I-1 J0
G1 X-10.5 Z-0.922
G2 X-11.495 Y0.9 Z-0.928 I0 J1
G1 X-21.505 Z-0.972
G2 X-22.5 Y0 Z-0.978 I-0.995 J0.1
G1 X-25.45 Z-0.991
G2 X-26.45 Y1 Z-0.998 I0 J1
G1 Y2.8 Z-1.006
G2 X-25.45 Y3.8 Z-1.013 I1 J0
G1 X-25.2 Z-1.014
Y4 Z-1.015
X-27.8 Z-1.027
Y3.8
X-27.55 Z-1.028
G2 X-26.55 Y2.8 Z-1.035 I0 J-1
G1 Y1 Z-1.043
G2 X-27.55 Y0 Z-1.05 I-1 J0
G1 X-30.5 Z-1.063
G2 X-31.495 Y0.9 Z-1.07 I0 J1
G1 X-32 Z-1.072
G2 X-33 Y1.9 Z-1.079 I0 J1
G1 Y10.5 Z-1.116
G2 X-28.6 Y14.9 Z-1.147 I4.4 J0
G1 X-4.4 Z-1.253
G2 X0 Y10.5 Z-1.284 I0 J-4.4
G1 Y1.9 Z-1.321
G2 X-1 Y0.9 Z-1.328 I-1 J0
G1 X-1.505 Z-1.33
G2 X-2.5 Y0 Z-1.337 I-0.995 J0.1
G1 X-5.45 Z-1.35
G2 X-6.45 Y1 Z-1.357 I0 J1
G1 Y2.8 Z-1.365
G2 X-5.45 Y3.8 Z-1.372 I1 J0
G1 X-5.2 Z-1.373
Y4
X-7.8 Z-1.385
Y3.8 Z-1.386
X-7.55 Z-1.387
G2 X-6.55 Y2.8 Z-1.394 I0 J-1
G1 Y1 Z-1.402
G2 X-7.55 Y0 Z-1.409 I-1 J0
G1 X-10.5 Z-1.422
G2 X-11.495 Y0.9 Z-1.428 I0 J1
G1 X-21.505 Z-1.472
G2 X-22.5 Y0 Z-1.478 I-0.995 J0.1
G1 X-25.45 Z-1.491
G2 X-26.45 Y1 Z-1.498 I0 J1
G1 Y2.8 Z-1.506
G2 X-25.45 Y3.8 Z-1.513 I1 J0
G1 X-25.2 Z-1.514
Y4 Z-1.515
X-27.8 Z-1.527
Y3.8
X-27.55 Z-1.528
G2 X-26.55 Y2.8 Z-1.535 I0 J-1
G1 Y1 Z-1.543
G2 X-27.55 Y0 Z-1.55 I-1 J0
G1 X-30.5 Z-1.563
G2 X-31.495 Y0.9 Z-1.57 I0 J1
G1 X-32 Z-1.572
G2 X-33 Y1.9 Z-1.579 I0 J1
G1 Y10.5 Z-1.616
G2 X-28.6 Y14.9 Z-1.647 I4.4 J0
G1 X-4.4 Z-1.753
G2 X0 Y10.5 Z-1.784 I0 J-4.4
G1 Y1.9 Z-1.821
G2 X-1 Y0.9 Z-1.828 I-1 J0
G1 X-1.505 Z-1.83
G2 X-2.5 Y0 Z-1.837 I-0.995 J0.1
G1 X-5.45 Z-1.85
G2 X-6.45 Y1 Z-1.857 I0 J1
G1 Y2.8 Z-1.865
G2 X-5.45 Y3.8 Z-1.872 I1 J0
G1 X-5.2 Z-1.873
Y4
X-7.8 Z-1.885
Y3.8 Z-1.886
X-7.55 Z-1.887
G2 X-6.55 Y2.8 Z-1.894 I0 J-1
G1 Y1 Z-1.902
G2 X-7.55 Y0 Z-1.909 I-1 J0
G1 X-10.5 Z-1.922
G2 X-11.495 Y0.9 Z-1.928 I0 J1
G1 X-21.505 Z-1.972
G2 X-22.5 Y0 Z-1.978 I-0.995 J0.1
G1 X-25.45 Z-1.991
G2 X-26.45 Y1 Z-1.998 I0 J1
G1 Y2.8 Z-2.006
G2 X-25.45 Y3.8 Z-2.013 I1 J0
G1 X-25.2 Z-2.014
Y4 Z-2.015
X-27.8 Z-2.027
Y3.8
X-27.55 Z-2.028
G2 X-26.55 Y2.8 Z-2.035 I0 J-1
G1 Y1 Z-2.043
G2 X-27.55 Y0 Z-2.05 I-1 J0
G1 X-30.5 Z-2.063
G2 X-31.495 Y0.9 Z-2.07 I0 J1
G1 X-32 Z-2.072
G2 X-33 Y1.9 Z-2.079 I0 J1
G1 Y10.5 Z-2.116
G2 X-28.6 Y14.9 Z-2.147 I4.4 J0
G1 X-4.4 Z-2.253
G2 X0 Y10.5 Z-2.284 I0 J-4.4
G1 Y1.9 Z-2.321
G2 X-1 Y0.9 Z-2.328 I-1 J0
G1 X-1.505 Z-2.33
G2 X-2.5 Y0 Z-2.337 I-0.995 J0.1
G1 X-5.45 Z-2.35
G2 X-6.45 Y1 Z-2.357 I0 J1
G1 Y2.8 Z-2.365
G2 X-5.45 Y3.8 Z-2.372 I1 J0
G1 X-5.2 Z-2.373
Y4
X-7.8 Z-2.385
Y3.8 Z-2.386
X-7.55 Z-2.387
G2 X-6.55 Y2.8 Z-2.394 I0 J-1
G1 Y1 Z-2.402
G2 X-7.55 Y0 Z-2.409 I-1 J0
G1 X-10.5 Z-2.422
G2 X-11.495 Y0.9 Z-2.428 I0 J1
G1 X-21.505 Z-2.472
G2 X-22.5 Y0 Z-2.478 I-0.995 J0.1
G1 X-25.45 Z-2.491
G2 X-26.45 Y1 Z-2.498 I0 J1
G1 Y2.8 Z-2.506
G2 X-25.45 Y3.8 Z-2.513 I1 J0
G1 X-25.2 Z-2.514
Y4 Z-2.515
X-27.8 Z-2.527
Y3.8
X-27.55 Z-2.528
G2 X-26.55 Y2.8 Z-2.535 I0 J-1
G1 Y1 Z-2.543
G2 X-27.55 Y0 Z-2.55 I-1 J0
G1 X-30.5 Z-2.563
G2 X-31.495 Y0.9 Z-2.57 I0 J1
G1 X-32 Z-2.572
G2 X-33 Y1.9 Z-2.579 I0 J1
G1 Y10.5 Z-2.616
G2 X-28.6 Y14.9 Z-2.647 I4.4 J0
G1 X-4.4 Z-2.753
G2 X0 Y10.5 Z-2.784 I0 J-4.4
G1 Y1.9 Z-2.821
G2 X-1 Y0.9 Z-2.828 I-1 J0
G1 X-1.505 Z-2.83
G2 X-2.5 Y0 Z-2.837 I-0.995 J0.1
G1 X-5.45 Z-2.85
G2 X-6.45 Y1 Z-2.857 I0 J1
G1 Y2.8 Z-2.865
G2 X-5.45 Y3.8 Z-2.872 I1 J0
G1 X-5.2 Z-2.873
Y4
X-7.8 Z-2.885
Y3.8 Z-2.886
X-7.55 Z-2.887
G2 X-6.55 Y2.8 Z-2.894 I0 J-1
G1 Y1 Z-2.902
G2 X-7.55 Y0 Z-2.909 I-1 J0
G1 X-10.5 Z-2.922
G2 X-11.495 Y0.9 Z-2.928 I0 J1
G1 X-21.505 Z-2.972
G2 X-22.5 Y0 Z-2.978 I-0.995 J0.1
G1 X-25.45 Z-2.991
G2 X-26.45 Y1 Z-2.998 I0 J1
G1 Y2.8 Z-3.006
G2 X-25.45 Y3.8 Z-3.013 I1 J0
G1 X-25.2 Z-3.014
Y4 Z-3.015
X-27.8 Z-3.027
Y3.8
X-27.55 Z-3.028
G2 X-26.55 Y2.8 Z-3.035 I0 J-1
G1 Y1 Z-3.043
G2 X-27.55 Y0 Z-3.05 I-1 J0
G1 X-30.5 Z-3.063
G2 X-31.495 Y0.9 Z-3.07 I0 J1
G1 X-32 Z-3.072
G2 X-33 Y1.9 Z-3.079 I0 J1
G1 Y10.5 Z-3.116
G2 X-28.6 Y14.9 Z-3.147 I4.4 J0
G1 X-16.5 Z-3.2
X-4.4
G2 X0 Y10.5 I0 J-4.4
G1 Y1.9
G2 X-1 Y0.9 I-1 J0
G1 X-1.505
G2 X-2.5 Y0 I-0.995 J0.1
G1 X-5.45
G2 X-6.45 Y1 I0 J1
G1 Y2.8
G2 X-5.45 Y3.8 I1 J0
G1 X-5.2
Y4
X-7.8
Y3.8
X-7.55
G2 X-6.55 Y2.8 I0 J-1
G1 Y1
G2 X-7.55 Y0 I-1 J0
G1 X-10.5
G2 X-11.495 Y0.9 I0 J1
G1 X-21.505
G2 X-22.5 Y0 I-0.995 J0.1
G1 X-25.45
G2 X-26.45 Y1 I0 J1
G1 Y2.8
G2 X-25.45 Y3.8 I1 J0
G1 X-25.2
Y4
X-27.8
Y3.8
X-27.55
G2 X-26.55 Y2.8 I0 J-1
G1 Y1
G2 X-27.55 Y0 I-1 J0
G1 X-30.5
G2 X-31.495 Y0.9 I0 J1
G1 X-32
G2 X-33 Y1.9 I0 J1
G1 Y10.5
G2 X-28.6 Y14.9 I4.4 J0
G1 X-16.5
G0 Z15

M9
M30
