(04 1MM FLAT FINE CONTOURS)
(T10  D=1 CR=0 - ZMIN=-3.2 - FLAT END MILL)
G90 G94 G91.1 G40 G49 G17
G21

(04 1MM FLAT FINE CONTOURS)
M5
M9
T10
(DIAMOND OR SPIRAL)
S20000 M3
G54
M8
G0 X-10.969 Y1.366
G43 Z15 H1
Z2
G1 Z0.1 F50
G2 X-10.854 Y1.546 Z0.081 I0.469 J-0.173 F500
X-11.207 Y1.4 Z0.047 I-0.354 J0.354
G1 X-11.5 Z0.021
Y0.9 Z-0.023
X-11 Z-0.066
Y1.193 Z-0.092
G2 X-10.854 Y1.546 Z-0.126 I0.5 J0
X-11.207 Y1.4 Z-0.161 I-0.354 J0.354
G1 X-11.5 Z-0.186
Y0.9 Z-0.23
X-11 Z-0.274
Y1.193 Z-0.299
G2 X-10.854 Y1.546 Z-0.334 I0.5 J0
X-11.207 Y1.4 Z-0.368 I-0.354 J0.354
G1 X-11.5 Z-0.394
Y0.9 Z-0.438
X-11 Z-0.481
Y1.193 Z-0.507
G2 X-10.854 Y1.546 Z-0.541 I0.5 J0
X-11.207 Y1.4 Z-0.576 I-0.354 J0.354
G1 X-11.5 Z-0.601
Y0.9 Z-0.645
X-11 Z-0.689
Y1.193 Z-0.714
G2 X-10.854 Y1.546 Z-0.749 I0.5 J0
X-11.207 Y1.4 Z-0.783 I-0.354 J0.354
G1 X-11.5 Z-0.809
Y0.9 Z-0.852
X-11 Z-0.896
Y1.193 Z-0.922
G2 X-10.854 Y1.546 Z-0.956 I0.5 J0
X-11.207 Y1.4 Z-0.99 I-0.354 J0.354
G1 X-11.5 Z-1.016
Y0.9 Z-1.06
X-11 Z-1.104
Y1.193 Z-1.129
G2 X-10.854 Y1.546 Z-1.164 I0.5 J0
X-11.207 Y1.4 Z-1.198 I-0.354 J0.354
G1 X-11.5 Z-1.224
Y0.9 Z-1.267
X-11 Z-1.311
Y1.193 Z-1.337
G2 X-10.854 Y1.546 Z-1.371 I0.5 J0
X-11.207 Y1.4 Z-1.405 I-0.354 J0.354
G1 X-11.5 Z-1.431
Y0.9 Z-1.475
X-11 Z-1.519
Y1.193 Z-1.544
G2 X-10.854 Y1.546 Z-1.578 I0.5 J0
X-11.207 Y1.4 Z-1.613 I-0.354 J0.354
G1 X-11.5 Z-1.638
Y0.9 Z-1.682
X-11 Z-1.726
Y1.193 Z-1.752
G2 X-10.854 Y1.546 Z-1.786 I0.5 J0
X-11.207 Y1.4 Z-1.82 I-0.354 J0.354
G1 X-11.5 Z-1.846
Y0.9 Z-1.89
X-11 Z-1.933
Y1.193 Z-1.959
G2 X-10.854 Y1.546 Z-1.993 I0.5 J0
X-11.207 Y1.4 Z-2.028 I-0.354 J0.354
G1 X-11.5 Z-2.053
Y0.9 Z-2.097
X-11 Z-2.141
Y1.193 Z-2.166
G2 X-10.854 Y1.546 Z-2.201 I0.5 J0
X-11.207 Y1.4 Z-2.235 I-0.354 J0.354
G1 X-11.5 Z-2.261
Y0.9 Z-2.305
X-11 Z-2.348
Y1.193 Z-2.374
G2 X-10.854 Y1.546 Z-2.408 I0.5 J0
X-11.207 Y1.4 Z-2.443 I-0.354 J0.354
G1 X-11.5 Z-2.468
Y0.9 Z-2.512
X-11 Z-2.556
Y1.193 Z-2.581
G2 X-10.854 Y1.546 Z-2.616 I0.5 J0
X-11.207 Y1.4 Z-2.65 I-0.354 J0.354
G1 X-11.5 Z-2.676
Y0.9 Z-2.719
X-11 Z-2.763
Y1.193 Z-2.789
G2 X-10.854 Y1.546 Z-2.823 I0.5 J0
X-11.207 Y1.4 Z-2.858 I-0.354 J0.354
G1 X-11.5 Z-2.883
Y0.9 Z-2.927
X-11 Z-2.971
Y1.193 Z-2.996
G2 X-10.854 Y1.546 Z-3.031 I0.5 J0
X-11.207 Y1.4 Z-3.065 I-0.354 J0.354
G1 X-11.5 Z-3.091
Y0.9 Z-3.134
X-11 Z-3.178
Y1.15 Z-3.2
Y1.193
G2 X-10.854 Y1.546 I0.5 J0
X-11.207 Y1.4 I-0.354 J0.354
G1 X-11.5
Y0.9
X-11
Y1.15
G0 Z5
X-1.966 Y1.431
Z2
G1 Z0.1 F50
G2 X-2.146 Y1.546 Z0.081 I0.173 J0.469 F500
X-2 Y1.193 Z0.047 I-0.354 J-0.354
G1 Y0.9 Z0.021
X-1.5 Z-0.023
Y1.4 Z-0.066
X-1.793 Z-0.092
G2 X-2.146 Y1.546 Z-0.126 I0 J0.5
X-2 Y1.193 Z-0.161 I-0.354 J-0.354
G1 Y0.9 Z-0.186
X-1.5 Z-0.23
Y1.4 Z-0.274
X-1.793 Z-0.299
G2 X-2.146 Y1.546 Z-0.334 I0 J0.5
X-2 Y1.193 Z-0.368 I-0.354 J-0.354
G1 Y0.9 Z-0.394
X-1.5 Z-0.438
Y1.4 Z-0.481
X-1.793 Z-0.507
G2 X-2.146 Y1.546 Z-0.541 I0 J0.5
X-2 Y1.193 Z-0.576 I-0.354 J-0.354
G1 Y0.9 Z-0.601
X-1.5 Z-0.645
Y1.4 Z-0.689
X-1.793 Z-0.714
G2 X-2.146 Y1.546 Z-0.749 I0 J0.5
X-2 Y1.193 Z-0.783 I-0.354 J-0.354
G1 Y0.9 Z-0.809
X-1.5 Z-0.852
Y1.4 Z-0.896
X-1.793 Z-0.922
G2 X-2.146 Y1.546 Z-0.956 I0 J0.5
X-2 Y1.193 Z-0.99 I-0.354 J-0.354
G1 Y0.9 Z-1.016
X-1.5 Z-1.06
Y1.4 Z-1.104
X-1.793 Z-1.129
G2 X-2.146 Y1.546 Z-1.164 I0 J0.5
X-2 Y1.193 Z-1.198 I-0.354 J-0.354
G1 Y0.9 Z-1.224
X-1.5 Z-1.267
Y1.4 Z-1.311
X-1.793 Z-1.337
G2 X-2.146 Y1.546 Z-1.371 I0 J0.5
X-2 Y1.193 Z-1.405 I-0.354 J-0.354
G1 Y0.9 Z-1.431
X-1.5 Z-1.475
Y1.4 Z-1.519
X-1.793 Z-1.544
G2 X-2.146 Y1.546 Z-1.578 I0 J0.5
X-2 Y1.193 Z-1.613 I-0.354 J-0.354
G1 Y0.9 Z-1.638
X-1.5 Z-1.682
Y1.4 Z-1.726
X-1.793 Z-1.752
G2 X-2.146 Y1.546 Z-1.786 I0 J0.5
X-2 Y1.193 Z-1.82 I-0.354 J-0.354
G1 Y0.9 Z-1.846
X-1.5 Z-1.89
Y1.4 Z-1.933
X-1.793 Z-1.959
G2 X-2.146 Y1.546 Z-1.993 I0 J0.5
X-2 Y1.193 Z-2.028 I-0.354 J-0.354
G1 Y0.9 Z-2.053
X-1.5 Z-2.097
Y1.4 Z-2.141
X-1.793 Z-2.166
G2 X-2.146 Y1.546 Z-2.201 I0 J0.5
X-2 Y1.193 Z-2.235 I-0.354 J-0.354
G1 Y0.9 Z-2.261
X-1.5 Z-2.305
Y1.4 Z-2.348
X-1.793 Z-2.374
G2 X-2.146 Y1.546 Z-2.408 I0 J0.5
X-2 Y1.193 Z-2.443 I-0.354 J-0.354
G1 Y0.9 Z-2.468
X-1.5 Z-2.512
Y1.4 Z-2.556
X-1.793 Z-2.581
G2 X-2.146 Y1.546 Z-2.616 I0 J0.5
X-2 Y1.193 Z-2.65 I-0.354 J-0.354
G1 Y0.9 Z-2.676
X-1.5 Z-2.719
Y1.4 Z-2.763
X-1.793 Z-2.789
G2 X-2.146 Y1.546 Z-2.823 I0 J0.5
X-2 Y1.193 Z-2.858 I-0.354 J-0.354
G1 Y0.9 Z-2.883
X-1.5 Z-2.927
Y1.4 Z-2.971
X-1.793 Z-2.996
G2 X-2.146 Y1.546 Z-3.031 I0 J0.5
X-2 Y1.193 Z-3.065 I-0.354 J-0.354
G1 Y0.9 Z-3.091
X-1.5 Z-3.134
Y1.4 Z-3.178
X-1.75 Z-3.2
X-1.793
G2 X-2.146 Y1.546 I0 J0.5
X-2 Y1.193 I-0.354 J-0.354
G1 Y0.9
X-1.5
Y1.4
X-1.75
G0 Z5
X-21.966 Y1.431
Z2
G1 Z0.1 F50
G2 X-22.146 Y1.546 Z0.081 I0.173 J0.469 F500
X-22 Y1.193 Z0.047 I-0.354 J-0.354
G1 Y0.9 Z0.021
X-21.5 Z-0.023
Y1.4 Z-0.066
X-21.793 Z-0.092
G2 X-22.146 Y1.546 Z-0.126 I0 J0.5
X-22 Y1.193 Z-0.161 I-0.354 J-0.354
G1 Y0.9 Z-0.186
X-21.5 Z-0.23
Y1.4 Z-0.274
X-21.793 Z-0.299
G2 X-22.146 Y1.546 Z-0.334 I0 J0.5
X-22 Y1.193 Z-0.368 I-0.354 J-0.354
G1 Y0.9 Z-0.394
X-21.5 Z-0.438
Y1.4 Z-0.481
X-21.793 Z-0.507
G2 X-22.146 Y1.546 Z-0.541 I0 J0.5
X-22 Y1.193 Z-0.576 I-0.354 J-0.354
G1 Y0.9 Z-0.601
X-21.5 Z-0.645
Y1.4 Z-0.689
X-21.793 Z-0.714
G2 X-22.146 Y1.546 Z-0.749 I0 J0.5
X-22 Y1.193 Z-0.783 I-0.354 J-0.354
G1 Y0.9 Z-0.809
X-21.5 Z-0.852
Y1.4 Z-0.896
X-21.793 Z-0.922
G2 X-22.146 Y1.546 Z-0.956 I0 J0.5
X-22 Y1.193 Z-0.99 I-0.354 J-0.354
G1 Y0.9 Z-1.016
X-21.5 Z-1.06
Y1.4 Z-1.104
X-21.793 Z-1.129
G2 X-22.146 Y1.546 Z-1.164 I0 J0.5
X-22 Y1.193 Z-1.198 I-0.354 J-0.354
G1 Y0.9 Z-1.224
X-21.5 Z-1.267
Y1.4 Z-1.311
X-21.793 Z-1.337
G2 X-22.146 Y1.546 Z-1.371 I0 J0.5
X-22 Y1.193 Z-1.405 I-0.354 J-0.354
G1 Y0.9 Z-1.431
X-21.5 Z-1.475
Y1.4 Z-1.519
X-21.793 Z-1.544
G2 X-22.146 Y1.546 Z-1.578 I0 J0.5
X-22 Y1.193 Z-1.613 I-0.354 J-0.354
G1 Y0.9 Z-1.638
X-21.5 Z-1.682
Y1.4 Z-1.726
X-21.793 Z-1.752
G2 X-22.146 Y1.546 Z-1.786 I0 J0.5
X-22 Y1.193 Z-1.82 I-0.354 J-0.354
G1 Y0.9 Z-1.846
X-21.5 Z-1.89
Y1.4 Z-1.933
X-21.793 Z-1.959
G2 X-22.146 Y1.546 Z-1.993 I0 J0.5
X-22 Y1.193 Z-2.028 I-0.354 J-0.354
G1 Y0.9 Z-2.053
X-21.5 Z-2.097
Y1.4 Z-2.141
X-21.793 Z-2.166
G2 X-22.146 Y1.546 Z-2.201 I0 J0.5
X-22 Y1.193 Z-2.235 I-0.354 J-0.354
G1 Y0.9 Z-2.261
X-21.5 Z-2.305
Y1.4 Z-2.348
X-21.793 Z-2.374
G2 X-22.146 Y1.546 Z-2.408 I0 J0.5
X-22 Y1.193 Z-2.443 I-0.354 J-0.354
G1 Y0.9 Z-2.468
X-21.5 Z-2.512
Y1.4 Z-2.556
X-21.793 Z-2.581
G2 X-22.146 Y1.546 Z-2.616 I0 J0.5
X-22 Y1.193 Z-2.65 I-0.354 J-0.354
G1 Y0.9 Z-2.676
X-21.5 Z-2.719
Y1.4 Z-2.763
X-21.793 Z-2.789
G2 X-22.146 Y1.546 Z-2.823 I0 J0.5
X-22 Y1.193 Z-2.858 I-0.354 J-0.354
G1 Y0.9 Z-2.883
X-21.5 Z-2.927
Y1.4 Z-2.971
X-21.793 Z-2.996
G2 X-22.146 Y1.546 Z-3.031 I0 J0.5
X-22 Y1.193 Z-3.065 I-0.354 J-0.354
G1 Y0.9 Z-3.091
X-21.5 Z-3.134
Y1.4 Z-3.178
X-21.75 Z-3.2
X-21.793
G2 X-22.146 Y1.546 I0 J0.5
X-22 Y1.193 I-0.354 J-0.354
G1 Y0.9
X-21.5
Y1.4
X-21.75
G0 Z5
X-30.969 Y1.366
Z2
G1 Z0.1 F50
G2 X-30.854 Y1.546 Z0.081 I0.469 J-0.173 F500
X-31.207 Y1.4 Z0.047 I-0.354 J0.354
G1 X-31.5 Z0.021
Y0.9 Z-0.023
X-31 Z-0.066
Y1.193 Z-0.092
G2 X-30.854 Y1.546 Z-0.126 I0.5 J0
X-31.207 Y1.4 Z-0.161 I-0.354 J0.354
G1 X-31.5 Z-0.186
Y0.9 Z-0.23
X-31 Z-0.274
Y1.193 Z-0.299
G2 X-30.854 Y1.546 Z-0.334 I0.5 J0
X-31.207 Y1.4 Z-0.368 I-0.354 J0.354
G1 X-31.5 Z-0.394
Y0.9 Z-0.438
X-31 Z-0.481
Y1.193 Z-0.507
G2 X-30.854 Y1.546 Z-0.541 I0.5 J0
X-31.207 Y1.4 Z-0.576 I-0.354 J0.354
G1 X-31.5 Z-0.601
Y0.9 Z-0.645
X-31 Z-0.689
Y1.193 Z-0.714
G2 X-30.854 Y1.546 Z-0.749 I0.5 J0
X-31.207 Y1.4 Z-0.783 I-0.354 J0.354
G1 X-31.5 Z-0.809
Y0.9 Z-0.852
X-31 Z-0.896
Y1.193 Z-0.922
G2 X-30.854 Y1.546 Z-0.956 I0.5 J0
X-31.207 Y1.4 Z-0.99 I-0.354 J0.354
G1 X-31.5 Z-1.016
Y0.9 Z-1.06
X-31 Z-1.104
Y1.193 Z-1.129
G2 X-30.854 Y1.546 Z-1.164 I0.5 J0
X-31.207 Y1.4 Z-1.198 I-0.354 J0.354
G1 X-31.5 Z-1.224
Y0.9 Z-1.267
X-31 Z-1.311
Y1.193 Z-1.337
G2 X-30.854 Y1.546 Z-1.371 I0.5 J0
X-31.207 Y1.4 Z-1.405 I-0.354 J0.354
G1 X-31.5 Z-1.431
Y0.9 Z-1.475
X-31 Z-1.519
Y1.193 Z-1.544
G2 X-30.854 Y1.546 Z-1.578 I0.5 J0
X-31.207 Y1.4 Z-1.613 I-0.354 J0.354
G1 X-31.5 Z-1.638
Y0.9 Z-1.682
X-31 Z-1.726
Y1.193 Z-1.752
G2 X-30.854 Y1.546 Z-1.786 I0.5 J0
X-31.207 Y1.4 Z-1.82 I-0.354 J0.354
G1 X-31.5 Z-1.846
Y0.9 Z-1.89
X-31 Z-1.933
Y1.193 Z-1.959
G2 X-30.854 Y1.546 Z-1.993 I0.5 J0
X-31.207 Y1.4 Z-2.028 I-0.354 J0.354
G1 X-31.5 Z-2.053
Y0.9 Z-2.097
X-31 Z-2.141
Y1.193 Z-2.166
G2 X-30.854 Y1.546 Z-2.201 I0.5 J0
X-31.207 Y1.4 Z-2.235 I-0.354 J0.354
G1 X-31.5 Z-2.261
Y0.9 Z-2.305
X-31 Z-2.348
Y1.193 Z-2.374
G2 X-30.854 Y1.546 Z-2.408 I0.5 J0
X-31.207 Y1.4 Z-2.443 I-0.354 J0.354
G1 X-31.5 Z-2.468
Y0.9 Z-2.512
X-31 Z-2.556
Y1.193 Z-2.581
G2 X-30.854 Y1.546 Z-2.616 I0.5 J0
X-31.207 Y1.4 Z-2.65 I-0.354 J0.354
G1 X-31.5 Z-2.676
Y0.9 Z-2.719
X-31 Z-2.763
Y1.193 Z-2.789
G2 X-30.854 Y1.546 Z-2.823 I0.5 J0
X-31.207 Y1.4 Z-2.858 I-0.354 J0.354
G1 X-31.5 Z-2.883
Y0.9 Z-2.927
X-31 Z-2.971
Y1.193 Z-2.996
G2 X-30.854 Y1.546 Z-3.031 I0.5 J0
X-31.207 Y1.4 Z-3.065 I-0.354 J0.354
G1 X-31.5 Z-3.091
Y0.9 Z-3.134
X-31 Z-3.178
Y1.15 Z-3.2
Y1.193
G2 X-30.854 Y1.546 I0.5 J0
X-31.207 Y1.4 I-0.354 J0.354
G1 X-31.5
Y0.9
X-31
Y1.15
G0 Z15

M9
M30
