(01 2MM FLAT SLOTS)
(T11  D=2 CR=0 - ZMIN=-2.2 - FLAT END MILL)
G90 G94 G91.1 G40 G49 G17
G21

(01 2MM FLAT SLOTS)
M5
M9
T11
(DIAMOND OR SPIRAL)
S20000 M3
G54
M8
G0 X-35.5 Y29.5
G43 Z15 H1
Z5
G1 Z0.1 F500
Y31.5 Z-0.064 F1000
Y29.5 Z-0.229
Y31.5 Z-0.393
Y29.5 Z-0.557
Y31.5 Z-0.721
Y29.5 Z-0.886
Y31.5 Z-1.05
Y29.5 Z-1.214
Y31.5 Z-1.379
Y29.5 Z-1.543
Y31.5 Z-1.707
Y29.5 Z-1.871
Y31.5 Z-2.036
Y29.5 Z-2.2
Y31.5
G0 Z5
X-43.5 Y29.5
G1 Z0.1 F500
Y31.5 Z-0.064 F1000
Y29.5 Z-0.229
Y31.5 Z-0.393
Y29.5 Z-0.557
Y31.5 Z-0.721
Y29.5 Z-0.886
Y31.5 Z-1.05
Y29.5 Z-1.214
Y31.5 Z-1.379
Y29.5 Z-1.543
Y31.5 Z-1.707
Y29.5 Z-1.871
Y31.5 Z-2.036
Y29.5 Z-2.2
Y31.5
G0 Z5
X-66.909 Y23.542
G1 Z0.1 F500
G2 X-65.243 Y26.743 Z-0.13 I5.909 J-1.042 F1000
G3 X-66.909 Y23.542 Z-0.36 I4.243 J-4.243
G2 X-65.243 Y26.743 Z-0.59 I5.909 J-1.042
G3 X-66.909 Y23.542 Z-0.82 I4.243 J-4.243
G2 X-65.243 Y26.743 Z-1.05 I5.909 J-1.042
G3 X-66.909 Y23.542 Z-1.28 I4.243 J-4.243
G2 X-65.243 Y26.743 Z-1.51 I5.909 J-1.042
G3 X-66.909 Y23.542 Z-1.74 I4.243 J-4.243
G2 X-65.243 Y26.743 Z-1.97 I5.909 J-1.042
G3 X-66.909 Y23.542 Z-2.2 I4.243 J-4.243
G2 X-65.243 Y26.743 I5.909 J-1.042
G0 Z5
X-13.757
G1 Z0.1 F500
G2 X-12.091 Y23.542 Z-0.13 I-4.243 J-4.243 F1000
G3 X-13.757 Y26.743 Z-0.36 I-5.909 J-1.042
G2 X-12.091 Y23.542 Z-0.59 I-4.243 J-4.243
G3 X-13.757 Y26.743 Z-0.82 I-5.909 J-1.042
G2 X-12.091 Y23.542 Z-1.05 I-4.243 J-4.243
G3 X-13.757 Y26.743 Z-1.28 I-5.909 J-1.042
G2 X-12.091 Y23.542 Z-1.51 I-4.243 J-4.243
G3 X-13.757 Y26.743 Z-1.74 I-5.909 J-1.042
G2 X-12.091 Y23.542 Z-1.97 I-4.243 J-4.243
G3 X-13.757 Y26.743 Z-2.2 I-5.909 J-1.042
G2 X-12.091 Y23.542 I-4.243 J-4.243
G0 Z15

M9
M30
