(02 2MM FLAT HOLES)
(T11  D=2 CR=0 - ZMIN=-2.2 - FLAT END MILL)
G90 G94 G91.1 G40 G49 G17
G21

(02 2MM FLAT HOLES)
M5
M9
T11
(DIAMOND OR SPIRAL)
S20000 M3
G54
M8
G0 X-73.5 Y37.378
G43 Z12 H1
Z2
G98 G81 X-73.5 Y37.378 Z-2.2 R1 F100
X-61 Y31.5
Y27
Y22.5
X-43.5 Y25.5
X-35.5
X-18 Y22.5
Y27
Y31.5
X-5.5 Y37.378
G80
Z12

M9
M30
