(03 2MM FLAT OUTER CONTOURS)
(T11  D=2 CR=0 - ZMIN=-2.2 - FLAT END MILL)
G90 G94 G91.1 G40 G49 G17
G21

(03 2MM FLAT OUTER CONTOURS)
M5
M9
T11
(DIAMOND OR SPIRAL)
S20000 M3
G54
M8
G0 X-77.208 Y0.549
G43 Z15 H1
Z2
G1 Z0.1 F100
G2 X-77.9 Y1.5 Z0.097 I0.308 J0.951 F1000
G1 Y4.45 Z0.09
G2 X-76.9 Y5.45 Z0.087 I1 J0
G1 X-74.1 Z0.08
G2 X-73.1 Y4.45 Z0.077 I0 J-1
G1 Y4.2 Z0.076
X-72.9
Y6.8 Z0.07
X-73.1 Z0.069
Y6.55
G2 X-74.1 Y5.55 Z0.065 I-1 J0
G1 X-76.9 Z0.059
G2 X-77.9 Y6.55 Z0.055 I0 J1
G1 Y9.5 Z0.048
G2 X-77 Y10.495 Z0.045 I1 J0
G1 Y10.6
X-78 Z0.042
G2 X-79 Y11.6 Z0.039 I0 J1
G1 Y11.826 Z0.038
G2 X-78.541 Y21.448 Z0.016 I101 J0
G1 X-76.995 Y37.592 Z-0.021
G2 X-76.973 Y37.726 Z-0.022 I0.995 J-0.095
G1 X-76.958 Y37.898
G2 X-76.947 Y37.985 I0.996 J-0.087
X-75.751 Y40.057 Z-0.028 I3.447 J-0.607
X-40.348 Y32.468 Z-0.124 I14.751 J-17.557
X-40 Y30.946 Z-0.128 I-3.152 J-1.521
G1 Y1 Z-0.196
G2 X-41 Y0 Z-0.2 I-1 J0
G1 X-43.7 Z-0.206
G2 X-44.7 Y1 Z-0.21 I0 J1
G1 Y2.8 Z-0.214
G2 X-43.7 Y3.8 Z-0.218 I1 J0
G1 X-43.45
Y4 Z-0.219
X-46.05 Z-0.225
Y3.8
X-45.8 Z-0.226
G2 X-44.8 Y2.8 Z-0.229 I0 J-1
G1 Y1 Z-0.233
G2 X-45.8 Y0 Z-0.237 I-1 J0
G1 X-48.5 Z-0.243
G2 X-49.5 Y1 Z-0.247 I0 J1
G1 Y12.5 Z-0.273
X-55 Z-0.286
Y10.495 Z-0.291
G2 X-54.1 Y9.5 Z-0.294 I-0.1 J-0.995
G1 Y6.55 Z-0.301
G2 X-55.1 Y5.55 Z-0.304 I-1 J0
G1 X-56.9 Z-0.308
G2 X-57.9 Y6.55 Z-0.312 I0 J1
G1 Y6.8 Z-0.313
X-58.1
Y4.2 Z-0.319
X-57.9 Z-0.32
Y4.45
G2 X-56.9 Y5.45 Z-0.324 I1 J0
G1 X-55.1 Z-0.328
G2 X-54.1 Y4.45 Z-0.332 I0 J-1
G1 Y1.5 Z-0.338
G2 X-55.1 Y0.5 Z-0.342 I-1 J0
G1 X-61 Z-0.355
G2 X-62 Y1.5 Z-0.359 I0 J1
G1 Y2.5 Z-0.361
X-70 Z-0.38
Y1.5 Z-0.382
G2 X-71 Y0.5 Z-0.386 I-1 J0
G1 X-76.9 Z-0.399
G2 X-77.9 Y1.5 Z-0.403 I0 J1
G1 Y4.45 Z-0.41
G2 X-76.9 Y5.45 Z-0.413 I1 J0
G1 X-74.1 Z-0.42
G2 X-73.1 Y4.45 Z-0.423 I0 J-1
G1 Y4.2 Z-0.424
X-72.9
Y6.8 Z-0.43
X-73.1 Z-0.431
Y6.55
G2 X-74.1 Y5.55 Z-0.435 I-1 J0
G1 X-76.9 Z-0.441
G2 X-77.9 Y6.55 Z-0.445 I0 J1
G1 Y9.5 Z-0.452
G2 X-77 Y10.495 Z-0.455 I1 J0
G1 Y10.6
X-78 Z-0.458
G2 X-79 Y11.6 Z-0.461 I0 J1
G1 Y11.826 Z-0.462
G2 X-78.541 Y21.448 Z-0.484 I101 J0
G1 X-76.995 Y37.592 Z-0.521
G2 X-76.973 Y37.726 Z-0.522 I0.995 J-0.095
G1 X-76.958 Y37.898
G2 X-76.947 Y37.985 I0.996 J-0.087
X-75.751 Y40.057 Z-0.528 I3.447 J-0.607
X-40.348 Y32.468 Z-0.624 I14.751 J-17.557
X-40 Y30.946 Z-0.628 I-3.152 J-1.521
G1 Y1 Z-0.696
G2 X-41 Y0 Z-0.7 I-1 J0
G1 X-43.7 Z-0.706
G2 X-44.7 Y1 Z-0.71 I0 J1
G1 Y2.8 Z-0.714
G2 X-43.7 Y3.8 Z-0.718 I1 J0
G1 X-43.45
Y4 Z-0.719
X-46.05 Z-0.725
Y3.8
X-45.8 Z-0.726
G2 X-44.8 Y2.8 Z-0.729 I0 J-1
G1 Y1 Z-0.733
G2 X-45.8 Y0 Z-0.737 I-1 J0
G1 X-48.5 Z-0.743
G2 X-49.5 Y1 Z-0.747 I0 J1
G1 Y12.5 Z-0.773
X-55 Z-0.786
Y10.495 Z-0.791
G2 X-54.1 Y9.5 Z-0.794 I-0.1 J-0.995
G1 Y6.55 Z-0.801
G2 X-55.1 Y5.55 Z-0.804 I-1 J0
G1 X-56.9 Z-0.808
G2 X-57.9 Y6.55 Z-0.812 I0 J1
G1 Y6.8 Z-0.813
X-58.1
Y4.2 Z-0.819
X-57.9 Z-0.82
Y4.45
G2 X-56.9 Y5.45 Z-0.824 I1 J0
G1 X-55.1 Z-0.828
G2 X-54.1 Y4.45 Z-0.832 I0 J-1
G1 Y1.5 Z-0.838
G2 X-55.1 Y0.5 Z-0.842 I-1 J0
G1 X-61 Z-0.855
G2 X-62 Y1.5 Z-0.859 I0 J1
G1 Y2.5 Z-0.861
X-70 Z-0.88
Y1.5 Z-0.882
G2 X-71 Y0.5 Z-0.886 I-1 J0
G1 X-76.9 Z-0.899
G2 X-77.9 Y1.5 Z-0.903 I0 J1
G1 Y4.45 Z-0.91
G2 X-76.9 Y5.45 Z-0.913 I1 J0
G1 X-74.1 Z-0.92
G2 X-73.1 Y4.45 Z-0.923 I0 J-1
G1 Y4.2 Z-0.924
X-72.9
Y6.8 Z-0.93
X-73.1 Z-0.931
Y6.55
G2 X-74.1 Y5.55 Z-0.935 I-1 J0
G1 X-76.9 Z-0.941
G2 X-77.9 Y6.55 Z-0.945 I0 J1
G1 Y9.5 Z-0.952
G2 X-77 Y10.495 Z-0.955 I1 J0
G1 Y10.6
X-78 Z-0.958
G2 X-79 Y11.6 Z-0.961 I0 J1
G1 Y11.826 Z-0.962
G2 X-78.541 Y21.448 Z-0.984 I101 J0
G1 X-76.995 Y37.592 Z-1.021
G2 X-76.973 Y37.726 Z-1.022 I0.995 J-0.095
G1 X-76.958 Y37.898
G2 X-76.947 Y37.985 I0.996 J-0.087
X-75.751 Y40.057 Z-1.028 I3.447 J-0.607
X-40.348 Y32.468 Z-1.124 I14.751 J-17.557
X-40 Y30.946 Z-1.128 I-3.152 J-1.521
G1 Y1 Z-1.196
G2 X-41 Y0 Z-1.2 I-1 J0
G1 X-43.7 Z-1.206
G2 X-44.7 Y1 Z-1.21 I0 J1
G1 Y2.8 Z-1.214
G2 X-43.7 Y3.8 Z-1.218 I1 J0
G1 X-43.45
Y4 Z-1.219
X-46.05 Z-1.225
Y3.8
X-45.8 Z-1.226
G2 X-44.8 Y2.8 Z-1.229 I0 J-1
G1 Y1 Z-1.233
G2 X-45.8 Y0 Z-1.237 I-1 J0
G1 X-48.5 Z-1.243
G2 X-49.5 Y1 Z-1.247 I0 J1
G1 Y12.5 Z-1.273
X-55 Z-1.286
Y10.495 Z-1.291
G2 X-54.1 Y9.5 Z-1.294 I-0.1 J-0.995
G1 Y6.55 Z-1.301
G2 X-55.1 Y5.55 Z-1.304 I-1 J0
G1 X-56.9 Z-1.308
G2 X-57.9 Y6.55 Z-1.312 I0 J1
G1 Y6.8 Z-1.313
X-58.1
Y4.2 Z-1.319
X-57.9 Z-1.32
Y4.45
G2 X-56.9 Y5.45 Z-1.324 I1 J0
G1 X-55.1 Z-1.328
G2 X-54.1 Y4.45 Z-1.332 I0 J-1
G1 Y1.5 Z-1.338
G2 X-55.1 Y0.5 Z-1.342 I-1 J0
G1 X-61 Z-1.355
G2 X-62 Y1.5 Z-1.359 I0 J1
G1 Y2.5 Z-1.361
X-70 Z-1.38
Y1.5 Z-1.382
G2 X-71 Y0.5 Z-1.386 I-1 J0
G1 X-76.9 Z-1.399
G2 X-77.9 Y1.5 Z-1.403 I0 J1
G1 Y4.45 Z-1.41
G2 X-76.9 Y5.45 Z-1.413 I1 J0
G1 X-74.1 Z-1.42
G2 X-73.1 Y4.45 Z-1.423 I0 J-1
G1 Y4.2 Z-1.424
X-72.9
Y6.8 Z-1.43
X-73.1 Z-1.431
Y6.55
G2 X-74.1 Y5.55 Z-1.435 I-1 J0
G1 X-76.9 Z-1.441
G2 X-77.9 Y6.55 Z-1.445 I0 J1
G1 Y9.5 Z-1.452
G2 X-77 Y10.495 Z-1.455 I1 J0
G1 Y10.6
X-78 Z-1.458
G2 X-79 Y11.6 Z-1.461 I0 J1
G1 Y11.826 Z-1.462
G2 X-78.541 Y21.448 Z-1.484 I101 J0
G1 X-76.995 Y37.592 Z-1.521
G2 X-76.973 Y37.726 Z-1.522 I0.995 J-0.095
G1 X-76.958 Y37.898
G2 X-76.947 Y37.985 I0.996 J-0.087
X-75.751 Y40.057 Z-1.528 I3.447 J-0.607
X-40.348 Y32.468 Z-1.624 I14.751 J-17.557
X-40 Y30.946 Z-1.628 I-3.152 J-1.521
G1 Y1 Z-1.696
G2 X-41 Y0 Z-1.7 I-1 J0
G1 X-43.7 Z-1.706
G2 X-44.7 Y1 Z-1.71 I0 J1
G1 Y2.8 Z-1.714
G2 X-43.7 Y3.8 Z-1.718 I1 J0
G1 X-43.45
Y4 Z-1.719
X-46.05 Z-1.725
Y3.8
X-45.8 Z-1.726
G2 X-44.8 Y2.8 Z-1.729 I0 J-1
G1 Y1 Z-1.733
G2 X-45.8 Y0 Z-1.737 I-1 J0
G1 X-48.5 Z-1.743
G2 X-49.5 Y1 Z-1.747 I0 J1
G1 Y12.5 Z-1.773
X-55 Z-1.786
Y10.495 Z-1.791
G2 X-54.1 Y9.5 Z-1.794 I-0.1 J-0.995
G1 Y6.55 Z-1.801
G2 X-55.1 Y5.55 Z-1.804 I-1 J0
G1 X-56.9 Z-1.808
G2 X-57.9 Y6.55 Z-1.812 I0 J1
G1 Y6.8 Z-1.813
X-58.1
Y4.2 Z-1.819
X-57.9 Z-1.82
Y4.45
G2 X-56.9 Y5.45 Z-1.824 I1 J0
G1 X-55.1 Z-1.828
G2 X-54.1 Y4.45 Z-1.832 I0 J-1
G1 Y1.5 Z-1.838
G2 X-55.1 Y0.5 Z-1.842 I-1 J0
G1 X-61 Z-1.855
G2 X-62 Y1.5 Z-1.859 I0 J1
G1 Y2.5 Z-1.861
X-70 Z-1.88
Y1.5 Z-1.882
G2 X-71 Y0.5 Z-1.886 I-1 J0
G1 X-76.9 Z-1.899
G2 X-77.9 Y1.5 Z-1.903 I0 J1
G1 Y4.45 Z-1.91
G2 X-76.9 Y5.45 Z-1.913 I1 J0
G1 X-74.1 Z-1.92
G2 X-73.1 Y4.45 Z-1.923 I0 J-1
G1 Y4.2 Z-1.924
X-72.9
Y6.8 Z-1.93
X-73.1 Z-1.931
Y6.55
G2 X-74.1 Y5.55 Z-1.935 I-1 J0
G1 X-76.9 Z-1.941
G2 X-77.9 Y6.55 Z-1.945 I0 J1
G1 Y9.5 Z-1.952
G2 X-77 Y10.495 Z-1.955 I1 J0
G1 Y10.6
X-78 Z-1.958
G2 X-79 Y11.6 Z-1.961 I0 J1
G1 Y11.826 Z-1.962
G2 X-78.541 Y21.448 Z-1.984 I101 J0
G1 X-76.995 Y37.592 Z-2.021
G2 X-76.973 Y37.726 Z-2.022 I0.995 J-0.095
G1 X-76.958 Y37.898
G2 X-76.947 Y37.985 I0.996 J-0.087
X-75.751 Y40.057 Z-2.028 I3.447 J-0.607
X-40.348 Y32.468 Z-2.124 I14.751 J-17.557
X-40 Y30.946 Z-2.128 I-3.152 J-1.521
G1 Y1 Z-2.196
G2 X-40.991 Y0 Z-2.2 I-1 J0
G1 X-41
X-43.7
G2 X-44.7 Y1 I0 J1
G1 Y2.8
G2 X-43.7 Y3.8 I1 J0
G1 X-43.45
Y4
X-46.05
Y3.8
X-45.8
G2 X-44.8 Y2.8 I0 J-1
G1 Y1
G2 X-45.8 Y0 I-1 J0
G1 X-48.5
G2 X-49.5 Y1 I0 J1
G1 Y12.5
X-55
Y10.495
G2 X-54.1 Y9.5 I-0.1 J-0.995
G1 Y6.55
G2 X-55.1 Y5.55 I-1 J0
G1 X-56.9
G2 X-57.9 Y6.55 I0 J1
G1 Y6.8
X-58.1
Y4.2
X-57.9
Y4.45
G2 X-56.9 Y5.45 I1 J0
G1 X-55.1
G2 X-54.1 Y4.45 I0 J-1
G1 Y1.5
G2 X-55.1 Y0.5 I-1 J0
G1 X-61
G2 X-62 Y1.5 I0 J1
G1 Y2.5
X-70
Y1.5
G2 X-71 Y0.5 I-1 J0
G1 X-76.9
G2 X-77.9 Y1.5 I0 J1
G1 Y4.45
G2 X-76.9 Y5.45 I1 J0
G1 X-74.1
G2 X-73.1 Y4.45 I0 J-1
G1 Y4.2
X-72.9
Y6.8
X-73.1
Y6.55
G2 X-74.1 Y5.55 I-1 J0
G1 X-76.9
G2 X-77.9 Y6.55 I0 J1
G1 Y9.5
G2 X-77 Y10.495 I1 J0
G1 Y10.6
X-78
G2 X-79 Y11.6 I0 J1
G1 Y11.826
G2 X-78.541 Y21.448 I101 J0
G1 X-76.995 Y37.592
G2 X-76.973 Y37.726 I0.995 J-0.095
G1 X-76.958 Y37.898
G2 X-76.947 Y37.985 I0.996 J-0.087
X-75.751 Y40.057 I3.447 J-0.607
X-40.348 Y32.468 I14.751 J-17.557
X-40 Y30.946 I-3.152 J-1.521
G1 Y1
G2 X-40.991 Y0 I-1 J0
G0 Z5
X-1.119 Y28.341
Z2
G1 Z0.1 F100
X-0.459 Y21.448 Z0.084 F1000
G2 X0 Y11.826 Z0.062 I-100.541 J-9.623
G1 Y11.6 Z0.061
G2 X-1 Y10.6 Z0.058 I-1 J0
G1 X-2 Z0.055
Y10.495
G2 X-1.1 Y9.5 Z0.052 I-0.1 J-0.995
G1 Y6.55 Z0.045
G2 X-2.1 Y5.55 Z0.041 I-1 J0
G1 X-4.9 Z0.035
G2 X-5.9 Y6.55 Z0.031 I0 J1
G1 Y6.8
X-6.1 Z0.03
Y4.2 Z0.024
X-5.9
Y4.45 Z0.023
G2 X-4.9 Y5.45 Z0.02 I1 J0
G1 X-2.1 Z0.013
G2 X-1.1 Y4.45 Z0.01 I0 J-1
G1 Y1.5 Z0.003
G2 X-2.1 Y0.5 Z-0.001 I-1 J0
G1 X-8 Z-0.014
G2 X-9 Y1.5 Z-0.018 I0 J1
G1 Y2.5 Z-0.02
X-17 Z-0.039
Y1.5 Z-0.041
G2 X-18 Y0.5 Z-0.045 I-1 J0
G1 X-23.9 Z-0.058
G2 X-24.9 Y1.5 Z-0.062 I0 J1
G1 Y4.45 Z-0.068
G2 X-23.9 Y5.45 Z-0.072 I1 J0
G1 X-22.1 Z-0.076
G2 X-21.1 Y4.45 Z-0.08 I0 J-1
G1 Y4.2
X-20.9 Z-0.081
Y6.8 Z-0.087
X-21.1
Y6.55 Z-0.088
G2 X-22.1 Y5.55 Z-0.092 I-1 J0
G1 X-23.9 Z-0.096
G2 X-24.9 Y6.55 Z-0.099 I0 J1
G1 Y9.5 Z-0.106
G2 X-24 Y10.495 Z-0.109 I1 J0
G1 Y12.5 Z-0.114
X-29.5 Z-0.127
Y1 Z-0.153
G2 X-30.5 Y0 Z-0.157 I-1 J0
G1 X-33.2 Z-0.163
G2 X-34.2 Y1 Z-0.167 I0 J1
G1 Y2.8 Z-0.171
G2 X-33.2 Y3.8 Z-0.174 I1 J0
G1 X-32.95 Z-0.175
Y4
X-35.55 Z-0.181
Y3.8 Z-0.182
X-35.3
G2 X-34.3 Y2.8 Z-0.186 I0 J-1
G1 Y1 Z-0.19
G2 X-35.3 Y0 Z-0.194 I-1 J0
G1 X-38 Z-0.2
G2 X-39 Y1 Z-0.204 I0 J1
G1 Y30.946 Z-0.272
G2 X-38.652 Y32.468 Z-0.276 I3.5 J0
X-3.249 Y40.057 Z-0.372 I20.652 J-9.968
X-2.053 Y37.985 Z-0.378 I-2.251 J-2.68
X-2.042 Y37.898 I-0.985 J-0.174
G1 X-2.027 Y37.726
G2 X-2.005 Y37.592 Z-0.379 I-0.973 J-0.229
G1 X-0.459 Y21.448 Z-0.416
G2 X0 Y11.826 Z-0.438 I-100.541 J-9.623
G1 Y11.6 Z-0.439
G2 X-1 Y10.6 Z-0.442 I-1 J0
G1 X-2 Z-0.445
Y10.495
G2 X-1.1 Y9.5 Z-0.448 I-0.1 J-0.995
G1 Y6.55 Z-0.455
G2 X-2.1 Y5.55 Z-0.459 I-1 J0
G1 X-4.9 Z-0.465
G2 X-5.9 Y6.55 Z-0.469 I0 J1
G1 Y6.8
X-6.1 Z-0.47
Y4.2 Z-0.476
X-5.9
Y4.45 Z-0.477
G2 X-4.9 Y5.45 Z-0.48 I1 J0
G1 X-2.1 Z-0.487
G2 X-1.1 Y4.45 Z-0.49 I0 J-1
G1 Y1.5 Z-0.497
G2 X-2.1 Y0.5 Z-0.501 I-1 J0
G1 X-8 Z-0.514
G2 X-9 Y1.5 Z-0.518 I0 J1
G1 Y2.5 Z-0.52
X-17 Z-0.539
Y1.5 Z-0.541
G2 X-18 Y0.5 Z-0.545 I-1 J0
G1 X-23.9 Z-0.558
G2 X-24.9 Y1.5 Z-0.562 I0 J1
G1 Y4.45 Z-0.568
G2 X-23.9 Y5.45 Z-0.572 I1 J0
G1 X-22.1 Z-0.576
G2 X-21.1 Y4.45 Z-0.58 I0 J-1
G1 Y4.2
X-20.9 Z-0.581
Y6.8 Z-0.587
X-21.1
Y6.55 Z-0.588
G2 X-22.1 Y5.55 Z-0.592 I-1 J0
G1 X-23.9 Z-0.596
G2 X-24.9 Y6.55 Z-0.599 I0 J1
G1 Y9.5 Z-0.606
G2 X-24 Y10.495 Z-0.609 I1 J0
G1 Y12.5 Z-0.614
X-29.5 Z-0.627
Y1 Z-0.653
G2 X-30.5 Y0 Z-0.657 I-1 J0
G1 X-33.2 Z-0.663
G2 X-34.2 Y1 Z-0.667 I0 J1
G1 Y2.8 Z-0.671
G2 X-33.2 Y3.8 Z-0.674 I1 J0
G1 X-32.95 Z-0.675
Y4
X-35.55 Z-0.681
Y3.8 Z-0.682
X-35.3
G2 X-34.3 Y2.8 Z-0.686 I0 J-1
G1 Y1 Z-0.69
G2 X-35.3 Y0 Z-0.694 I-1 J0
G1 X-38 Z-0.7
G2 X-39 Y1 Z-0.704 I0 J1
G1 Y30.946 Z-0.772
G2 X-38.652 Y32.468 Z-0.776 I3.5 J0
X-3.249 Y40.057 Z-0.872 I20.652 J-9.968
X-2.053 Y37.985 Z-0.878 I-2.251 J-2.68
X-2.042 Y37.898 I-0.985 J-0.174
G1 X-2.027 Y37.726
G2 X-2.005 Y37.592 Z-0.879 I-0.973 J-0.229
G1 X-0.459 Y21.448 Z-0.916
G2 X0 Y11.826 Z-0.938 I-100.541 J-9.623
G1 Y11.6 Z-0.939
G2 X-1 Y10.6 Z-0.942 I-1 J0
G1 X-2 Z-0.945
Y10.495
G2 X-1.1 Y9.5 Z-0.948 I-0.1 J-0.995
G1 Y6.55 Z-0.955
G2 X-2.1 Y5.55 Z-0.959 I-1 J0
G1 X-4.9 Z-0.965
G2 X-5.9 Y6.55 Z-0.969 I0 J1
G1 Y6.8
X-6.1 Z-0.97
Y4.2 Z-0.976
X-5.9
Y4.45 Z-0.977
G2 X-4.9 Y5.45 Z-0.98 I1 J0
G1 X-2.1 Z-0.987
G2 X-1.1 Y4.45 Z-0.99 I0 J-1
G1 Y1.5 Z-0.997
G2 X-2.1 Y0.5 Z-1.001 I-1 J0
G1 X-8 Z-1.014
G2 X-9 Y1.5 Z-1.018 I0 J1
G1 Y2.5 Z-1.02
X-17 Z-1.039
Y1.5 Z-1.041
G2 X-18 Y0.5 Z-1.045 I-1 J0
G1 X-23.9 Z-1.058
G2 X-24.9 Y1.5 Z-1.062 I0 J1
G1 Y4.45 Z-1.068
G2 X-23.9 Y5.45 Z-1.072 I1 J0
G1 X-22.1 Z-1.076
G2 X-21.1 Y4.45 Z-1.08 I0 J-1
G1 Y4.2
X-20.9 Z-1.081
Y6.8 Z-1.087
X-21.1
Y6.55 Z-1.088
G2 X-22.1 Y5.55 Z-1.092 I-1 J0
G1 X-23.9 Z-1.096
G2 X-24.9 Y6.55 Z-1.099 I0 J1
G1 Y9.5 Z-1.106
G2 X-24 Y10.495 Z-1.109 I1 J0
G1 Y12.5 Z-1.114
X-29.5 Z-1.127
Y1 Z-1.153
G2 X-30.5 Y0 Z-1.157 I-1 J0
G1 X-33.2 Z-1.163
G2 X-34.2 Y1 Z-1.167 I0 J1
G1 Y2.8 Z-1.171
G2 X-33.2 Y3.8 Z-1.174 I1 J0
G1 X-32.95 Z-1.175
Y4
X-35.55 Z-1.181
Y3.8 Z-1.182
X-35.3
G2 X-34.3 Y2.8 Z-1.186 I0 J-1
G1 Y1 Z-1.19
G2 X-35.3 Y0 Z-1.194 I-1 J0
G1 X-38 Z-1.2
X-38.009
G2 X-39 Y1 Z-1.204 I0.009 J1
G1 Y30.946 Z-1.272
G2 X-38.652 Y32.468 Z-1.276 I3.5 J0
X-3.249 Y40.057 Z-1.372 I20.652 J-9.968
X-2.053 Y37.985 Z-1.378 I-2.251 J-2.68
X-2.042 Y37.898 I-0.985 J-0.174
G1 X-2.027 Y37.726
G2 X-2.005 Y37.592 Z-1.379 I-0.973 J-0.229
G1 X-0.459 Y21.448 Z-1.416
G2 X0 Y11.826 Z-1.438 I-100.541 J-9.623
G1 Y11.6 Z-1.439
G2 X-1 Y10.6 Z-1.442 I-1 J0
G1 X-2 Z-1.445
Y10.495
G2 X-1.1 Y9.5 Z-1.448 I-0.1 J-0.995
G1 Y6.55 Z-1.455
G2 X-2.1 Y5.55 Z-1.459 I-1 J0
G1 X-4.9 Z-1.465
G2 X-5.9 Y6.55 Z-1.469 I0 J1
G1 Y6.8
X-6.1 Z-1.47
Y4.2 Z-1.476
X-5.9
Y4.45 Z-1.477
G2 X-4.9 Y5.45 Z-1.48 I1 J0
G1 X-2.1 Z-1.487
G2 X-1.1 Y4.45 Z-1.49 I0 J-1
G1 Y1.5 Z-1.497
G2 X-2.1 Y0.5 Z-1.501 I-1 J0
G1 X-8 Z-1.514
G2 X-9 Y1.5 Z-1.518 I0 J1
G1 Y2.5 Z-1.52
X-17 Z-1.539
Y1.5 Z-1.541
G2 X-18 Y0.5 Z-1.545 I-1 J0
G1 X-23.9 Z-1.558
G2 X-24.9 Y1.5 Z-1.562 I0 J1
G1 Y4.45 Z-1.568
G2 X-23.9 Y5.45 Z-1.572 I1 J0
G1 X-22.1 Z-1.576
G2 X-21.1 Y4.45 Z-1.58 I0 J-1
G1 Y4.2
X-20.9 Z-1.581
Y6.8 Z-1.587
X-21.1
Y6.55 Z-1.588
G2 X-22.1 Y5.55 Z-1.592 I-1 J0
G1 X-23.9 Z-1.596
G2 X-24.9 Y6.55 Z-1.599 I0 J1
G1 Y9.5 Z-1.606
G2 X-24 Y10.495 Z-1.609 I1 J0
G1 Y12.5 Z-1.614
X-29.5 Z-1.627
Y1 Z-1.653
G2 X-30.5 Y0 Z-1.657 I-1 J0
G1 X-33.2 Z-1.663
G2 X-34.2 Y1 Z-1.667 I0 J1
G1 Y2.8 Z-1.671
G2 X-33.2 Y3.8 Z-1.674 I1 J0
G1 X-32.95 Z-1.675
Y4
X-35.55 Z-1.681
Y3.8 Z-1.682
X-35.3
G2 X-34.3 Y2.8 Z-1.686 I0 J-1
G1 Y1 Z-1.69
G2 X-35.3 Y0 Z-1.694 I-1 J0
G1 X-38 Z-1.7
X-38.009
G2 X-39 Y1 Z-1.704 I0.009 J1
G1 Y30.946 Z-1.772
G2 X-38.652 Y32.468 Z-1.776 I3.5 J0
X-3.249 Y40.057 Z-1.872 I20.652 J-9.968
X-2.053 Y37.985 Z-1.878 I-2.251 J-2.68
X-2.042 Y37.898 I-0.985 J-0.174
G1 X-2.027 Y37.726
G2 X-2.005 Y37.592 Z-1.879 I-0.973 J-0.229
G1 X-0.459 Y21.448 Z-1.916
G2 X0 Y11.826 Z-1.938 I-100.541 J-9.623
G1 Y11.6 Z-1.939
G2 X-1 Y10.6 Z-1.942 I-1 J0
G1 X-2 Z-1.945
Y10.495
G2 X-1.1 Y9.5 Z-1.948 I-0.1 J-0.995
G1 Y6.55 Z-1.955
G2 X-2.1 Y5.55 Z-1.959 I-1 J0
G1 X-4.9 Z-1.965
G2 X-5.9 Y6.55 Z-1.969 I0 J1
G1 Y6.8
X-6.1 Z-1.97
Y4.2 Z-1.976
X-5.9
Y4.45 Z-1.977
G2 X-4.9 Y5.45 Z-1.98 I1 J0
G1 X-2.1 Z-1.987
G2 X-1.1 Y4.45 Z-1.99 I0 J-1
G1 Y1.5 Z-1.997
G2 X-2.1 Y0.5 Z-2.001 I-1 J0
G1 X-8 Z-2.014
G2 X-9 Y1.5 Z-2.018 I0 J1
G1 Y2.5 Z-2.02
X-17 Z-2.039
Y1.5 Z-2.041
G2 X-18 Y0.5 Z-2.045 I-1 J0
G1 X-23.9 Z-2.058
G2 X-24.9 Y1.5 Z-2.062 I0 J1
G1 Y4.45 Z-2.068
G2 X-23.9 Y5.45 Z-2.072 I1 J0
G1 X-22.1 Z-2.076
G2 X-21.1 Y4.45 Z-2.08 I0 J-1
G1 Y4.2
X-20.9 Z-2.081
Y6.8 Z-2.087
X-21.1
Y6.55 Z-2.088
G2 X-22.1 Y5.55 Z-2.092 I-1 J0
G1 X-23.9 Z-2.096
G2 X-24.9 Y6.55 Z-2.099 I0 J1
G1 Y9.5 Z-2.106
G2 X-24 Y10.495 Z-2.109 I1 J0
G1 Y12.5 Z-2.114
X-29.5 Z-2.127
Y1 Z-2.153
G2 X-30.5 Y0 Z-2.157 I-1 J0
G1 X-33.2 Z-2.163
G2 X-34.2 Y1 Z-2.167 I0 J1
G1 Y2.8 Z-2.171
G2 X-33.2 Y3.8 Z-2.174 I1 J0
G1 X-32.95 Z-2.175
Y4
X-35.55 Z-2.181
Y3.8 Z-2.182
X-35.3
G2 X-34.3 Y2.8 Z-2.186 I0 J-1
G1 Y1 Z-2.19
G2 X-35.3 Y0 Z-2.194 I-1 J0
G1 X-38 Z-2.2
X-38.009
G2 X-39 Y1 I0.009 J1
G1 Y30.946
G2 X-38.652 Y32.468 I3.5 J0
X-3.249 Y40.057 I20.652 J-9.968
X-2.053 Y37.985 I-2.251 J-2.68
X-2.042 Y37.898 I-0.985 J-0.174
G1 X-2.027 Y37.726
G2 X-2.005 Y37.592 I-0.973 J-0.229
G1 X-0.459 Y21.448
G2 X0 Y11.826 I-100.541 J-9.623
G1 Y11.6
G2 X-1 Y10.6 I-1 J0
G1 X-2
Y10.495
G2 X-1.1 Y9.5 I-0.1 J-0.995
G1 Y6.55
G2 X-2.1 Y5.55 I-1 J0
G1 X-4.9
G2 X-5.9 Y6.55 I0 J1
G1 Y6.8
X-6.1
Y4.2
X-5.9
Y4.45
G2 X-4.9 Y5.45 I1 J0
G1 X-2.1
G2 X-1.1 Y4.45 I0 J-1
G1 Y1.5
G2 X-2.1 Y0.5 I-1 J0
G1 X-8
G2 X-9 Y1.5 I0 J1
G1 Y2.5
X-17
Y1.5
G2 X-18 Y0.5 I-1 J0
G1 X-23.9
G2 X-24.9 Y1.5 I0 J1
G1 Y4.45
G2 X-23.9 Y5.45 I1 J0
G1 X-22.1
G2 X-21.1 Y4.45 I0 J-1
G1 Y4.2
X-20.9
Y6.8
X-21.1
Y6.55
G2 X-22.1 Y5.55 I-1 J0
G1 X-23.9
G2 X-24.9 Y6.55 I0 J1
G1 Y9.5
G2 X-24 Y10.495 I1 J0
G1 Y12.5
X-29.5
Y1
G2 X-30.5 Y0 I-1 J0
G1 X-33.2
G2 X-34.2 Y1 I0 J1
G1 Y2.8
G2 X-33.2 Y3.8 I1 J0
G1 X-32.95
Y4
X-35.55
Y3.8
X-35.3
G2 X-34.3 Y2.8 I0 J-1
G1 Y1
G2 X-35.3 Y0 I-1 J0
G1 X-38
X-38.009
G0 Z15

M9
M30
