(04 1MM FLAT FINE CONTOURS)
(T10  D=1 CR=0 - ZMIN=-2.2 - FLAT END MILL)
G90 G94 G91.1 G40 G49 G17
G21

(04 1MM FLAT FINE CONTOURS)
M5
M9
T10
(DIAMOND OR SPIRAL)
S20000 M3
G54
M8
G0 X-55.5 Y10.462
G43 Z15 H1
Z2
G1 Z0.1 F50
Y10.207 Z0.084 F500
G2 X-55.646 Y9.854 Z0.06 I-0.5 J0
X-55.293 Y10 Z0.036 I0.354 J-0.354
G1 X-54.793 Z0.006
Y13 Z-0.178
X-55.293 Z-0.209
G2 X-55.646 Y13.146 Z-0.233 I0 J0.5
X-55.5 Y12.793 Z-0.257 I-0.354 J-0.354
G1 Y10.207 Z-0.416
G2 X-55.646 Y9.854 Z-0.44 I-0.5 J0
X-55.293 Y10 Z-0.464 I0.354 J-0.354
G1 X-54.793 Z-0.494
Y13 Z-0.678
X-55.293 Z-0.709
G2 X-55.646 Y13.146 Z-0.733 I0 J0.5
X-55.5 Y12.793 Z-0.757 I-0.354 J-0.354
G1 Y10.207 Z-0.916
G2 X-55.646 Y9.854 Z-0.94 I-0.5 J0
X-55.293 Y10 Z-0.964 I0.354 J-0.354
G1 X-54.793 Z-0.994
Y13 Z-1.178
X-55.293 Z-1.209
G2 X-55.646 Y13.146 Z-1.233 I0 J0.5
X-55.5 Y12.793 Z-1.257 I-0.354 J-0.354
G1 Y10.207 Z-1.416
G2 X-55.646 Y9.854 Z-1.44 I-0.5 J0
X-55.293 Y10 Z-1.464 I0.354 J-0.354
G1 X-54.793 Z-1.494
Y13 Z-1.678
X-55.293 Z-1.709
G2 X-55.646 Y13.146 Z-1.733 I0 J0.5
X-55.5 Y12.793 Z-1.757 I-0.354 J-0.354
G1 Y10.207 Z-1.916
G2 X-55.646 Y9.854 Z-1.94 I-0.5 J0
X-55.293 Y10 Z-1.964 I0.354 J-0.354
G1 X-54.793 Z-1.994
Y13 Z-2.178
X-55.146 Z-2.2
X-55.293
G2 X-55.646 Y13.146 I0 J0.5
X-55.5 Y12.793 I-0.354 J-0.354
G1 Y10.207
G2 X-55.646 Y9.854 I-0.5 J0
X-55.293 Y10 I0.354 J-0.354
G1 X-54.793
Y13
X-55.146
G0 Z5
X-77.106 Y10
Z2
G1 Z0.1 F50
X-76.707 Z0.065 F500
G2 X-76.354 Y9.854 Z0.031 I0 J-0.5
X-76.5 Y10.207 Z-0.004 I0.354 J0.354
G1 Y10.893 Z-0.064
G2 X-76.354 Y11.246 Z-0.098 I0.5 J0
X-76.707 Y11.1 Z-0.132 I-0.354 J0.354
G1 X-77.5 Z-0.202
Y10 Z-0.298
X-76.707 Z-0.367
G2 X-76.354 Y9.854 Z-0.402 I0 J-0.5
X-76.5 Y10.207 Z-0.436 I0.354 J0.354
G1 Y10.893 Z-0.496
G2 X-76.354 Y11.246 Z-0.53 I0.5 J0
X-76.707 Y11.1 Z-0.565 I-0.354 J0.354
G1 X-77.5 Z-0.634
Y10 Z-0.73
X-76.707 Z-0.8
G2 X-76.354 Y9.854 Z-0.834 I0 J-0.5
X-76.5 Y10.207 Z-0.868 I0.354 J0.354
G1 Y10.893 Z-0.928
G2 X-76.354 Y11.246 Z-0.963 I0.5 J0
X-76.707 Y11.1 Z-0.997 I-0.354 J0.354
G1 X-77.5 Z-1.067
Y10 Z-1.163
X-76.707 Z-1.232
G2 X-76.354 Y9.854 Z-1.266 I0 J-0.5
X-76.5 Y10.207 Z-1.301 I0.354 J0.354
G1 Y10.893 Z-1.361
G2 X-76.354 Y11.246 Z-1.395 I0.5 J0
X-76.707 Y11.1 Z-1.43 I-0.354 J0.354
G1 X-77.5 Z-1.499
Y10 Z-1.595
X-76.707 Z-1.665
G2 X-76.354 Y9.854 Z-1.699 I0 J-0.5
X-76.5 Y10.207 Z-1.733 I0.354 J0.354
G1 Y10.893 Z-1.793
G2 X-76.354 Y11.246 Z-1.828 I0.5 J0
X-76.707 Y11.1 Z-1.862 I-0.354 J0.354
G1 X-77.5 Z-1.931
Y10 Z-2.028
X-76.707 Z-2.097
G2 X-76.354 Y9.854 Z-2.131 I0 J-0.5
X-76.5 Y10.207 Z-2.166 I0.354 J0.354
G1 Y10.6 Z-2.2
Y10.893
G2 X-76.354 Y11.246 I0.5 J0
X-76.707 Y11.1 I-0.354 J0.354
G1 X-77.5
Y10
X-76.707
G2 X-76.354 Y9.854 I0 J-0.5
X-76.5 Y10.207 I0.354 J0.354
G1 Y10.6
G0 Z5
X-24.207 Y10.091
Z2
G1 Z0.1 F50
Y10 Z0.094 F500
X-23.707 Z0.064
G2 X-23.354 Y9.854 Z0.04 I0 J-0.5
X-23.5 Y10.207 Z0.016 I0.354 J0.354
G1 Y12.793 Z-0.143
G2 X-23.354 Y13.146 Z-0.167 I0.5 J0
X-23.707 Y13 Z-0.191 I-0.354 J0.354
G1 X-24.207 Z-0.222
Y10 Z-0.406
X-23.707 Z-0.436
G2 X-23.354 Y9.854 Z-0.46 I0 J-0.5
X-23.5 Y10.207 Z-0.484 I0.354 J0.354
G1 Y12.793 Z-0.643
G2 X-23.354 Y13.146 Z-0.667 I0.5 J0
X-23.707 Y13 Z-0.691 I-0.354 J0.354
G1 X-24.207 Z-0.722
Y10 Z-0.906
X-23.707 Z-0.936
G2 X-23.354 Y9.854 Z-0.96 I0 J-0.5
X-23.5 Y10.207 Z-0.984 I0.354 J0.354
G1 Y12.793 Z-1.143
G2 X-23.354 Y13.146 Z-1.167 I0.5 J0
X-23.707 Y13 Z-1.191 I-0.354 J0.354
G1 X-24.207 Z-1.222
Y10 Z-1.406
X-23.707 Z-1.436
G2 X-23.354 Y9.854 Z-1.46 I0 J-0.5
X-23.5 Y10.207 Z-1.484 I0.354 J0.354
G1 Y12.793 Z-1.643
G2 X-23.354 Y13.146 Z-1.667 I0.5 J0
X-23.707 Y13 Z-1.691 I-0.354 J0.354
G1 X-24.207 Z-1.722
Y10 Z-1.906
X-23.707 Z-1.936
G2 X-23.354 Y9.854 Z-1.96 I0 J-0.5
X-23.5 Y10.207 Z-1.984 I0.354 J0.354
G1 Y12.793 Z-2.143
G2 X-23.354 Y13.146 Z-2.167 I0.5 J0
X-23.707 Y13 Z-2.191 I-0.354 J0.354
G1 X-23.854 Z-2.2
X-24.207
Y10
X-23.707
G2 X-23.354 Y9.854 I0 J-0.5
X-23.5 Y10.207 I0.354 J0.354
G1 Y12.793
G2 X-23.354 Y13.146 I0.5 J0
X-23.707 Y13 I-0.354 J0.354
G1 X-23.854
G0 Z5
X-1.5 Y10.023
Z2
G1 Z0.1 F50
Y11.1 Z0.006 F500
X-2.293 Z-0.064
G2 X-2.646 Y11.246 Z-0.098 I0 J0.5
X-2.5 Y10.893 Z-0.132 I-0.354 J-0.354
G1 Y10.207 Z-0.192
G2 X-2.646 Y9.854 Z-0.227 I-0.5 J0
X-2.293 Y10 Z-0.261 I0.354 J-0.354
G1 X-1.5 Z-0.33
Y11.1 Z-0.427
X-2.293 Z-0.496
G2 X-2.646 Y11.246 Z-0.53 I0 J0.5
X-2.5 Y10.893 Z-0.565 I-0.354 J-0.354
G1 Y10.207 Z-0.625
G2 X-2.646 Y9.854 Z-0.659 I-0.5 J0
X-2.293 Y10 Z-0.693 I0.354 J-0.354
G1 X-1.5 Z-0.763
Y11.1 Z-0.859
X-2.293 Z-0.928
G2 X-2.646 Y11.246 Z-0.963 I0 J0.5
X-2.5 Y10.893 Z-0.997 I-0.354 J-0.354
G1 Y10.207 Z-1.057
G2 X-2.646 Y9.854 Z-1.091 I-0.5 J0
X-2.293 Y10 Z-1.126 I0.354 J-0.354
G1 X-1.5 Z-1.195
Y11.1 Z-1.291
X-2.293 Z-1.361
G2 X-2.646 Y11.246 Z-1.395 I0 J0.5
X-2.5 Y10.893 Z-1.43 I-0.354 J-0.354
G1 Y10.207 Z-1.49
G2 X-2.646 Y9.854 Z-1.524 I-0.5 J0
X-2.293 Y10 Z-1.558 I0.354 J-0.354
G1 X-1.5 Z-1.628
Y11.1 Z-1.724
X-2.293 Z-1.793
G2 X-2.646 Y11.246 Z-1.828 I0 J0.5
X-2.5 Y10.893 Z-1.862 I-0.354 J-0.354
G1 Y10.207 Z-1.922
G2 X-2.646 Y9.854 Z-1.956 I-0.5 J0
X-2.293 Y10 Z-1.991 I0.354 J-0.354
G1 X-1.5 Z-2.06
Y11.1 Z-2.156
X-2 Z-2.2
X-2.293
G2 X-2.646 Y11.246 I0 J0.5
X-2.5 Y10.893 I-0.354 J-0.354
G1 Y10.207
G2 X-2.646 Y9.854 I-0.5 J0
X-2.293 Y10 I0.354 J-0.354
G1 X-1.5
Y11.1
X-2
G0 Z15

M9
M30
