(05 4MM CHAMFERS)
(T49  D=4 CR=0 TAPER=45DEG - ZMIN=-2.3 - CHAMFER MILL)
G90 G94 G91.1 G40 G49 G17
G21

(05 4MM CHAMFERS)
M5
M9
T49
(4 FLUTE FISH)
S20000 M3
G54
M8
G0 X-73.5 Y37.378
G43 Z11 H26
Z1
G98 G81 X-73.5 Y37.378 Z-2.3 R1 F30
X-61 Y31.5
Y27
Y22.5
X-43.5 Y25.5
X-35.5
X-18 Y22.5
Y27
Y31.5
X-5.5 Y37.378
G80
Z11

M9
M30
