(06 ENGRAVE LOGO)
(T58  D=3.175 CR=0 TAPER=20DEG - ZMIN=-0.1 - CHAMFER MILL)
G90 G94 G91.1 G40 G49 G17
G21

(06 ENGRAVE LOGO)
M5
M9
T58
S20000 M3
G54
M8
G0 X-63.934 Y30.468
G43 Z15 H58
Z5
G1 Z1.9 F1000
Z0.218
X-63.942 Y30.469 Z0.147
X-63.965 Y30.471 Z0.08
X-64.003 Y30.475 Z0.02
X-64.053 Y30.48 Z-0.031
X-64.113 Y30.486 Z-0.069
X-64.18 Y30.493 Z-0.092
X-64.25 Y30.5 Z-0.1
X-64.449 Y30.52
X-64.64 Y30.579
X-64.815 Y30.675
X-64.968 Y30.804
X-65.092 Y30.96
X-65.182 Y31.138
X-65.236 Y31.331
X-65.25 Y31.53
X-65.224 Y31.728
X-65.159 Y31.917
X-65.058 Y32.089
X-64.925 Y32.238
X-64.765 Y32.357
X-64.584 Y32.443
X-64.39 Y32.49
X-64.25 Y32.5
X-63.291
X-63.399 Y32.203
X-63.469 Y31.895
X-63.499 Y31.58
X-63.489 Y31.264
X-63.439 Y30.952
X-63.351 Y30.648
X-63.291 Y30.5
X-64.25
X-64.321 Z-0.092
X-64.388 Z-0.069
X-64.448 Z-0.031
X-64.498 Z0.02
X-64.536 Z0.08
X-64.56 Z0.147
X-64.567 Z0.218
Z5
G0 X-59.026
G1 Z1.9 F1000
Z0.218
X-59.018 Z0.147
X-58.995 Z0.08
X-58.957 Z0.02
X-58.907 Z-0.031
X-58.846 Z-0.069
X-58.779 Z-0.092
X-58.709 Z-0.1
X-56.25
X-56.502 Y30.131
X-56.72 Y29.74
X-56.902 Y29.332
X-57.047 Y28.909
X-57.154 Y28.475
X-57.222 Y28.033
X-57.249 Y27.587
X-57.237 Y27.14
X-57.185 Y26.696
X-57.093 Y26.258
X-56.963 Y25.83
X-56.795 Y25.416
X-56.591 Y25.018
X-56.352 Y24.641
X-56.08 Y24.286
X-55.777 Y23.956
X-55.447 Y23.655
X-55.09 Y23.385
X-54.712 Y23.148
X-54.313 Y22.945
X-53.898 Y22.779
X-53.47 Y22.651
X-53.031 Y22.561
X-52.587 Y22.511
X-52.14 Y22.501
X-51.694 Y22.531
X-51.252 Y22.601
X-50.819 Y22.709
X-50.397 Y22.856
X-49.989 Y23.04
X-49.6 Y23.26
X-49.232 Y23.514
X-48.888 Y23.799
X-48.57 Y24.115
X-48.283 Y24.457
X-48.027 Y24.823
X-47.805 Y25.211
X-47.618 Y25.618
X-47.468 Y26.039
X-47.357 Y26.472
X-47.285 Y26.913
X-47.252 Y27.359
X-47.259 Y27.806
X-47.307 Y28.251
X-47.394 Y28.689
X-47.519 Y29.118
X-47.683 Y29.535
X-47.883 Y29.934
X-48.118 Y30.315
X-48.25 Y30.5
X-48.051 Y30.52
X-47.86 Y30.579
X-47.685 Y30.675
X-47.532 Y30.804
X-47.408 Y30.96
X-47.318 Y31.138
X-47.264 Y31.331
X-47.25 Y31.53
X-47.276 Y31.728
X-47.341 Y31.917
X-47.442 Y32.089
X-47.575 Y32.238
X-47.735 Y32.357
X-47.916 Y32.443
X-48.11 Y32.49
X-48.25 Y32.5
X-58.709
X-58.601 Y32.203
X-58.531 Y31.895
X-58.501 Y31.58
X-58.511 Y31.264
X-58.561 Y30.952
X-58.649 Y30.648
X-58.709 Y30.5
X-58.735 Y30.434 Z-0.092
X-58.76 Y30.372 Z-0.069
X-58.782 Y30.316 Z-0.031
X-58.801 Y30.269 Z0.02
X-58.815 Y30.234 Z0.08
X-58.823 Y30.212 Z0.147
X-58.826 Y30.205 Z0.218
Z5
G0 X-50.029 Y29.568
G1 Z1.9 F1000
Z0.218
X-50.035 Y29.573 Z0.147
X-50.054 Y29.587 Z0.08
X-50.084 Y29.611 Z0.02
X-50.123 Y29.641 Z-0.031
X-50.171 Y29.678 Z-0.069
X-50.224 Y29.719 Z-0.092
X-50.28 Y29.763 Z-0.1
X-50.554 Y29.974
X-50.85 Y30.153
X-51.165 Y30.297
X-51.495 Y30.403
X-51.834 Y30.471
X-52.18 Y30.499
X-52.526 Y30.487
X-52.868 Y30.436
X-53.202 Y30.345
X-53.524 Y30.216
X-53.828 Y30.051
X-54.112 Y29.852
X-54.37 Y29.622
X-54.601 Y29.364
X-54.8 Y29.081
X-54.965 Y28.776
X-55.094 Y28.455
X-55.185 Y28.121
X-55.237 Y27.778
X-55.249 Y27.432
X-55.221 Y27.087
X-55.154 Y26.748
X-55.048 Y26.418
X-54.905 Y26.103
X-54.726 Y25.806
X-54.514 Y25.532
X-54.273 Y25.284
X-54.004 Y25.066
X-53.712 Y24.88
X-53.4 Y24.729
X-53.073 Y24.615
X-52.735 Y24.539
X-52.391 Y24.503
X-52.25 Y24.5
X-51.904 Y24.52
X-51.563 Y24.58
X-51.231 Y24.678
X-50.913 Y24.814
X-50.612 Y24.986
X-50.334 Y25.192
X-50.08 Y25.428
X-49.856 Y25.692
X-49.664 Y25.98
X-49.506 Y26.288
X-49.384 Y26.612
X-49.301 Y26.948
X-49.257 Y27.292
X-49.253 Y27.638
X-49.289 Y27.982
X-49.364 Y28.32
X-49.478 Y28.647
X-49.629 Y28.959
X-49.814 Y29.251
X-50.032 Y29.52
X-50.28 Y29.763
X-50.331 Y29.812 Z-0.092
X-50.379 Y29.859 Z-0.069
X-50.422 Y29.901 Z-0.031
X-50.458 Y29.936 Z0.02
X-50.485 Y29.963 Z0.08
X-50.501 Y29.979 Z0.147
X-50.507 Y29.985 Z0.218
Z5
G0 X-54.434 Y21.211
G1 Z1.9 F1000
Z0.218
X-54.44 Y21.216 Z0.147
X-54.459 Y21.231 Z0.08
X-54.489 Y21.254 Z0.02
X-54.529 Y21.284 Z-0.031
X-54.576 Y21.321 Z-0.069
X-54.63 Y21.362 Z-0.092
X-54.686 Y21.405 Z-0.1
X-54.844 Y21.527
X-55.023 Y21.615
X-55.217 Y21.665
X-55.416 Y21.676
X-55.614 Y21.647
X-55.802 Y21.58
X-55.973 Y21.476
X-56.078 Y21.384
X-56.347 Y21.088
X-56.584 Y20.766
X-56.788 Y20.422
X-56.957 Y20.059
X-57.088 Y19.682
X-57.181 Y19.293
X-57.235 Y18.897
X-57.25 Y18.497
X-57.224 Y18.098
X-57.158 Y17.703
X-57.054 Y17.318
X-56.911 Y16.944
X-56.732 Y16.587
X-56.518 Y16.249
X-56.271 Y15.934
X-55.994 Y15.645
X-55.69 Y15.386
X-55.361 Y15.158
X-55.011 Y14.964
X-54.644 Y14.807
X-54.263 Y14.686
X-53.871 Y14.604
X-53.474 Y14.562
X-53.074 Y14.56
X-52.676 Y14.597
X-52.283 Y14.674
X-51.901 Y14.79
X-51.531 Y14.944
X-51.179 Y15.133
X-50.848 Y15.357
X-50.541 Y15.613
X-50.26 Y15.898
X-50.25 Y15.91
X-49.971 Y15.624
X-49.665 Y15.367
X-49.334 Y15.142
X-48.983 Y14.951
X-48.614 Y14.796
X-48.232 Y14.678
X-47.84 Y14.599
X-47.442 Y14.56
X-47.042 Y14.561
X-46.644 Y14.602
X-46.252 Y14.682
X-45.871 Y14.801
X-45.503 Y14.958
X-45.152 Y15.15
X-44.823 Y15.376
X-44.517 Y15.635
X-44.239 Y15.922
X-43.991 Y16.236
X-43.776 Y16.573
X-43.595 Y16.93
X-43.451 Y17.303
X-43.345 Y17.688
X-43.278 Y18.082
X-43.251 Y18.481
X-43.263 Y18.881
X-43.316 Y19.277
X-43.407 Y19.667
X-43.537 Y20.045
X-43.705 Y20.408
X-43.907 Y20.753
X-44.143 Y21.075
X-44.41 Y21.373
X-44.422 Y21.384
X-44.576 Y21.511
X-44.753 Y21.604
X-44.945 Y21.66
X-45.144 Y21.677
X-45.342 Y21.654
X-45.532 Y21.592
X-45.706 Y21.494
X-45.857 Y21.363
X-45.978 Y21.204
X-46.066 Y21.025
X-46.117 Y20.832
X-46.128 Y20.632
X-46.099 Y20.435
X-46.031 Y20.247
X-45.928 Y20.076
X-45.651 Y19.756
X-45.497 Y19.519
X-45.379 Y19.262
X-45.298 Y18.991
X-45.256 Y18.712
X-45.254 Y18.429
X-45.292 Y18.149
X-45.369 Y17.877
X-45.483 Y17.619
X-45.633 Y17.379
X-45.815 Y17.163
X-46.026 Y16.974
X-46.261 Y16.817
X-46.516 Y16.695
X-46.785 Y16.61
X-47.064 Y16.564
X-47.347 Y16.558
X-47.628 Y16.592
X-47.901 Y16.665
X-48.161 Y16.775
X-48.403 Y16.921
X-48.622 Y17.1
X-48.813 Y17.308
X-48.973 Y17.541
X-49.099 Y17.794
X-49.188 Y18.062
X-49.238 Y18.341
X-49.25 Y18.556
X-49.27 Y18.754
X-49.329 Y18.945
X-49.425 Y19.121
X-49.554 Y19.273
X-49.71 Y19.397
X-49.888 Y19.488
X-50.081 Y19.541
X-50.28 Y19.555
X-50.478 Y19.529
X-50.667 Y19.465
X-50.839 Y19.364
X-50.988 Y19.23
X-51.107 Y19.07
X-51.193 Y18.89
X-51.24 Y18.696
X-51.27 Y18.274
X-51.33 Y17.997
X-51.427 Y17.732
X-51.562 Y17.484
X-51.73 Y17.256
X-51.928 Y17.055
X-52.153 Y16.884
X-52.4 Y16.746
X-52.663 Y16.644
X-52.939 Y16.58
X-53.22 Y16.556
X-53.503 Y16.572
X-53.78 Y16.627
X-54.046 Y16.721
X-54.297 Y16.852
X-54.527 Y17.016
X-54.731 Y17.212
X-54.906 Y17.434
X-55.047 Y17.679
X-55.153 Y17.941
X-55.221 Y18.215
X-55.249 Y18.496
X-55.238 Y18.779
X-55.186 Y19.057
X-55.096 Y19.325
X-54.969 Y19.577
X-54.808 Y19.81
X-54.664 Y19.97
X-54.538 Y20.125
X-54.445 Y20.301
X-54.388 Y20.493
X-54.371 Y20.692
X-54.394 Y20.89
X-54.456 Y21.08
X-54.555 Y21.254
X-54.686 Y21.405
X-54.732 Y21.458 Z-0.092
X-54.776 Y21.509 Z-0.069
X-54.815 Y21.554 Z-0.031
X-54.848 Y21.592 Z0.02
X-54.873 Y21.621 Z0.08
X-54.889 Y21.639 Z0.147
X-54.894 Y21.645 Z0.218
Z5
G0 Z15

M9
M30
