(01 2MM FLAT SLOTS)
(T11  D=2 CR=0 - ZMIN=-2.2 - FLAT END MILL)
G90 G94 G91.1 G40 G49 G17
G21

(01 2MM FLAT SLOTS)
M5
M9
T11
(DIAMOND OR SPIRAL)
S20000 M3
G54
M8
G0 X-35.5 Y30.4
G43 Z15 H1
Z5
G1 Z0.5 F500
Y32.4 Z0.331 F1000
Y30.4 Z0.162
Y32.4 Z-0.006
Y30.4 Z-0.175
Y32.4 Z-0.344
Y30.4 Z-0.512
Y32.4 Z-0.681
Y30.4 Z-0.85
Y32.4 Z-1.019
Y30.4 Z-1.188
Y32.4 Z-1.356
Y30.4 Z-1.525
Y32.4 Z-1.694
Y30.4 Z-1.862
Y32.4 Z-2.031
Y30.4 Z-2.2
Y32.4
G0 Z5
X-43.5 Y30.4
G1 Z0.5 F500
Y32.4 Z0.331 F1000
Y30.4 Z0.162
Y32.4 Z-0.006
Y30.4 Z-0.175
Y32.4 Z-0.344
Y30.4 Z-0.512
Y32.4 Z-0.681
Y30.4 Z-0.85
Y32.4 Z-1.019
Y30.4 Z-1.188
Y32.4 Z-1.356
Y30.4 Z-1.525
Y32.4 Z-1.694
Y30.4 Z-1.862
Y32.4 Z-2.031
Y30.4 Z-2.2
Y32.4
G0 Z5
X-66.909 Y24.442
G1 Z0.5 F500
G2 X-65.243 Y27.643 Z0.255 I5.909 J-1.042 F1000
G3 X-66.909 Y24.442 Z0.009 I4.243 J-4.243
G2 X-65.243 Y27.643 Z-0.236 I5.909 J-1.042
G3 X-66.909 Y24.442 Z-0.482 I4.243 J-4.243
G2 X-65.243 Y27.643 Z-0.727 I5.909 J-1.042
G3 X-66.909 Y24.442 Z-0.973 I4.243 J-4.243
G2 X-65.243 Y27.643 Z-1.218 I5.909 J-1.042
G3 X-66.909 Y24.442 Z-1.464 I4.243 J-4.243
G2 X-65.243 Y27.643 Z-1.709 I5.909 J-1.042
G3 X-66.909 Y24.442 Z-1.955 I4.243 J-4.243
G2 X-65.243 Y27.643 Z-2.2 I5.909 J-1.042
G3 X-66.909 Y24.442 I4.243 J-4.243
G0 Z5
X-13.757 Y27.643
G1 Z0.5 F500
G2 X-12.091 Y24.442 Z0.255 I-4.243 J-4.243 F1000
G3 X-13.757 Y27.643 Z0.009 I-5.909 J-1.042
G2 X-12.091 Y24.442 Z-0.236 I-4.243 J-4.243
G3 X-13.757 Y27.643 Z-0.482 I-5.909 J-1.042
G2 X-12.091 Y24.442 Z-0.727 I-4.243 J-4.243
G3 X-13.757 Y27.643 Z-0.973 I-5.909 J-1.042
G2 X-12.091 Y24.442 Z-1.218 I-4.243 J-4.243
G3 X-13.757 Y27.643 Z-1.464 I-5.909 J-1.042
G2 X-12.091 Y24.442 Z-1.709 I-4.243 J-4.243
G3 X-13.757 Y27.643 Z-1.955 I-5.909 J-1.042
G2 X-12.091 Y24.442 Z-2.2 I-4.243 J-4.243
G3 X-13.757 Y27.643 I-5.909 J-1.042
G0 Z15

M9
M30
