(02 2MM FLAT HOLES)
(T11  D=2 CR=0 - ZMIN=-2.2 - FLAT END MILL)
G90 G94 G91.1 G40 G49 G17
G21

(02 2MM FLAT HOLES)
M5
M9
T11
(DIAMOND OR SPIRAL)
S20000 M3
G54
M8
G0 X-30.5 Y137.482
G43 Z15 H1
Z5
G98 G81 X-30.5 Y137.482 Z-2.2 R5 F100
X-3.5
Y92.482
X-30.5
X-28 Y54.432
X-6
X-5.5 Y38.278
X-18 Y28.4
Y23.4
X-35.5 Y26.4
X-43.5
X-61 Y23.4
Y28.4
X-73.5 Y38.278
G80
Z15

M9
M30
