(03 2MM FLAT INNER CONTOURS)
(T11  D=2 CR=0 - ZMIN=-2.2 - FLAT END MILL)
G90 G94 G91.1 G40 G49 G17
G21

(03 2MM FLAT INNER CONTOURS)
M5
M9
T11
(DIAMOND OR SPIRAL)
S20000 M3
G54
M8
G0 X-7.775 Y97.92
G43 Z15 H1
Z2
G1 Z0.5 F100
G3 X-9.075 Y97.821 Z0.475 I-0.592 J-0.806 F1000
G1 X-13.707 Y93.189 Z0.361
G3 Y91.775 Z0.333 I0.707 J-0.707
G1 X-9.075 Y87.142 Z0.219
G3 X-7.368 Y87.849 Z0.178 I0.707 J0.707
G1 Y97.114 Z0.016
G3 X-9.075 Y97.821 Z-0.025 I-1 J0
G1 X-13.707 Y93.189 Z-0.139
G3 Y91.775 Z-0.167 I0.707 J-0.707
G1 X-9.075 Y87.142 Z-0.281
G3 X-7.368 Y87.849 Z-0.322 I0.707 J0.707
G1 Y97.114 Z-0.484
G3 X-9.075 Y97.821 Z-0.525 I-1 J0
G1 X-13.707 Y93.189 Z-0.639
G3 Y91.775 Z-0.667 I0.707 J-0.707
G1 X-9.075 Y87.142 Z-0.781
G3 X-7.368 Y87.849 Z-0.822 I0.707 J0.707
G1 Y97.114 Z-0.984
G3 X-9.075 Y97.821 Z-1.025 I-1 J0
G1 X-13.707 Y93.189 Z-1.139
G3 Y91.775 Z-1.167 I0.707 J-0.707
G1 X-9.075 Y87.142 Z-1.281
G3 X-7.368 Y87.849 Z-1.322 I0.707 J0.707
G1 Y97.114 Z-1.484
G3 X-9.075 Y97.821 Z-1.525 I-1 J0
G1 X-13.707 Y93.189 Z-1.639
G3 Y91.775 Z-1.667 I0.707 J-0.707
G1 X-9.075 Y87.142 Z-1.781
G3 X-7.368 Y87.849 Z-1.822 I0.707 J0.707
G1 Y97.114 Z-1.984
G3 X-9.075 Y97.821 Z-2.025 I-1 J0
G1 X-13.707 Y93.189 Z-2.139
G3 Y91.775 Z-2.167 I0.707 J-0.707
G1 X-12.35 Y90.418 Z-2.2
X-9.075 Y87.142
G3 X-7.368 Y87.849 I0.707 J0.707
G1 Y97.114
G3 X-9.075 Y97.821 I-1 J0
G1 X-13.707 Y93.189
G3 Y91.775 I0.707 J-0.707
G1 X-12.35 Y90.418
G0 Z5
X-26.225 Y87.044
Z2
G1 Z0.5 F100
G3 X-24.925 Y87.142 Z0.475 I0.592 J0.806 F1000
G1 X-20.293 Y91.775 Z0.361
G3 Y93.189 Z0.333 I-0.707 J0.707
G1 X-24.925 Y97.821 Z0.219
G3 X-26.632 Y97.114 Z0.178 I-0.707 J-0.707
G1 Y87.849 Z0.016
G3 X-24.925 Y87.142 Z-0.025 I1 J0
G1 X-20.293 Y91.775 Z-0.139
G3 Y93.189 Z-0.167 I-0.707 J0.707
G1 X-24.925 Y97.821 Z-0.281
G3 X-26.632 Y97.114 Z-0.322 I-0.707 J-0.707
G1 Y87.849 Z-0.484
G3 X-24.925 Y87.142 Z-0.525 I1 J0
G1 X-20.293 Y91.775 Z-0.639
G3 Y93.189 Z-0.667 I-0.707 J0.707
G1 X-24.925 Y97.821 Z-0.781
G3 X-26.632 Y97.114 Z-0.822 I-0.707 J-0.707
G1 Y87.849 Z-0.984
G3 X-24.925 Y87.142 Z-1.025 I1 J0
G1 X-20.293 Y91.775 Z-1.139
G3 Y93.189 Z-1.167 I-0.707 J0.707
G1 X-24.925 Y97.821 Z-1.281
G3 X-26.632 Y97.114 Z-1.322 I-0.707 J-0.707
G1 Y87.849 Z-1.484
G3 X-24.925 Y87.142 Z-1.525 I1 J0
G1 X-20.293 Y91.775 Z-1.639
G3 Y93.189 Z-1.667 I-0.707 J0.707
G1 X-24.925 Y97.821 Z-1.781
G3 X-26.632 Y97.114 Z-1.822 I-0.707 J-0.707
G1 Y87.849 Z-1.984
G3 X-24.925 Y87.142 Z-2.025 I1 J0
G1 X-20.293 Y91.775 Z-2.139
G3 Y93.189 Z-2.167 I-0.707 J0.707
G1 X-21.65 Y94.546 Z-2.2
X-24.925 Y97.821
G3 X-26.632 Y97.114 I-0.707 J-0.707
G1 Y87.849
G3 X-24.925 Y87.142 I1 J0
G1 X-20.293 Y91.775
G3 Y93.189 I-0.707 J0.707
G1 X-21.65 Y94.546
G0 Z5
X-25.556 Y111.455
Z2
G1 Z0.5 F100
G3 X-25.707 Y109.917 Z0.48 I0.556 J-0.831 F1000
G1 X-17.707 Y101.917 Z0.354
G3 X-16.293 Z0.337 I0.707 J0.707
G1 X-8.293 Y109.917 Z0.211
G3 X-9 Y111.624 Z0.185 I-0.707 J0.707
G1 X-25 Z0.007
G3 X-25.707 Y109.917 Z-0.02 I0 J-1
G1 X-17.707 Y101.917 Z-0.146
G3 X-16.293 Z-0.163 I0.707 J0.707
G1 X-8.293 Y109.917 Z-0.289
G3 X-9 Y111.624 Z-0.315 I-0.707 J0.707
G1 X-25 Z-0.493
G3 X-25.707 Y109.917 Z-0.52 I0 J-1
G1 X-17.707 Y101.917 Z-0.646
G3 X-16.293 Z-0.663 I0.707 J0.707
G1 X-8.293 Y109.917 Z-0.789
G3 X-9 Y111.624 Z-0.815 I-0.707 J0.707
G1 X-25 Z-0.993
G3 X-25.707 Y109.917 Z-1.02 I0 J-1
G1 X-17.707 Y101.917 Z-1.146
G3 X-16.293 Z-1.163 I0.707 J0.707
G1 X-8.293 Y109.917 Z-1.289
G3 X-9 Y111.624 Z-1.315 I-0.707 J0.707
G1 X-25 Z-1.493
G3 X-25.707 Y109.917 Z-1.52 I0 J-1
G1 X-17.707 Y101.917 Z-1.646
G3 X-16.293 Z-1.663 I0.707 J0.707
G1 X-8.293 Y109.917 Z-1.789
G3 X-9 Y111.624 Z-1.815 I-0.707 J0.707
G1 X-25 Z-1.993
G3 X-25.707 Y109.917 Z-2.02 I0 J-1
G1 X-17.707 Y101.917 Z-2.146
G3 X-16.293 Z-2.163 I0.707 J0.707
G1 X-13.95 Y104.26 Z-2.2
X-8.293 Y109.917
G3 X-9 Y111.624 I-0.707 J0.707
G1 X-25
G3 X-25.707 Y109.917 I0 J-1
G1 X-17.707 Y101.917
G3 X-16.293 I0.707 J0.707
G1 X-13.95 Y104.26
G0 Z5
X-20.669 Y127.377
Z2
G1 Z0.5 F100
X-26.707 Y121.339 Z0.414 F1000
G3 X-26 Y119.632 Z0.39 I0.707 J-0.707
G1 X-8 Z0.21
G3 X-7.293 Y121.339 Z0.186 I0 J1
G1 X-16.293 Y130.339 Z0.058
G3 X-17.707 Z0.042 I-0.707 J-0.707
G1 X-26.707 Y121.339 Z-0.086
G3 X-26 Y119.632 Z-0.11 I0.707 J-0.707
G1 X-8 Z-0.29
G3 X-7.293 Y121.339 Z-0.314 I0 J1
G1 X-16.293 Y130.339 Z-0.442
G3 X-17.707 Z-0.458 I-0.707 J-0.707
G1 X-26.707 Y121.339 Z-0.586
G3 X-26 Y119.632 Z-0.61 I0.707 J-0.707
G1 X-8 Z-0.79
G3 X-7.293 Y121.339 Z-0.814 I0 J1
G1 X-16.293 Y130.339 Z-0.942
G3 X-17.707 Z-0.958 I-0.707 J-0.707
G1 X-26.707 Y121.339 Z-1.086
G3 X-26 Y119.632 Z-1.11 I0.707 J-0.707
G1 X-8 Z-1.29
G3 X-7.293 Y121.339 Z-1.314 I0 J1
G1 X-16.293 Y130.339 Z-1.442
G3 X-17.707 Z-1.458 I-0.707 J-0.707
G1 X-26.707 Y121.339 Z-1.586
G3 X-26 Y119.632 Z-1.61 I0.707 J-0.707
G1 X-8 Z-1.79
G3 X-7.293 Y121.339 Z-1.814 I0 J1
G1 X-16.293 Y130.339 Z-1.942
G3 X-17.707 Z-1.958 I-0.707 J-0.707
G1 X-26.707 Y121.339 Z-2.086
G3 X-26 Y119.632 Z-2.11 I0.707 J-0.707
G1 X-17 Z-2.2
X-8
G3 X-7.293 Y121.339 I0 J1
G1 X-16.293 Y130.339
G3 X-17.707 I-0.707 J-0.707
G1 X-26.707 Y121.339
G3 X-26 Y119.632 I0.707 J-0.707
G1 X-17
G0 Z5
X-21.723 Y133.357
Z2
G1 Z0.5 F100
G3 X-22.65 Y133.982 Z0.467 I-0.927 J-0.375 F1000
G1 X-26 Z0.372
G3 X-27 Y132.982 Z0.328 I0 J-1
G1 Y129.632 Z0.233
G3 X-25.293 Y128.925 Z0.167 I1 J0
G1 X-21.943 Y132.275 Z0.033
G3 X-22.65 Y133.982 Z-0.033 I-0.707 J0.707
G1 X-26 Z-0.128
G3 X-27 Y132.982 Z-0.172 I0 J-1
G1 Y129.632 Z-0.267
G3 X-25.293 Y128.925 Z-0.333 I1 J0
G1 X-21.943 Y132.275 Z-0.467
G3 X-22.65 Y133.982 Z-0.533 I-0.707 J0.707
G1 X-26 Z-0.628
G3 X-27 Y132.982 Z-0.672 I0 J-1
G1 Y129.632 Z-0.767
G3 X-25.293 Y128.925 Z-0.833 I1 J0
G1 X-21.943 Y132.275 Z-0.967
G3 X-22.65 Y133.982 Z-1.033 I-0.707 J0.707
G1 X-26 Z-1.128
G3 X-27 Y132.982 Z-1.172 I0 J-1
G1 Y129.632 Z-1.267
G3 X-25.293 Y128.925 Z-1.333 I1 J0
G1 X-21.943 Y132.275 Z-1.467
G3 X-22.65 Y133.982 Z-1.533 I-0.707 J0.707
G1 X-26 Z-1.628
G3 X-27 Y132.982 Z-1.672 I0 J-1
G1 Y129.632 Z-1.767
G3 X-25.293 Y128.925 Z-1.833 I1 J0
G1 X-21.943 Y132.275 Z-1.967
G3 X-22.65 Y133.982 Z-2.033 I-0.707 J0.707
G1 X-26 Z-2.128
G3 X-27 Y132.982 Z-2.172 I0 J-1
G1 Y132.001 Z-2.2
Y129.632
G3 X-25.293 Y128.925 I1 J0
G1 X-21.943 Y132.275
G3 X-22.65 Y133.982 I-0.707 J0.707
G1 X-26
G3 X-27 Y132.982 I0 J-1
G1 Y132.001
G0 Z5
X-8.987 Y133.982
Z2
G1 Z0.5 F100
X-11.35 Z0.433 F1000
G3 X-12.057 Y132.275 Z0.367 I0 J-1
G1 X-8.707 Y128.925 Z0.233
G3 X-7 Y129.632 Z0.167 I0.707 J0.707
G1 Y132.982 Z0.072
G3 X-8 Y133.982 Z0.028 I-1 J0
G1 X-11.35 Z-0.067
G3 X-12.057 Y132.275 Z-0.133 I0 J-1
G1 X-8.707 Y128.925 Z-0.267
G3 X-7 Y129.632 Z-0.333 I0.707 J0.707
G1 Y132.982 Z-0.428
G3 X-8 Y133.982 Z-0.472 I-1 J0
G1 X-11.35 Z-0.567
G3 X-12.057 Y132.275 Z-0.633 I0 J-1
G1 X-8.707 Y128.925 Z-0.767
G3 X-7 Y129.632 Z-0.833 I0.707 J0.707
G1 Y132.982 Z-0.928
G3 X-8 Y133.982 Z-0.972 I-1 J0
G1 X-11.35 Z-1.067
G3 X-12.057 Y132.275 Z-1.133 I0 J-1
G1 X-8.707 Y128.925 Z-1.267
G3 X-7 Y129.632 Z-1.333 I0.707 J0.707
G1 Y132.982 Z-1.428
G3 X-8 Y133.982 Z-1.472 I-1 J0
G1 X-11.35 Z-1.567
G3 X-12.057 Y132.275 Z-1.633 I0 J-1
G1 X-8.707 Y128.925 Z-1.767
G3 X-7 Y129.632 Z-1.833 I0.707 J0.707
G1 Y132.982 Z-1.928
G3 X-8 Y133.982 Z-1.972 I-1 J0
G1 X-11.35 Z-2.067
G3 X-12.057 Y132.275 Z-2.133 I0 J-1
G1 X-10.382 Y130.6 Z-2.2
X-8.707 Y128.925
G3 X-7 Y129.632 I0.707 J0.707
G1 Y132.982
G3 X-8 Y133.982 I-1 J0
G1 X-11.35
G3 X-12.057 Y132.275 I0 J-1
G1 X-10.382 Y130.6
G0 Z5
X-16.608 Y73.34
Z2
G1 Z0.5 F100
X-9 Z0.415 F1000
G3 X-8.293 Y75.047 Z0.389 I0 J1
G1 X-16.293 Y83.047 Z0.263
G3 X-17.707 Z0.246 I-0.707 J-0.707
G1 X-25.707 Y75.047 Z0.12
G3 X-25 Y73.34 Z0.093 I0.707 J-0.707
G1 X-9 Z-0.085
G3 X-8.293 Y75.047 Z-0.111 I0 J1
G1 X-16.293 Y83.047 Z-0.237
G3 X-17.707 Z-0.254 I-0.707 J-0.707
G1 X-25.707 Y75.047 Z-0.38
G3 X-25 Y73.34 Z-0.407 I0.707 J-0.707
G1 X-9 Z-0.585
G3 X-8.293 Y75.047 Z-0.611 I0 J1
G1 X-16.293 Y83.047 Z-0.737
G3 X-17.707 Z-0.754 I-0.707 J-0.707
G1 X-25.707 Y75.047 Z-0.88
G3 X-25 Y73.34 Z-0.907 I0.707 J-0.707
G1 X-9 Z-1.085
G3 X-8.293 Y75.047 Z-1.111 I0 J1
G1 X-16.293 Y83.047 Z-1.237
G3 X-17.707 Z-1.254 I-0.707 J-0.707
G1 X-25.707 Y75.047 Z-1.38
G3 X-25 Y73.34 Z-1.407 I0.707 J-0.707
G1 X-9 Z-1.585
G3 X-8.293 Y75.047 Z-1.611 I0 J1
G1 X-16.293 Y83.047 Z-1.737
G3 X-17.707 Z-1.754 I-0.707 J-0.707
G1 X-25.707 Y75.047 Z-1.88
G3 X-25 Y73.34 Z-1.907 I0.707 J-0.707
G1 X-9 Z-2.085
G3 X-8.293 Y75.047 Z-2.111 I0 J1
G1 X-13.95 Y80.704 Z-2.2
X-16.293 Y83.047
G3 X-17.707 I-0.707 J-0.707
G1 X-25.707 Y75.047
G3 X-25 Y73.34 I0.707 J-0.707
G1 X-9
G3 X-8.293 Y75.047 I0 J1
G1 X-13.95 Y80.704
G0 Z5
X-26.468 Y65.215
Z2
G1 Z0.5 F100
G3 X-26.707 Y63.625 Z0.481 I0.468 J-0.884 F1000
G1 X-17.707 Y54.625 Z0.353
G3 X-16.293 Z0.337 I0.707 J0.707
G1 X-7.293 Y63.625 Z0.21
G3 X-8 Y65.332 Z0.186 I-0.707 J0.707
G1 X-26 Z0.005
G3 X-26.707 Y63.625 Z-0.019 I0 J-1
G1 X-17.707 Y54.625 Z-0.147
G3 X-16.293 Z-0.163 I0.707 J0.707
G1 X-7.293 Y63.625 Z-0.29
G3 X-8 Y65.332 Z-0.314 I-0.707 J0.707
G1 X-26 Z-0.495
G3 X-26.707 Y63.625 Z-0.519 I0 J-1
G1 X-17.707 Y54.625 Z-0.647
G3 X-16.293 Z-0.663 I0.707 J0.707
G1 X-7.293 Y63.625 Z-0.79
G3 X-8 Y65.332 Z-0.814 I-0.707 J0.707
G1 X-26 Z-0.995
G3 X-26.707 Y63.625 Z-1.019 I0 J-1
G1 X-17.707 Y54.625 Z-1.147
G3 X-16.293 Z-1.163 I0.707 J0.707
G1 X-7.293 Y63.625 Z-1.29
G3 X-8 Y65.332 Z-1.314 I-0.707 J0.707
G1 X-26 Z-1.495
G3 X-26.707 Y63.625 Z-1.519 I0 J-1
G1 X-17.707 Y54.625 Z-1.647
G3 X-16.293 Z-1.663 I0.707 J0.707
G1 X-7.293 Y63.625 Z-1.79
G3 X-8 Y65.332 Z-1.814 I-0.707 J0.707
G1 X-26 Z-1.995
G3 X-26.707 Y63.625 Z-2.019 I0 J-1
G1 X-17.707 Y54.625 Z-2.147
G3 X-16.293 Z-2.163 I0.707 J0.707
G1 X-13.657 Y57.261 Z-2.2
X-7.293 Y63.625
G3 X-8 Y65.332 I-0.707 J0.707
G1 X-26
G3 X-26.707 Y63.625 I0 J-1
G1 X-17.707 Y54.625
G3 X-16.293 I0.707 J0.707
G1 X-13.657 Y57.261
G0 Z15

M9
M30
