(04 4MM CHAMFERS)
(T49  D=4 CR=0 TAPER=45DEG - ZMIN=-2.3 - CHAMFER MILL)
G90 G94 G91.1 G40 G49 G17
G21

(04 4MM CHAMFERS)
M5
M9
T49
(4 FLUTE FISH)
S14000 M3
G54
M8
G0 X-73.5 Y38.278
G43 Z15 H26
Z5
G98 G81 X-73.5 Y38.278 Z-2.3 R1 F30
X-43.5 Y26.4
X-35.5
X-18 Y23.4
Y28.4
X-5.5 Y38.278
X-6 Y54.432
X-28
X-30.5 Y92.482
X-3.5
Y137.482
X-30.5
G80
Z15

M9
M30
