(05 ENGRAVE LOGO)
(T58  D=3.175 CR=0 TAPER=20DEG - ZMIN=-0.1 - CHAMFER MILL)
G90 G94 G91.1 G40 G49 G17
G21

(05 ENGRAVE LOGO)
M5
M9
T58
S20000 M3
G54
M8
G0 X-47.932 Y33.4
G43 Z15 H58
Z5
G1 Z1.9 F1000
Z0.218
X-47.94 Z0.147
X-47.964 Z0.08
X-48.002 Z0.02
X-48.052 Z-0.031
X-48.112 Z-0.069
X-48.179 Z-0.092
X-48.25 Z-0.1
X-63.25
X-63.449 Y33.38
X-63.64 Y33.321
X-63.815 Y33.225
X-63.968 Y33.096
X-64.092 Y32.94
X-64.182 Y32.762
X-64.236 Y32.569
X-64.25 Y32.37
X-64.224 Y32.172
X-64.159 Y31.983
X-64.058 Y31.811
X-63.925 Y31.662
X-63.765 Y31.543
X-63.584 Y31.457
X-63.39 Y31.41
X-63.25 Y31.4
X-56.25
X-56.502 Y31.031
X-56.72 Y30.64
X-56.902 Y30.232
X-57.047 Y29.809
X-57.154 Y29.375
X-57.222 Y28.933
X-57.249 Y28.487
X-57.237 Y28.04
X-57.185 Y27.596
X-57.093 Y27.158
X-56.963 Y26.73
X-56.795 Y26.316
X-56.591 Y25.918
X-56.352 Y25.541
X-56.08 Y25.186
X-55.777 Y24.856
X-55.447 Y24.555
X-55.09 Y24.285
X-54.712 Y24.048
X-54.313 Y23.845
X-53.898 Y23.679
X-53.47 Y23.551
X-53.031 Y23.461
X-52.587 Y23.411
X-52.14 Y23.401
X-51.694 Y23.431
X-51.252 Y23.501
X-50.819 Y23.609
X-50.397 Y23.756
X-49.989 Y23.94
X-49.6 Y24.16
X-49.232 Y24.414
X-48.888 Y24.699
X-48.57 Y25.015
X-48.283 Y25.357
X-48.027 Y25.723
X-47.805 Y26.111
X-47.618 Y26.518
X-47.468 Y26.939
X-47.357 Y27.372
X-47.285 Y27.813
X-47.252 Y28.259
X-47.259 Y28.706
X-47.307 Y29.151
X-47.394 Y29.589
X-47.519 Y30.018
X-47.683 Y30.435
X-47.883 Y30.834
X-48.118 Y31.215
X-48.25 Y31.4
X-48.051 Y31.42
X-47.86 Y31.479
X-47.685 Y31.575
X-47.532 Y31.704
X-47.408 Y31.86
X-47.318 Y32.038
X-47.264 Y32.231
X-47.25 Y32.43
X-47.276 Y32.628
X-47.341 Y32.817
X-47.442 Y32.989
X-47.575 Y33.138
X-47.735 Y33.257
X-47.916 Y33.343
X-48.11 Y33.39
X-48.25 Y33.4
X-48.32 Y33.405 Z-0.092
X-48.387 Y33.41 Z-0.069
X-48.447 Y33.414 Z-0.031
X-48.498 Y33.417 Z0.02
X-48.535 Y33.42 Z0.08
X-48.559 Y33.422 Z0.147
X-48.567 Z0.218
Z5
G0 X-50.029 Y30.468
G1 Z1.9 F1000
Z0.218
X-50.035 Y30.473 Z0.147
X-50.054 Y30.487 Z0.08
X-50.084 Y30.511 Z0.02
X-50.123 Y30.541 Z-0.031
X-50.171 Y30.578 Z-0.069
X-50.224 Y30.619 Z-0.092
X-50.28 Y30.663 Z-0.1
X-50.554 Y30.874
X-50.85 Y31.053
X-51.165 Y31.197
X-51.495 Y31.303
X-51.834 Y31.371
X-52.18 Y31.399
X-52.526 Y31.387
X-52.868 Y31.336
X-53.202 Y31.245
X-53.524 Y31.116
X-53.828 Y30.951
X-54.112 Y30.752
X-54.37 Y30.522
X-54.601 Y30.264
X-54.8 Y29.981
X-54.965 Y29.676
X-55.094 Y29.355
X-55.185 Y29.021
X-55.237 Y28.678
X-55.249 Y28.332
X-55.221 Y27.987
X-55.154 Y27.648
X-55.048 Y27.318
X-54.905 Y27.003
X-54.726 Y26.706
X-54.514 Y26.432
X-54.273 Y26.184
X-54.004 Y25.966
X-53.712 Y25.78
X-53.4 Y25.629
X-53.073 Y25.515
X-52.735 Y25.439
X-52.391 Y25.403
X-52.25 Y25.4
X-51.904 Y25.42
X-51.563 Y25.48
X-51.231 Y25.578
X-50.913 Y25.714
X-50.612 Y25.886
X-50.334 Y26.092
X-50.08 Y26.328
X-49.856 Y26.592
X-49.664 Y26.88
X-49.506 Y27.188
X-49.384 Y27.512
X-49.301 Y27.848
X-49.257 Y28.192
X-49.253 Y28.538
X-49.289 Y28.882
X-49.364 Y29.22
X-49.478 Y29.547
X-49.629 Y29.859
X-49.814 Y30.151
X-50.032 Y30.42
X-50.28 Y30.663
X-50.331 Y30.712 Z-0.092
X-50.379 Y30.759 Z-0.069
X-50.422 Y30.801 Z-0.031
X-50.458 Y30.836 Z0.02
X-50.485 Y30.863 Z0.08
X-50.501 Y30.879 Z0.147
X-50.507 Y30.885 Z0.218
Z5
G0 X-54.434 Y22.111
G1 Z1.9 F1000
Z0.218
X-54.44 Y22.116 Z0.147
X-54.459 Y22.131 Z0.08
X-54.489 Y22.154 Z0.02
X-54.529 Y22.184 Z-0.031
X-54.576 Y22.221 Z-0.069
X-54.63 Y22.262 Z-0.092
X-54.686 Y22.305 Z-0.1
X-54.844 Y22.427
X-55.023 Y22.515
X-55.217 Y22.565
X-55.416 Y22.576
X-55.614 Y22.547
X-55.802 Y22.48
X-55.973 Y22.376
X-56.078 Y22.284
X-56.347 Y21.988
X-56.584 Y21.666
X-56.788 Y21.322
X-56.957 Y20.959
X-57.088 Y20.582
X-57.181 Y20.193
X-57.235 Y19.797
X-57.25 Y19.397
X-57.224 Y18.998
X-57.158 Y18.603
X-57.054 Y18.218
X-56.911 Y17.844
X-56.732 Y17.487
X-56.518 Y17.149
X-56.271 Y16.834
X-55.994 Y16.545
X-55.69 Y16.286
X-55.361 Y16.058
X-55.011 Y15.864
X-54.644 Y15.707
X-54.263 Y15.586
X-53.871 Y15.504
X-53.474 Y15.462
X-53.074 Y15.46
X-52.676 Y15.497
X-52.283 Y15.574
X-51.901 Y15.69
X-51.531 Y15.844
X-51.179 Y16.033
X-50.848 Y16.257
X-50.541 Y16.513
X-50.26 Y16.798
X-50.25 Y16.81
X-49.971 Y16.524
X-49.665 Y16.267
X-49.334 Y16.042
X-48.983 Y15.851
X-48.614 Y15.696
X-48.232 Y15.578
X-47.84 Y15.499
X-47.442 Y15.46
X-47.042 Y15.461
X-46.644 Y15.502
X-46.252 Y15.582
X-45.871 Y15.701
X-45.503 Y15.858
X-45.152 Y16.05
X-44.823 Y16.276
X-44.517 Y16.535
X-44.239 Y16.822
X-43.991 Y17.136
X-43.776 Y17.473
X-43.595 Y17.83
X-43.451 Y18.203
X-43.345 Y18.588
X-43.278 Y18.982
X-43.251 Y19.381
X-43.263 Y19.781
X-43.316 Y20.177
X-43.407 Y20.567
X-43.537 Y20.945
X-43.705 Y21.308
X-43.907 Y21.653
X-44.143 Y21.975
X-44.41 Y22.273
X-44.422 Y22.284
X-44.576 Y22.411
X-44.753 Y22.504
X-44.945 Y22.56
X-45.144 Y22.577
X-45.342 Y22.554
X-45.532 Y22.492
X-45.706 Y22.394
X-45.857 Y22.263
X-45.978 Y22.104
X-46.066 Y21.925
X-46.117 Y21.732
X-46.128 Y21.532
X-46.099 Y21.335
X-46.031 Y21.147
X-45.928 Y20.976
X-45.651 Y20.656
X-45.497 Y20.419
X-45.379 Y20.162
X-45.298 Y19.891
X-45.256 Y19.612
X-45.254 Y19.329
X-45.292 Y19.049
X-45.369 Y18.777
X-45.483 Y18.519
X-45.633 Y18.279
X-45.815 Y18.063
X-46.026 Y17.874
X-46.261 Y17.717
X-46.516 Y17.595
X-46.785 Y17.51
X-47.064 Y17.464
X-47.347 Y17.458
X-47.628 Y17.492
X-47.901 Y17.565
X-48.161 Y17.675
X-48.403 Y17.821
X-48.622 Y18
X-48.813 Y18.208
X-48.973 Y18.441
X-49.099 Y18.694
X-49.188 Y18.962
X-49.238 Y19.241
X-49.25 Y19.456
X-49.27 Y19.654
X-49.329 Y19.845
X-49.425 Y20.021
X-49.554 Y20.173
X-49.71 Y20.297
X-49.888 Y20.388
X-50.081 Y20.441
X-50.28 Y20.455
X-50.478 Y20.429
X-50.667 Y20.365
X-50.839 Y20.264
X-50.988 Y20.13
X-51.107 Y19.97
X-51.193 Y19.79
X-51.24 Y19.596
X-51.27 Y19.174
X-51.33 Y18.897
X-51.427 Y18.632
X-51.562 Y18.384
X-51.73 Y18.156
X-51.928 Y17.955
X-52.153 Y17.784
X-52.4 Y17.646
X-52.663 Y17.544
X-52.939 Y17.48
X-53.22 Y17.456
X-53.503 Y17.472
X-53.78 Y17.527
X-54.046 Y17.621
X-54.297 Y17.752
X-54.527 Y17.916
X-54.731 Y18.112
X-54.906 Y18.334
X-55.047 Y18.579
X-55.153 Y18.841
X-55.221 Y19.115
X-55.249 Y19.396
X-55.238 Y19.679
X-55.186 Y19.957
X-55.096 Y20.225
X-54.969 Y20.477
X-54.808 Y20.71
X-54.664 Y20.87
X-54.538 Y21.025
X-54.445 Y21.201
X-54.388 Y21.393
X-54.371 Y21.592
X-54.394 Y21.79
X-54.456 Y21.98
X-54.555 Y22.154
X-54.686 Y22.305
X-54.732 Y22.358 Z-0.092
X-54.776 Y22.409 Z-0.069
X-54.815 Y22.454 Z-0.031
X-54.848 Y22.492 Z0.02
X-54.873 Y22.521 Z0.08
X-54.889 Y22.539 Z0.147
X-54.894 Y22.545 Z0.218
Z5
G0 Z15

M9
M30
