(06 2MM FLAT OUTER CONTOURS)
(T11  D=2 CR=0 - ZMIN=-2.2 - FLAT END MILL)
G90 G94 G91.1 G40 G49 G17
G21

(06 2MM FLAT OUTER CONTOURS)
M5
M9
T11
(DIAMOND OR SPIRAL)
S20000 M3
G54
M8
G0 X-29.34 Y140.982
G43 Z15 H1
Z2
G1 Z0.5 F100
X-3.5 Z0.449 F1000
G2 X0 Y137.482 Z0.438 I0 J-3.5
G1 Y115.232 Z0.394
G2 X-1 Y114.232 Z0.391 I-1 J0
G1 Y100.232 Z0.364
G2 X0 Y99.232 Z0.36 I0 J-1
G1 Y85.732 Z0.334
G2 X-1 Y84.732 Z0.331 I-1 J0
G1 Y70.732 Z0.303
G2 X0 Y69.732 Z0.3 I0 J-1
G1 Y51.332 Z0.264
G2 X-4 Y47.332 Z0.251 I-4 J0
G1 X-30 Z0.2
G2 X-34 Y51.332 Z0.188 I0 J4
G1 Y69.732 Z0.151
G2 X-33 Y70.732 Z0.148 I1 J0
G1 Y84.732 Z0.121
G2 X-34 Y85.732 Z0.117 I0 J1
G1 Y99.232 Z0.091
G2 X-33 Y100.232 Z0.088 I1 J0
G1 Y114.232 Z0.06
G2 X-34 Y115.232 Z0.057 I0 J1
G1 Y137.482 Z0.013
G2 X-30.5 Y140.982 Z0.002 I3.5 J0
G1 X-3.5 Z-0.051
G2 X0 Y137.482 Z-0.062 I0 J-3.5
G1 Y115.232 Z-0.106
G2 X-1 Y114.232 Z-0.109 I-1 J0
G1 Y100.232 Z-0.136
G2 X0 Y99.232 Z-0.14 I0 J-1
G1 Y85.732 Z-0.166
G2 X-1 Y84.732 Z-0.169 I-1 J0
G1 Y70.732 Z-0.197
G2 X0 Y69.732 Z-0.2 I0 J-1
G1 Y51.332 Z-0.236
G2 X-4 Y47.332 Z-0.249 I-4 J0
G1 X-30 Z-0.3
G2 X-34 Y51.332 Z-0.312 I0 J4
G1 Y69.732 Z-0.349
G2 X-33 Y70.732 Z-0.352 I1 J0
G1 Y84.732 Z-0.379
G2 X-34 Y85.732 Z-0.383 I0 J1
G1 Y99.232 Z-0.409
G2 X-33 Y100.232 Z-0.412 I1 J0
G1 Y114.232 Z-0.44
G2 X-34 Y115.232 Z-0.443 I0 J1
G1 Y137.482 Z-0.487
G2 X-30.5 Y140.982 Z-0.498 I3.5 J0
G1 X-3.5 Z-0.551
G2 X0 Y137.482 Z-0.562 I0 J-3.5
G1 Y115.232 Z-0.606
G2 X-1 Y114.232 Z-0.609 I-1 J0
G1 Y100.232 Z-0.636
G2 X0 Y99.232 Z-0.64 I0 J-1
G1 Y85.732 Z-0.666
G2 X-1 Y84.732 Z-0.669 I-1 J0
G1 Y70.732 Z-0.697
G2 X0 Y69.732 Z-0.7 I0 J-1
G1 Y51.332 Z-0.736
G2 X-4 Y47.332 Z-0.749 I-4 J0
G1 X-30 Z-0.8
G2 X-34 Y51.332 Z-0.812 I0 J4
G1 Y69.732 Z-0.849
G2 X-33 Y70.732 Z-0.852 I1 J0
G1 Y84.732 Z-0.879
G2 X-34 Y85.732 Z-0.883 I0 J1
G1 Y99.232 Z-0.909
G2 X-33 Y100.232 Z-0.912 I1 J0
G1 Y114.232 Z-0.94
G2 X-34 Y115.232 Z-0.943 I0 J1
G1 Y137.482 Z-0.987
G2 X-30.5 Y140.982 Z-0.998 I3.5 J0
G1 X-3.5 Z-1.051
G2 X0 Y137.482 Z-1.062 I0 J-3.5
G1 Y115.232 Z-1.106
G2 X-1 Y114.232 Z-1.109 I-1 J0
G1 Y100.232 Z-1.136
G2 X0 Y99.232 Z-1.14 I0 J-1
G1 Y85.732 Z-1.166
G2 X-1 Y84.732 Z-1.169 I-1 J0
G1 Y70.732 Z-1.197
G2 X0 Y69.732 Z-1.2 I0 J-1
G1 Y51.332 Z-1.236
G2 X-4 Y47.332 Z-1.249 I-4 J0
G1 X-30 Z-1.3
G2 X-34 Y51.332 Z-1.312 I0 J4
G1 Y69.732 Z-1.349
G2 X-33 Y70.732 Z-1.352 I1 J0
G1 Y84.732 Z-1.379
G2 X-34 Y85.732 Z-1.383 I0 J1
G1 Y99.232 Z-1.409
G2 X-33 Y100.232 Z-1.412 I1 J0
G1 Y114.232 Z-1.44
G2 X-34 Y115.232 Z-1.443 I0 J1
G1 Y137.482 Z-1.487
G2 X-30.5 Y140.982 Z-1.498 I3.5 J0
G1 X-3.5 Z-1.551
G2 X0 Y137.482 Z-1.562 I0 J-3.5
G1 Y115.232 Z-1.606
G2 X-1 Y114.232 Z-1.609 I-1 J0
G1 Y100.232 Z-1.636
G2 X0 Y99.232 Z-1.64 I0 J-1
G1 Y85.732 Z-1.666
G2 X-1 Y84.732 Z-1.669 I-1 J0
G1 Y70.732 Z-1.697
G2 X0 Y69.732 Z-1.7 I0 J-1
G1 Y51.332 Z-1.736
G2 X-4 Y47.332 Z-1.749 I-4 J0
G1 X-30 Z-1.8
G2 X-34 Y51.332 Z-1.812 I0 J4
G1 Y69.732 Z-1.849
G2 X-33 Y70.732 Z-1.852 I1 J0
G1 Y84.732 Z-1.879
G2 X-34 Y85.732 Z-1.883 I0 J1
G1 Y99.232 Z-1.909
G2 X-33 Y100.232 Z-1.912 I1 J0
G1 Y114.232 Z-1.94
G2 X-34 Y115.232 Z-1.943 I0 J1
G1 Y137.482 Z-1.987
G2 X-30.5 Y140.982 Z-1.998 I3.5 J0
G1 X-3.5 Z-2.051
G2 X0 Y137.482 Z-2.062 I0 J-3.5
G1 Y115.232 Z-2.106
G2 X-1 Y114.232 Z-2.109 I-1 J0
G1 Y100.232 Z-2.136
G2 X0 Y99.232 Z-2.14 I0 J-1
G1 Y85.732 Z-2.166
G2 X-1 Y84.732 Z-2.169 I-1 J0
G1 Y70.732 Z-2.197
G2 X0 Y69.732 Z-2.2 I0 J-1
G1 Y51.332
G2 X-4 Y47.332 I-4 J0
G1 X-30
G2 X-34 Y51.332 I0 J4
G1 Y69.732
G2 X-33 Y70.732 I1 J0
G1 Y84.732
G2 X-34 Y85.732 I0 J1
G1 Y99.232
G2 X-33 Y100.232 I1 J0
G1 Y114.232
G2 X-34 Y115.232 I0 J1
G1 Y137.482
G2 X-30.5 Y140.982 I3.5 J0
G1 X-3.5
G2 X0 Y137.482 I0 J-3.5
G1 Y115.232
G2 X-1 Y114.232 I-1 J0
G1 Y100.232
G2 X0 Y99.232 I0 J-1
G1 Y85.732
G2 X-1 Y84.732 I-1 J0
G1 Y70.732
G2 X0 Y69.732 I0 J-1
G0 Z5
X-39 Y11.182
Z2
G1 Z0.5 F100
Y31.846 Z0.452 F1000
G2 X-38.652 Y33.368 Z0.448 I3.5 J0
X-3.249 Y40.957 Z0.352 I20.652 J-9.968
X-2.053 Y38.885 Z0.346 I-2.251 J-2.68
X-2.042 Y38.798 I-0.985 J-0.174
G1 X-2.027 Y38.626 Z0.345
G2 X-2.005 Y38.492 I-0.973 J-0.229
G1 X-0.459 Y22.348 Z0.307
G2 X0 Y12.726 Z0.285 I-100.541 J-9.623
G1 Y12.5
G2 X-1 Y11.5 Z0.281 I-1 J0
G1 X-2 Z0.279
Y11.395 Z0.278
G2 X-1.1 Y10.4 Z0.275 I-0.1 J-0.995
G1 Y7.45 Z0.268
G2 X-2.1 Y6.45 Z0.264 I-1 J0
G1 X-4.9 Z0.258
G2 X-5.9 Y7.45 Z0.254 I0 J1
G1 Y7.7
X-6.1 Z0.253
Y5.1 Z0.247
X-5.9
Y5.35 Z0.246
G2 X-4.9 Y6.35 Z0.243 I1 J0
G1 X-2.1 Z0.236
G2 X-1.1 Y5.35 Z0.232 I0 J-1
G1 Y2.4 Z0.226
G2 X-2.1 Y1.4 Z0.222 I-1 J0
G1 X-23.9 Z0.171
G2 X-24.9 Y2.4 Z0.168 I0 J1
G1 Y5.35 Z0.161
G2 X-23.9 Y6.35 Z0.157 I1 J0
G1 X-22.1 Z0.153
G2 X-21.1 Y5.35 Z0.149 I0 J-1
G1 Y5.1
X-20.9 Z0.148
Y7.7 Z0.142
X-21.1
Y7.45 Z0.141
G2 X-22.1 Y6.45 Z0.138 I-1 J0
G1 X-23.9 Z0.134
G2 X-24.9 Y7.45 Z0.13 I0 J1
G1 Y10.4 Z0.123
G2 X-24 Y11.395 Z0.12 I1 J0
G1 Y13.4 Z0.115
X-29.5 Z0.102
Y1.9 Z0.076
G2 X-30.405 Y0.905 Z0.072 I-1 J0
X-31.4 Y0 Z0.069 I-0.995 J0.095
G1 X-33.65 Z0.064
G2 X-34.65 Y1 Z0.06 I0 J1
G1 Y2.8 Z0.056
G2 X-33.65 Y3.8 Z0.052 I1 J0
G1 X-33.4 Z0.051
Y4
X-36 Z0.045
Y3.8
X-35.75 Z0.044
G2 X-34.75 Y2.8 Z0.04 I0 J-1
G1 Y1 Z0.036
G2 X-35.75 Y0 Z0.032 I-1 J0
G1 X-38 Z0.027
G2 X-39 Y1 Z0.024 I0 J1
G1 Y31.846 Z-0.048
G2 X-38.652 Y33.368 Z-0.052 I3.5 J0
X-3.249 Y40.957 Z-0.148 I20.652 J-9.968
X-2.053 Y38.885 Z-0.154 I-2.251 J-2.68
X-2.042 Y38.798 I-0.985 J-0.174
G1 X-2.027 Y38.626 Z-0.155
G2 X-2.005 Y38.492 I-0.973 J-0.229
G1 X-0.459 Y22.348 Z-0.193
G2 X0 Y12.726 Z-0.215 I-100.541 J-9.623
G1 Y12.5
G2 X-1 Y11.5 Z-0.219 I-1 J0
G1 X-2 Z-0.221
Y11.395 Z-0.222
G2 X-1.1 Y10.4 Z-0.225 I-0.1 J-0.995
G1 Y7.45 Z-0.232
G2 X-2.1 Y6.45 Z-0.236 I-1 J0
G1 X-4.9 Z-0.242
G2 X-5.9 Y7.45 Z-0.246 I0 J1
G1 Y7.7
X-6.1 Z-0.247
Y5.1 Z-0.253
X-5.9
Y5.35 Z-0.254
G2 X-4.9 Y6.35 Z-0.257 I1 J0
G1 X-2.1 Z-0.264
G2 X-1.1 Y5.35 Z-0.268 I0 J-1
G1 Y2.4 Z-0.274
G2 X-2.1 Y1.4 Z-0.278 I-1 J0
G1 X-23.9 Z-0.329
G2 X-24.9 Y2.4 Z-0.332 I0 J1
G1 Y5.35 Z-0.339
G2 X-23.9 Y6.35 Z-0.343 I1 J0
G1 X-22.1 Z-0.347
G2 X-21.1 Y5.35 Z-0.351 I0 J-1
G1 Y5.1
X-20.9 Z-0.352
Y7.7 Z-0.358
X-21.1
Y7.45 Z-0.359
G2 X-22.1 Y6.45 Z-0.362 I-1 J0
G1 X-23.9 Z-0.366
G2 X-24.9 Y7.45 Z-0.37 I0 J1
G1 Y10.4 Z-0.377
G2 X-24 Y11.395 Z-0.38 I1 J0
G1 Y13.4 Z-0.385
X-29.5 Z-0.398
Y1.9 Z-0.424
G2 X-30.405 Y0.905 Z-0.428 I-1 J0
X-31.4 Y0 Z-0.431 I-0.995 J0.095
G1 X-33.65 Z-0.436
G2 X-34.65 Y1 Z-0.44 I0 J1
G1 Y2.8 Z-0.444
G2 X-33.65 Y3.8 Z-0.448 I1 J0
G1 X-33.4 Z-0.449
Y4
X-36 Z-0.455
Y3.8
X-35.75 Z-0.456
G2 X-34.75 Y2.8 Z-0.46 I0 J-1
G1 Y1 Z-0.464
G2 X-35.75 Y0 Z-0.468 I-1 J0
G1 X-38 Z-0.473
G2 X-39 Y1 Z-0.476 I0 J1
G1 Y31.846 Z-0.548
G2 X-38.652 Y33.368 Z-0.552 I3.5 J0
X-3.249 Y40.957 Z-0.648 I20.652 J-9.968
X-2.053 Y38.885 Z-0.654 I-2.251 J-2.68
X-2.042 Y38.798 I-0.985 J-0.174
G1 X-2.027 Y38.626 Z-0.655
G2 X-2.005 Y38.492 I-0.973 J-0.229
G1 X-0.459 Y22.348 Z-0.693
G2 X0 Y12.726 Z-0.715 I-100.541 J-9.623
G1 Y12.5
G2 X-1 Y11.5 Z-0.719 I-1 J0
G1 X-2 Z-0.721
Y11.395 Z-0.722
G2 X-1.1 Y10.4 Z-0.725 I-0.1 J-0.995
G1 Y7.45 Z-0.732
G2 X-2.1 Y6.45 Z-0.736 I-1 J0
G1 X-4.9 Z-0.742
G2 X-5.9 Y7.45 Z-0.746 I0 J1
G1 Y7.7
X-6.1 Z-0.747
Y5.1 Z-0.753
X-5.9
Y5.35 Z-0.754
G2 X-4.9 Y6.35 Z-0.757 I1 J0
G1 X-2.1 Z-0.764
G2 X-1.1 Y5.35 Z-0.768 I0 J-1
G1 Y2.4 Z-0.774
G2 X-2.1 Y1.4 Z-0.778 I-1 J0
G1 X-23.9 Z-0.829
G2 X-24.9 Y2.4 Z-0.832 I0 J1
G1 Y5.35 Z-0.839
G2 X-23.9 Y6.35 Z-0.843 I1 J0
G1 X-22.1 Z-0.847
G2 X-21.1 Y5.35 Z-0.851 I0 J-1
G1 Y5.1
X-20.9 Z-0.852
Y7.7 Z-0.858
X-21.1
Y7.45 Z-0.859
G2 X-22.1 Y6.45 Z-0.862 I-1 J0
G1 X-23.9 Z-0.866
G2 X-24.9 Y7.45 Z-0.87 I0 J1
G1 Y10.4 Z-0.877
G2 X-24 Y11.395 Z-0.88 I1 J0
G1 Y13.4 Z-0.885
X-29.5 Z-0.898
Y1.9 Z-0.924
G2 X-30.405 Y0.905 Z-0.928 I-1 J0
X-31.4 Y0 Z-0.931 I-0.995 J0.095
G1 X-33.65 Z-0.936
G2 X-34.65 Y1 Z-0.94 I0 J1
G1 Y2.8 Z-0.944
G2 X-33.65 Y3.8 Z-0.948 I1 J0
G1 X-33.4 Z-0.949
Y4
X-36 Z-0.955
Y3.8
X-35.75 Z-0.956
G2 X-34.75 Y2.8 Z-0.96 I0 J-1
G1 Y1 Z-0.964
G2 X-35.75 Y0 Z-0.968 I-1 J0
G1 X-38 Z-0.973
G2 X-39 Y1 Z-0.976 I0 J1
G1 Y31.846 Z-1.048
G2 X-38.652 Y33.368 Z-1.052 I3.5 J0
X-3.249 Y40.957 Z-1.148 I20.652 J-9.968
X-2.053 Y38.885 Z-1.154 I-2.251 J-2.68
X-2.042 Y38.798 I-0.985 J-0.174
G1 X-2.027 Y38.626 Z-1.155
G2 X-2.005 Y38.492 I-0.973 J-0.229
G1 X-0.459 Y22.348 Z-1.193
G2 X0 Y12.726 Z-1.215 I-100.541 J-9.623
G1 Y12.5
G2 X-1 Y11.5 Z-1.219 I-1 J0
G1 X-2 Z-1.221
Y11.395 Z-1.222
G2 X-1.1 Y10.4 Z-1.225 I-0.1 J-0.995
G1 Y7.45 Z-1.232
G2 X-2.1 Y6.45 Z-1.236 I-1 J0
G1 X-4.9 Z-1.242
G2 X-5.9 Y7.45 Z-1.246 I0 J1
G1 Y7.7
X-6.1 Z-1.247
Y5.1 Z-1.253
X-5.9
Y5.35 Z-1.254
G2 X-4.9 Y6.35 Z-1.257 I1 J0
G1 X-2.1 Z-1.264
G2 X-1.1 Y5.35 Z-1.268 I0 J-1
G1 Y2.4 Z-1.274
G2 X-2.1 Y1.4 Z-1.278 I-1 J0
G1 X-23.9 Z-1.329
G2 X-24.9 Y2.4 Z-1.332 I0 J1
G1 Y5.35 Z-1.339
G2 X-23.9 Y6.35 Z-1.343 I1 J0
G1 X-22.1 Z-1.347
G2 X-21.1 Y5.35 Z-1.351 I0 J-1
G1 Y5.1
X-20.9 Z-1.352
Y7.7 Z-1.358
X-21.1
Y7.45 Z-1.359
G2 X-22.1 Y6.45 Z-1.362 I-1 J0
G1 X-23.9 Z-1.366
G2 X-24.9 Y7.45 Z-1.37 I0 J1
G1 Y10.4 Z-1.377
G2 X-24 Y11.395 Z-1.38 I1 J0
G1 Y13.4 Z-1.385
X-29.5 Z-1.398
Y1.9 Z-1.424
G2 X-30.405 Y0.905 Z-1.428 I-1 J0
X-31.4 Y0 Z-1.431 I-0.995 J0.095
G1 X-33.65 Z-1.436
G2 X-34.65 Y1 Z-1.44 I0 J1
G1 Y2.8 Z-1.444
G2 X-33.65 Y3.8 Z-1.448 I1 J0
G1 X-33.4 Z-1.449
Y4
X-36 Z-1.455
Y3.8
X-35.75 Z-1.456
G2 X-34.75 Y2.8 Z-1.46 I0 J-1
G1 Y1 Z-1.464
G2 X-35.75 Y0 Z-1.468 I-1 J0
G1 X-38 Z-1.473
G2 X-39 Y1 Z-1.476 I0 J1
G1 Y31.846 Z-1.548
G2 X-38.652 Y33.368 Z-1.552 I3.5 J0
X-3.249 Y40.957 Z-1.648 I20.652 J-9.968
X-2.053 Y38.885 Z-1.654 I-2.251 J-2.68
X-2.042 Y38.798 I-0.985 J-0.174
G1 X-2.027 Y38.626 Z-1.655
G2 X-2.005 Y38.492 I-0.973 J-0.229
G1 X-0.459 Y22.348 Z-1.693
G2 X0 Y12.726 Z-1.715 I-100.541 J-9.623
G1 Y12.5
G2 X-1 Y11.5 Z-1.719 I-1 J0
G1 X-2 Z-1.721
Y11.395 Z-1.722
G2 X-1.1 Y10.4 Z-1.725 I-0.1 J-0.995
G1 Y7.45 Z-1.732
G2 X-2.1 Y6.45 Z-1.736 I-1 J0
G1 X-4.9 Z-1.742
G2 X-5.9 Y7.45 Z-1.746 I0 J1
G1 Y7.7
X-6.1 Z-1.747
Y5.1 Z-1.753
X-5.9
Y5.35 Z-1.754
G2 X-4.9 Y6.35 Z-1.757 I1 J0
G1 X-2.1 Z-1.764
G2 X-1.1 Y5.35 Z-1.768 I0 J-1
G1 Y2.4 Z-1.774
G2 X-2.1 Y1.4 Z-1.778 I-1 J0
G1 X-23.9 Z-1.829
G2 X-24.9 Y2.4 Z-1.832 I0 J1
G1 Y5.35 Z-1.839
G2 X-23.9 Y6.35 Z-1.843 I1 J0
G1 X-22.1 Z-1.847
G2 X-21.1 Y5.35 Z-1.851 I0 J-1
G1 Y5.1
X-20.9 Z-1.852
Y7.7 Z-1.858
X-21.1
Y7.45 Z-1.859
G2 X-22.1 Y6.45 Z-1.862 I-1 J0
G1 X-23.9 Z-1.866
G2 X-24.9 Y7.45 Z-1.87 I0 J1
G1 Y10.4 Z-1.877
G2 X-24 Y11.395 Z-1.88 I1 J0
G1 Y13.4 Z-1.885
X-29.5 Z-1.898
Y1.9 Z-1.924
G2 X-30.405 Y0.905 Z-1.928 I-1 J0
X-31.4 Y0 Z-1.931 I-0.995 J0.095
G1 X-33.65 Z-1.936
G2 X-34.65 Y1 Z-1.94 I0 J1
G1 Y2.8 Z-1.944
G2 X-33.65 Y3.8 Z-1.948 I1 J0
G1 X-33.4 Z-1.949
Y4
X-36 Z-1.955
Y3.8
X-35.75 Z-1.956
G2 X-34.75 Y2.8 Z-1.96 I0 J-1
G1 Y1 Z-1.964
G2 X-35.75 Y0 Z-1.968 I-1 J0
G1 X-38 Z-1.973
G2 X-39 Y1 Z-1.976 I0 J1
G1 Y31.846 Z-2.048
G2 X-38.652 Y33.368 Z-2.052 I3.5 J0
X-3.249 Y40.957 Z-2.148 I20.652 J-9.968
X-2.053 Y38.885 Z-2.154 I-2.251 J-2.68
X-2.042 Y38.798 I-0.985 J-0.174
G1 X-2.027 Y38.626 Z-2.155
G2 X-2.005 Y38.492 I-0.973 J-0.229
G1 X-0.459 Y22.348 Z-2.193
G2 X-0.204 Y19.143 Z-2.2 I-100.541 J-9.623
X0 Y12.726 I-100.796 J-6.418
G1 Y12.5
G2 X-1 Y11.5 I-1 J0
G1 X-2
Y11.395
G2 X-1.1 Y10.4 I-0.1 J-0.995
G1 Y7.45
G2 X-2.1 Y6.45 I-1 J0
G1 X-4.9
G2 X-5.9 Y7.45 I0 J1
G1 Y7.7
X-6.1
Y5.1
X-5.9
Y5.35
G2 X-4.9 Y6.35 I1 J0
G1 X-2.1
G2 X-1.1 Y5.35 I0 J-1
G1 Y2.4
G2 X-2.1 Y1.4 I-1 J0
G1 X-23.9
G2 X-24.9 Y2.4 I0 J1
G1 Y5.35
G2 X-23.9 Y6.35 I1 J0
G1 X-22.1
G2 X-21.1 Y5.35 I0 J-1
G1 Y5.1
X-20.9
Y7.7
X-21.1
Y7.45
G2 X-22.1 Y6.45 I-1 J0
G1 X-23.9
G2 X-24.9 Y7.45 I0 J1
G1 Y10.4
G2 X-24 Y11.395 I1 J0
G1 Y13.4
X-29.5
Y1.9
G2 X-30.405 Y0.905 I-1 J0
X-31.4 Y0 I-0.995 J0.095
G1 X-33.65
G2 X-34.65 Y1 I0 J1
G1 Y2.8
G2 X-33.65 Y3.8 I1 J0
G1 X-33.4
Y4
X-36
Y3.8
X-35.75
G2 X-34.75 Y2.8 I0 J-1
G1 Y1
G2 X-35.75 Y0 I-1 J0
G1 X-38
G2 X-39 Y1 I0 J1
G1 Y31.846
G2 X-38.652 Y33.368 I3.5 J0
X-3.249 Y40.957 I20.652 J-9.968
X-2.053 Y38.885 I-2.251 J-2.68
X-2.042 Y38.798 I-0.985 J-0.174
G1 X-2.027 Y38.626
G2 X-2.005 Y38.492 I-0.973 J-0.229
G1 X-0.459 Y22.348
G2 X-0.204 Y19.143 I-100.541 J-9.623
G0 Z5
X-58.1 Y6.541
Z2
G1 Z0.5 F100
Y5.1 Z0.497 F1000
X-57.9 Z0.496
Y5.35
G2 X-56.9 Y6.35 Z0.492 I1 J0
G1 X-55.1 Z0.488
G2 X-54.1 Y5.35 Z0.484 I0 J-1
G1 Y2.4 Z0.477
G2 X-55.1 Y1.4 Z0.474 I-1 J0
G1 X-76.9 Z0.423
G2 X-77.9 Y2.4 Z0.419 I0 J1
G1 Y5.35 Z0.413
G2 X-76.9 Y6.35 Z0.409 I1 J0
G1 X-74.1 Z0.402
G2 X-73.1 Y5.35 Z0.399 I0 J-1
G1 Y5.1 Z0.398
X-72.9
Y7.7 Z0.392
X-73.1 Z0.391
Y7.45
G2 X-74.1 Y6.45 Z0.387 I-1 J0
G1 X-76.9 Z0.381
G2 X-77.9 Y7.45 Z0.377 I0 J1
G1 Y10.4 Z0.37
G2 X-77 Y11.395 Z0.367 I1 J0
G1 Y11.5 Z0.366
X-78 Z0.364
G2 X-79 Y12.5 Z0.361 I0 J1
G1 Y12.726 Z0.36
G2 X-78.541 Y22.348 Z0.338 I101 J0
G1 X-76.995 Y38.492 Z0.3
G2 X-76.973 Y38.626 I0.995 J-0.095
G1 X-76.958 Y38.798 Z0.299
G2 X-76.947 Y38.885 I0.996 J-0.087
X-75.751 Y40.957 Z0.293 I3.447 J-0.607
X-40.348 Y33.368 Z0.197 I14.751 J-17.557
X-40 Y31.846 Z0.193 I-3.152 J-1.521
G1 Y1 Z0.121
G2 X-41 Y0 Z0.118 I-1 J0
G1 X-43.25 Z0.113
G2 X-44.25 Y1 Z0.109 I0 J1
G1 Y2.8 Z0.105
G2 X-43.25 Y3.8 Z0.101 I1 J0
G1 X-43
Y4 Z0.1
X-45.6 Z0.094
Y3.8
X-45.35 Z0.093
G2 X-44.35 Y2.8 Z0.089 I0 J-1
G1 Y1 Z0.085
G2 X-45.35 Y0 Z0.082 I-1 J0
G1 X-47.6 Z0.076
G2 X-48.595 Y0.905 Z0.073 I0 J1
X-49.5 Y1.9 Z0.07 I0.095 J0.995
G1 Y13.4 Z0.043
X-55 Z0.03
Y11.395 Z0.025
G2 X-54.1 Y10.4 Z0.022 I-0.1 J-0.995
G1 Y7.45 Z0.015
G2 X-55.1 Y6.45 Z0.012 I-1 J0
G1 X-56.9 Z0.007
G2 X-57.9 Y7.45 Z0.004 I0 J1
G1 Y7.7 Z0.003
X-58.1
Y5.1 Z-0.003
X-57.9 Z-0.004
Y5.35
G2 X-56.9 Y6.35 Z-0.008 I1 J0
G1 X-55.1 Z-0.012
G2 X-54.1 Y5.35 Z-0.016 I0 J-1
G1 Y2.4 Z-0.023
G2 X-55.1 Y1.4 Z-0.026 I-1 J0
G1 X-76.9 Z-0.077
G2 X-77.9 Y2.4 Z-0.081 I0 J1
G1 Y5.35 Z-0.087
G2 X-76.9 Y6.35 Z-0.091 I1 J0
G1 X-74.1 Z-0.098
G2 X-73.1 Y5.35 Z-0.101 I0 J-1
G1 Y5.1 Z-0.102
X-72.9
Y7.7 Z-0.108
X-73.1 Z-0.109
Y7.45
G2 X-74.1 Y6.45 Z-0.113 I-1 J0
G1 X-76.9 Z-0.119
G2 X-77.9 Y7.45 Z-0.123 I0 J1
G1 Y10.4 Z-0.13
G2 X-77 Y11.395 Z-0.133 I1 J0
G1 Y11.5 Z-0.134
X-78 Z-0.136
G2 X-79 Y12.5 Z-0.139 I0 J1
G1 Y12.726 Z-0.14
G2 X-78.541 Y22.348 Z-0.162 I101 J0
G1 X-76.995 Y38.492 Z-0.2
G2 X-76.973 Y38.626 I0.995 J-0.095
G1 X-76.958 Y38.798 Z-0.201
G2 X-76.947 Y38.885 I0.996 J-0.087
X-75.751 Y40.957 Z-0.207 I3.447 J-0.607
X-40.348 Y33.368 Z-0.303 I14.751 J-17.557
X-40 Y31.846 Z-0.307 I-3.152 J-1.521
G1 Y1 Z-0.379
G2 X-41 Y0 Z-0.382 I-1 J0
G1 X-43.25 Z-0.387
G2 X-44.25 Y1 Z-0.391 I0 J1
G1 Y2.8 Z-0.395
G2 X-43.25 Y3.8 Z-0.399 I1 J0
G1 X-43
Y4 Z-0.4
X-45.6 Z-0.406
Y3.8
X-45.35 Z-0.407
G2 X-44.35 Y2.8 Z-0.411 I0 J-1
G1 Y1 Z-0.415
G2 X-45.35 Y0 Z-0.418 I-1 J0
G1 X-47.6 Z-0.424
G2 X-48.595 Y0.905 Z-0.427 I0 J1
X-49.5 Y1.9 Z-0.43 I0.095 J0.995
G1 Y13.4 Z-0.457
X-55 Z-0.47
Y11.395 Z-0.475
G2 X-54.1 Y10.4 Z-0.478 I-0.1 J-0.995
G1 Y7.45 Z-0.485
G2 X-55.1 Y6.45 Z-0.488 I-1 J0
G1 X-56.9 Z-0.493
G2 X-57.9 Y7.45 Z-0.496 I0 J1
G1 Y7.7 Z-0.497
X-58.1
Y5.1 Z-0.503
X-57.9 Z-0.504
Y5.35
G2 X-56.9 Y6.35 Z-0.508 I1 J0
G1 X-55.1 Z-0.512
G2 X-54.1 Y5.35 Z-0.516 I0 J-1
G1 Y2.4 Z-0.523
G2 X-55.1 Y1.4 Z-0.526 I-1 J0
G1 X-76.9 Z-0.577
G2 X-77.9 Y2.4 Z-0.581 I0 J1
G1 Y5.35 Z-0.587
G2 X-76.9 Y6.35 Z-0.591 I1 J0
G1 X-74.1 Z-0.598
G2 X-73.1 Y5.35 Z-0.601 I0 J-1
G1 Y5.1 Z-0.602
X-72.9
Y7.7 Z-0.608
X-73.1 Z-0.609
Y7.45
G2 X-74.1 Y6.45 Z-0.613 I-1 J0
G1 X-76.9 Z-0.619
G2 X-77.9 Y7.45 Z-0.623 I0 J1
G1 Y10.4 Z-0.63
G2 X-77 Y11.395 Z-0.633 I1 J0
G1 Y11.5 Z-0.634
X-78 Z-0.636
G2 X-79 Y12.5 Z-0.639 I0 J1
G1 Y12.726 Z-0.64
G2 X-78.541 Y22.348 Z-0.662 I101 J0
G1 X-76.995 Y38.492 Z-0.7
G2 X-76.973 Y38.626 I0.995 J-0.095
G1 X-76.958 Y38.798 Z-0.701
G2 X-76.947 Y38.885 I0.996 J-0.087
X-75.751 Y40.957 Z-0.707 I3.447 J-0.607
X-40.348 Y33.368 Z-0.803 I14.751 J-17.557
X-40 Y31.846 Z-0.807 I-3.152 J-1.521
G1 Y1 Z-0.879
G2 X-41 Y0 Z-0.882 I-1 J0
G1 X-43.25 Z-0.887
G2 X-44.25 Y1 Z-0.891 I0 J1
G1 Y2.8 Z-0.895
G2 X-43.25 Y3.8 Z-0.899 I1 J0
G1 X-43
Y4 Z-0.9
X-45.6 Z-0.906
Y3.8
X-45.35 Z-0.907
G2 X-44.35 Y2.8 Z-0.911 I0 J-1
G1 Y1 Z-0.915
G2 X-45.35 Y0 Z-0.918 I-1 J0
G1 X-47.6 Z-0.924
G2 X-48.595 Y0.905 Z-0.927 I0 J1
X-49.5 Y1.9 Z-0.93 I0.095 J0.995
G1 Y13.4 Z-0.957
X-55 Z-0.97
Y11.395 Z-0.975
G2 X-54.1 Y10.4 Z-0.978 I-0.1 J-0.995
G1 Y7.45 Z-0.985
G2 X-55.1 Y6.45 Z-0.988 I-1 J0
G1 X-56.9 Z-0.993
G2 X-57.9 Y7.45 Z-0.996 I0 J1
G1 Y7.7 Z-0.997
X-58.1
Y5.1 Z-1.003
X-57.9 Z-1.004
Y5.35
G2 X-56.9 Y6.35 Z-1.008 I1 J0
G1 X-55.1 Z-1.012
G2 X-54.1 Y5.35 Z-1.016 I0 J-1
G1 Y2.4 Z-1.023
G2 X-55.1 Y1.4 Z-1.026 I-1 J0
G1 X-76.9 Z-1.077
G2 X-77.9 Y2.4 Z-1.081 I0 J1
G1 Y5.35 Z-1.087
G2 X-76.9 Y6.35 Z-1.091 I1 J0
G1 X-74.1 Z-1.098
G2 X-73.1 Y5.35 Z-1.101 I0 J-1
G1 Y5.1 Z-1.102
X-72.9
Y7.7 Z-1.108
X-73.1 Z-1.109
Y7.45
G2 X-74.1 Y6.45 Z-1.113 I-1 J0
G1 X-76.9 Z-1.119
G2 X-77.9 Y7.45 Z-1.123 I0 J1
G1 Y10.4 Z-1.13
G2 X-77 Y11.395 Z-1.133 I1 J0
G1 Y11.5 Z-1.134
X-78 Z-1.136
G2 X-79 Y12.5 Z-1.139 I0 J1
G1 Y12.726 Z-1.14
G2 X-78.541 Y22.348 Z-1.162 I101 J0
G1 X-76.995 Y38.492 Z-1.2
G2 X-76.973 Y38.626 I0.995 J-0.095
G1 X-76.958 Y38.798 Z-1.201
G2 X-76.947 Y38.885 I0.996 J-0.087
X-75.751 Y40.957 Z-1.207 I3.447 J-0.607
X-40.348 Y33.368 Z-1.303 I14.751 J-17.557
X-40 Y31.846 Z-1.307 I-3.152 J-1.521
G1 Y1 Z-1.379
G2 X-41 Y0 Z-1.382 I-1 J0
G1 X-43.25 Z-1.387
G2 X-44.25 Y1 Z-1.391 I0 J1
G1 Y2.8 Z-1.395
G2 X-43.25 Y3.8 Z-1.399 I1 J0
G1 X-43
Y4 Z-1.4
X-45.6 Z-1.406
Y3.8
X-45.35 Z-1.407
G2 X-44.35 Y2.8 Z-1.411 I0 J-1
G1 Y1 Z-1.415
G2 X-45.35 Y0 Z-1.418 I-1 J0
G1 X-47.6 Z-1.424
G2 X-48.595 Y0.905 Z-1.427 I0 J1
X-49.5 Y1.9 Z-1.43 I0.095 J0.995
G1 Y13.4 Z-1.457
X-55 Z-1.47
Y11.395 Z-1.475
G2 X-54.1 Y10.4 Z-1.478 I-0.1 J-0.995
G1 Y7.45 Z-1.485
G2 X-55.1 Y6.45 Z-1.488 I-1 J0
G1 X-56.9 Z-1.493
G2 X-57.9 Y7.45 Z-1.496 I0 J1
G1 Y7.7 Z-1.497
X-58.1
Y5.1 Z-1.503
X-57.9 Z-1.504
Y5.35
G2 X-56.9 Y6.35 Z-1.508 I1 J0
G1 X-55.1 Z-1.512
G2 X-54.1 Y5.35 Z-1.516 I0 J-1
G1 Y2.4 Z-1.523
G2 X-55.1 Y1.4 Z-1.526 I-1 J0
G1 X-76.9 Z-1.577
G2 X-77.9 Y2.4 Z-1.581 I0 J1
G1 Y5.35 Z-1.587
G2 X-76.9 Y6.35 Z-1.591 I1 J0
G1 X-74.1 Z-1.598
G2 X-73.1 Y5.35 Z-1.601 I0 J-1
G1 Y5.1 Z-1.602
X-72.9
Y7.7 Z-1.608
X-73.1 Z-1.609
Y7.45
G2 X-74.1 Y6.45 Z-1.613 I-1 J0
G1 X-76.9 Z-1.619
G2 X-77.9 Y7.45 Z-1.623 I0 J1
G1 Y10.4 Z-1.63
G2 X-77 Y11.395 Z-1.633 I1 J0
G1 Y11.5 Z-1.634
X-78 Z-1.636
G2 X-79 Y12.5 Z-1.639 I0 J1
G1 Y12.726 Z-1.64
G2 X-78.541 Y22.348 Z-1.662 I101 J0
G1 X-76.995 Y38.492 Z-1.7
G2 X-76.973 Y38.626 I0.995 J-0.095
G1 X-76.958 Y38.798 Z-1.701
G2 X-76.947 Y38.885 I0.996 J-0.087
X-75.751 Y40.957 Z-1.707 I3.447 J-0.607
X-40.348 Y33.368 Z-1.803 I14.751 J-17.557
X-40 Y31.846 Z-1.807 I-3.152 J-1.521
G1 Y1 Z-1.879
G2 X-41 Y0 Z-1.882 I-1 J0
G1 X-43.25 Z-1.887
G2 X-44.25 Y1 Z-1.891 I0 J1
G1 Y2.8 Z-1.895
G2 X-43.25 Y3.8 Z-1.899 I1 J0
G1 X-43
Y4 Z-1.9
X-45.6 Z-1.906
Y3.8
X-45.35 Z-1.907
G2 X-44.35 Y2.8 Z-1.911 I0 J-1
G1 Y1 Z-1.915
G2 X-45.35 Y0 Z-1.918 I-1 J0
G1 X-47.6 Z-1.924
G2 X-48.595 Y0.905 Z-1.927 I0 J1
X-49.5 Y1.9 Z-1.93 I0.095 J0.995
G1 Y13.4 Z-1.957
X-55 Z-1.97
Y11.395 Z-1.975
G2 X-54.1 Y10.4 Z-1.978 I-0.1 J-0.995
G1 Y7.45 Z-1.985
G2 X-55.1 Y6.45 Z-1.988 I-1 J0
G1 X-56.9 Z-1.993
G2 X-57.9 Y7.45 Z-1.996 I0 J1
G1 Y7.7 Z-1.997
X-58.1
Y5.1 Z-2.003
X-57.9 Z-2.004
Y5.35
G2 X-56.9 Y6.35 Z-2.008 I1 J0
G1 X-55.1 Z-2.012
G2 X-54.1 Y5.35 Z-2.016 I0 J-1
G1 Y2.4 Z-2.023
G2 X-55.1 Y1.4 Z-2.026 I-1 J0
G1 X-76.9 Z-2.077
G2 X-77.9 Y2.4 Z-2.081 I0 J1
G1 Y5.35 Z-2.087
G2 X-76.9 Y6.35 Z-2.091 I1 J0
G1 X-74.1 Z-2.098
G2 X-73.1 Y5.35 Z-2.101 I0 J-1
G1 Y5.1 Z-2.102
X-72.9
Y7.7 Z-2.108
X-73.1 Z-2.109
Y7.45
G2 X-74.1 Y6.45 Z-2.113 I-1 J0
G1 X-76.9 Z-2.119
G2 X-77.9 Y7.45 Z-2.123 I0 J1
G1 Y10.4 Z-2.13
G2 X-77 Y11.395 Z-2.133 I1 J0
G1 Y11.5 Z-2.134
X-78 Z-2.136
G2 X-79 Y12.5 Z-2.139 I0 J1
G1 Y12.726 Z-2.14
G2 X-78.541 Y22.348 Z-2.162 I101 J0
G1 X-76.995 Y38.492 Z-2.2
Y38.5
G2 X-76.973 Y38.626 I0.995 J-0.103
G1 X-76.958 Y38.798
G2 X-76.947 Y38.885 I0.996 J-0.087
X-75.751 Y40.957 I3.447 J-0.607
X-40.348 Y33.368 I14.751 J-17.557
X-40 Y31.846 I-3.152 J-1.521
G1 Y1
G2 X-41 Y0 I-1 J0
G1 X-43.25
G2 X-44.25 Y1 I0 J1
G1 Y2.8
G2 X-43.25 Y3.8 I1 J0
G1 X-43
Y4
X-45.6
Y3.8
X-45.35
G2 X-44.35 Y2.8 I0 J-1
G1 Y1
G2 X-45.35 Y0 I-1 J0
G1 X-47.6
G2 X-48.595 Y0.905 I0 J1
X-49.5 Y1.9 I0.095 J0.995
G1 Y13.4
X-55
Y11.395
G2 X-54.1 Y10.4 I-0.1 J-0.995
G1 Y7.45
G2 X-55.1 Y6.45 I-1 J0
G1 X-56.9
G2 X-57.9 Y7.45 I0 J1
G1 Y7.7
X-58.1
Y5.1
X-57.9
Y5.35
G2 X-56.9 Y6.35 I1 J0
G1 X-55.1
G2 X-54.1 Y5.35 I0 J-1
G1 Y2.4
G2 X-55.1 Y1.4 I-1 J0
G1 X-76.9
G2 X-77.9 Y2.4 I0 J1
G1 Y5.35
G2 X-76.9 Y6.35 I1 J0
G1 X-74.1
G2 X-73.1 Y5.35 I0 J-1
G1 Y5.1
X-72.9
Y7.7
X-73.1
Y7.45
G2 X-74.1 Y6.45 I-1 J0
G1 X-76.9
G2 X-77.9 Y7.45 I0 J1
G1 Y10.4
G2 X-77 Y11.395 I1 J0
G1 Y11.5
X-78
G2 X-79 Y12.5 I0 J1
G1 Y12.726
G2 X-78.541 Y22.348 I101 J0
G1 X-76.995 Y38.492
Y38.5
G0 Z15

M9
M30
