(07 1.6MM DRILL WASTEBOARD)
(T53  D=1.6 CR=0 TAPER=118DEG - ZMIN=-10 - DRILL)
G90 G94 G91.1 G40 G49 G17
G21

(07 1.6MM DRILL WASTEBOARD)
M5
M9
T53
(DIAMOND OR SPIRAL)
S20000 M3
G54
M8
G0 X-30.5 Y137.482
G43 Z15 H1
Z5
G98 G81 X-30.5 Y137.482 Z-10 R5 F100
X-3.5
Y92.482
X-30.5
X-28 Y54.432
X-6
G80
Z15

M9
M30
