(01 2MM FLAT DRILL HOLES)
(T11  D=2 CR=0 - ZMIN=-3.3 - FLAT END MILL)
G90 G94 G91.1 G40 G49 G17
G21

(01 2MM FLAT DRILL HOLES)
M5
M9
T11
(DIAMOND OR SPIRAL)
S20000 M3
G54
M8
G0 X-125.441 Y4
G43 Z12 H1
Z2
G98 G81 X-125.441 Y4 Z-3.3 R1 F100
X-117 Y4.863
X-117.863 Y13.304
X-126.304 Y12.441
X-78.652 Y13.377
X-75.152 Y25.877
X-55.152
X-51.652 Y13.377
X-4 Y12.441
X-12.441 Y13.304
X-13.304 Y4.863
X-4.863 Y4
X-4 Y104.313
X-12.441 Y103.45
X-13.304 Y111.891
X-4.863 Y112.754
X-54.152 Y117.027
X-76.152
Y96.427
X-75.152 Y90.427
Y86.102
X-55.152
Y90.427
X-54.152 Y96.427
X-55.152 Y66.102
X-51.652 Y58.377
X-55.152 Y45.877
X-75.152
X-78.652 Y58.377
X-75.152 Y66.102
X-117.863 Y103.45
X-126.304 Y104.313
X-125.441 Y112.754
X-117 Y111.891
G80
Z12

M9
M30
