(02 2MM FLAT SLOTS)
(T11  D=2 CR=0 - ZMIN=-3.3 - FLAT END MILL)
G90 G94 G91.1 G40 G49 G17
G21

(02 2MM FLAT SLOTS)
M5
M9
T11
(DIAMOND OR SPIRAL)
S20000 M3
G54
M8
G0 X-60.152 Y113.827
G43 Z15 H1
Z2
G1 Z0.5 F500
X-58.152 Z0.327 F1000
X-60.152 Z0.155
X-58.152 Z-0.018
X-60.152 Z-0.191
X-58.152 Z-0.364
X-60.152 Z-0.536
X-58.152 Z-0.709
X-60.152 Z-0.882
X-58.152 Z-1.055
X-60.152 Z-1.227
X-58.152 Z-1.4
X-60.152 Z-1.573
X-58.152 Z-1.745
X-60.152 Z-1.918
X-58.152 Z-2.091
X-60.152 Z-2.264
X-58.152 Z-2.436
X-60.152 Z-2.609
X-58.152 Z-2.782
X-60.152 Z-2.955
X-58.152 Z-3.127
X-60.152 Z-3.3
X-58.152
G0 Z5
X-72.152
Z2
G1 Z0.5 F500
X-70.152 Z0.327 F1000
X-72.152 Z0.155
X-70.152 Z-0.018
X-72.152 Z-0.191
X-70.152 Z-0.364
X-72.152 Z-0.536
X-70.152 Z-0.709
X-72.152 Z-0.882
X-70.152 Z-1.055
X-72.152 Z-1.227
X-70.152 Z-1.4
X-72.152 Z-1.573
X-70.152 Z-1.745
X-72.152 Z-1.918
X-70.152 Z-2.091
X-72.152 Z-2.264
X-70.152 Z-2.436
X-72.152 Z-2.609
X-70.152 Z-2.782
X-72.152 Z-2.955
X-70.152 Z-3.127
X-72.152 Z-3.3
X-70.152
G0 Z15

M9
M30
