(03 2MM FLAT INNER CONTOURS)
(T11  D=2 CR=0 - ZMIN=-3.3 - FLAT END MILL)
G90 G94 G91.1 G40 G49 G17
G21

(03 2MM FLAT INNER CONTOURS)
M5
M9
T11
(DIAMOND OR SPIRAL)
S20000 M3
G54
M8
G0 X-56.006 Y59.317
G43 Z15 H1
Z2
G1 Z0.1 F100
G3 X-56.125 Y60.588 Z0.085 I-0.826 J0.564 F1000
G1 X-64.445 Y68.908 Z-0.042
G3 X-65.859 Z-0.058 I-0.707 J-0.707
G1 X-74.18 Y60.588 Z-0.185
G3 X-73.472 Y58.881 Z-0.21 I0.707 J-0.707
G1 X-56.832 Z-0.39
G3 X-56.125 Y60.588 Z-0.415 I0 J1
G1 X-64.445 Y68.908 Z-0.542
G3 X-65.859 Z-0.558 I-0.707 J-0.707
G1 X-74.18 Y60.588 Z-0.685
G3 X-73.472 Y58.881 Z-0.71 I0.707 J-0.707
G1 X-56.832 Z-0.89
G3 X-56.125 Y60.588 Z-0.915 I0 J1
G1 X-64.445 Y68.908 Z-1.042
G3 X-65.859 Z-1.058 I-0.707 J-0.707
G1 X-74.18 Y60.588 Z-1.185
G3 X-73.472 Y58.881 Z-1.21 I0.707 J-0.707
G1 X-56.832 Z-1.39
G3 X-56.125 Y60.588 Z-1.415 I0 J1
G1 X-64.445 Y68.908 Z-1.542
G3 X-65.859 Z-1.558 I-0.707 J-0.707
G1 X-74.18 Y60.588 Z-1.685
G3 X-73.472 Y58.881 Z-1.71 I0.707 J-0.707
G1 X-56.832 Z-1.89
G3 X-56.125 Y60.588 Z-1.915 I0 J1
G1 X-64.445 Y68.908 Z-2.042
G3 X-65.859 Z-2.058 I-0.707 J-0.707
G1 X-74.18 Y60.588 Z-2.185
G3 X-73.472 Y58.881 Z-2.21 I0.707 J-0.707
G1 X-56.832 Z-2.39
G3 X-56.125 Y60.588 Z-2.415 I0 J1
G1 X-64.445 Y68.908 Z-2.542
G3 X-65.859 Z-2.558 I-0.707 J-0.707
G1 X-74.18 Y60.588 Z-2.685
G3 X-73.472 Y58.881 Z-2.71 I0.707 J-0.707
G1 X-56.832 Z-2.89
G3 X-56.125 Y60.588 Z-2.915 I0 J1
G1 X-64.445 Y68.908 Z-3.042
G3 X-65.859 Z-3.058 I-0.707 J-0.707
G1 X-74.18 Y60.588 Z-3.185
G3 X-73.472 Y58.881 Z-3.21 I0.707 J-0.707
G1 X-65.152 Z-3.3
X-56.832
G3 X-56.125 Y60.588 I0 J1
G1 X-64.445 Y68.908
G3 X-65.859 I-0.707 J-0.707
G1 X-74.18 Y60.588
G3 X-73.472 Y58.881 I0.707 J-0.707
G1 X-65.152
G0 Z5
X-61.423 Y46.093
Z2
G1 Z0.1 F100
X-56.125 Y51.391 Z0.019 F1000
G3 X-56.832 Y53.098 Z-0.006 I-0.707 J0.707
G1 X-73.472 Z-0.185
G3 X-74.18 Y51.391 Z-0.21 I0 J-1
G1 X-65.859 Y43.071 Z-0.337
G3 X-64.445 Z-0.354 I0.707 J0.707
G1 X-56.125 Y51.391 Z-0.481
G3 X-56.832 Y53.098 Z-0.506 I-0.707 J0.707
G1 X-73.472 Z-0.685
G3 X-74.18 Y51.391 Z-0.71 I0 J-1
G1 X-65.859 Y43.071 Z-0.837
G3 X-64.445 Z-0.854 I0.707 J0.707
G1 X-56.125 Y51.391 Z-0.981
G3 X-56.832 Y53.098 Z-1.006 I-0.707 J0.707
G1 X-73.472 Z-1.185
G3 X-74.18 Y51.391 Z-1.21 I0 J-1
G1 X-65.859 Y43.071 Z-1.337
G3 X-64.445 Z-1.354 I0.707 J0.707
G1 X-56.125 Y51.391 Z-1.481
G3 X-56.832 Y53.098 Z-1.506 I-0.707 J0.707
G1 X-73.472 Z-1.685
G3 X-74.18 Y51.391 Z-1.71 I0 J-1
G1 X-65.859 Y43.071 Z-1.837
G3 X-64.445 Z-1.854 I0.707 J0.707
G1 X-56.125 Y51.391 Z-1.981
G3 X-56.832 Y53.098 Z-2.006 I-0.707 J0.707
G1 X-73.472 Z-2.185
G3 X-74.18 Y51.391 Z-2.21 I0 J-1
G1 X-65.859 Y43.071 Z-2.337
G3 X-64.445 Z-2.354 I0.707 J0.707
G1 X-56.125 Y51.391 Z-2.481
G3 X-56.832 Y53.098 Z-2.506 I-0.707 J0.707
G1 X-73.472 Z-2.685
G3 X-74.18 Y51.391 Z-2.71 I0 J-1
G1 X-65.859 Y43.071 Z-2.837
G3 X-64.445 Z-2.854 I0.707 J0.707
G1 X-56.125 Y51.391 Z-2.981
G3 X-56.832 Y53.098 Z-3.006 I-0.707 J0.707
G1 X-73.472 Z-3.185
G3 X-74.18 Y51.391 Z-3.21 I0 J-1
G1 X-68.296 Y45.508 Z-3.3
X-65.859 Y43.071
G3 X-64.445 I0.707 J0.707
G1 X-56.125 Y51.391
G3 X-56.832 Y53.098 I-0.707 J0.707
G1 X-73.472
G3 X-74.18 Y51.391 I0 J-1
G1 X-68.296 Y45.508
G0 Z5
X-69.783 Y37.922
Z2
G1 Z0.1 F100
X-72.445 Y40.584 Z0.026 F1000
G3 X-74.152 Y39.877 Z-0.02 I-0.707 J-0.707
G1 Y31.877 Z-0.176
G3 X-72.445 Y31.17 Z-0.222 I1 J0
G1 X-68.445 Y35.17 Z-0.332
G3 Y36.584 Z-0.363 I-0.707 J0.707
G1 X-72.445 Y40.584 Z-0.474
G3 X-74.152 Y39.877 Z-0.52 I-0.707 J-0.707
G1 Y31.877 Z-0.676
G3 X-72.445 Y31.17 Z-0.722 I1 J0
G1 X-68.445 Y35.17 Z-0.832
G3 Y36.584 Z-0.863 I-0.707 J0.707
G1 X-72.445 Y40.584 Z-0.974
G3 X-74.152 Y39.877 Z-1.02 I-0.707 J-0.707
G1 Y31.877 Z-1.176
G3 X-72.445 Y31.17 Z-1.222 I1 J0
G1 X-68.445 Y35.17 Z-1.332
G3 Y36.584 Z-1.363 I-0.707 J0.707
G1 X-72.445 Y40.584 Z-1.474
G3 X-74.152 Y39.877 Z-1.52 I-0.707 J-0.707
G1 Y31.877 Z-1.676
G3 X-72.445 Y31.17 Z-1.722 I1 J0
G1 X-68.445 Y35.17 Z-1.832
G3 Y36.584 Z-1.863 I-0.707 J0.707
G1 X-72.445 Y40.584 Z-1.974
G3 X-74.152 Y39.877 Z-2.02 I-0.707 J-0.707
G1 Y31.877 Z-2.176
G3 X-72.445 Y31.17 Z-2.222 I1 J0
G1 X-68.445 Y35.17 Z-2.332
G3 Y36.584 Z-2.363 I-0.707 J0.707
G1 X-72.445 Y40.584 Z-2.474
G3 X-74.152 Y39.877 Z-2.52 I-0.707 J-0.707
G1 Y31.877 Z-2.676
G3 X-72.445 Y31.17 Z-2.722 I1 J0
G1 X-68.445 Y35.17 Z-2.832
G3 Y36.584 Z-2.863 I-0.707 J0.707
G1 X-72.445 Y40.584 Z-2.974
G3 X-74.152 Y39.877 Z-3.02 I-0.707 J-0.707
G1 Y31.877 Z-3.176
G3 X-72.445 Y31.17 Z-3.222 I1 J0
G1 X-69.617 Y33.998 Z-3.3
X-68.445 Y35.17
G3 Y36.584 I-0.707 J0.707
G1 X-72.445 Y40.584
G3 X-74.152 Y39.877 I-0.707 J-0.707
G1 Y31.877
G3 X-72.445 Y31.17 I1 J0
G1 X-69.617 Y33.998
G0 Z5
X-75.254 Y18.781
Z2
G1 Z0.1 F100
G3 X-74.221 Y17.871 Z0.085 I0.996 J0.09 F1000
G2 X-56.084 Z-0.096 I9.069 J-245.104
G3 X-55.34 Y19.578 Z-0.119 I0.037 J0.999
G1 X-64.445 Y28.683 Z-0.248
G3 X-65.859 Z-0.263 I-0.707 J-0.707
G1 X-74.965 Y19.578 Z-0.391
G3 X-74.221 Y17.871 Z-0.415 I0.707 J-0.707
G2 X-56.084 Z-0.596 I9.069 J-245.104
G3 X-55.34 Y19.578 Z-0.619 I0.037 J0.999
G1 X-64.445 Y28.683 Z-0.748
G3 X-65.859 Z-0.763 I-0.707 J-0.707
G1 X-74.965 Y19.578 Z-0.891
G3 X-74.221 Y17.871 Z-0.915 I0.707 J-0.707
G2 X-56.084 Z-1.096 I9.069 J-245.104
G3 X-55.34 Y19.578 Z-1.119 I0.037 J0.999
G1 X-64.445 Y28.683 Z-1.248
G3 X-65.859 Z-1.263 I-0.707 J-0.707
G1 X-74.965 Y19.578 Z-1.391
G3 X-74.221 Y17.871 Z-1.415 I0.707 J-0.707
G2 X-56.084 Z-1.596 I9.069 J-245.104
G3 X-55.34 Y19.578 Z-1.619 I0.037 J0.999
G1 X-64.445 Y28.683 Z-1.748
G3 X-65.859 Z-1.763 I-0.707 J-0.707
G1 X-74.965 Y19.578 Z-1.891
G3 X-74.221 Y17.871 Z-1.915 I0.707 J-0.707
G2 X-56.084 Z-2.096 I9.069 J-245.104
G3 X-55.34 Y19.578 Z-2.119 I0.037 J0.999
G1 X-64.445 Y28.683 Z-2.248
G3 X-65.859 Z-2.263 I-0.707 J-0.707
G1 X-74.965 Y19.578 Z-2.391
G3 X-74.221 Y17.871 Z-2.415 I0.707 J-0.707
G2 X-56.084 Z-2.596 I9.069 J-245.104
G3 X-55.34 Y19.578 Z-2.619 I0.037 J0.999
G1 X-64.445 Y28.683 Z-2.748
G3 X-65.859 Z-2.763 I-0.707 J-0.707
G1 X-74.965 Y19.578 Z-2.891
G3 X-74.221 Y17.871 Z-2.915 I0.707 J-0.707
G2 X-56.084 Z-3.096 I9.069 J-245.104
G3 X-55.34 Y19.578 Z-3.119 I0.037 J0.999
G1 X-64.445 Y28.683 Z-3.248
G3 X-65.859 Z-3.263 I-0.707 J-0.707
G1 X-68.477 Y26.066 Z-3.3
X-74.965 Y19.578
G3 X-74.221 Y17.871 I0.707 J-0.707
G2 X-56.084 I9.069 J-245.104
G3 X-55.34 Y19.578 I0.037 J0.999
G1 X-64.445 Y28.683
G3 X-65.859 I-0.707 J-0.707
G1 X-68.477 Y26.066
G0 Z5
X-56.716 Y40.777
Z2
G1 Z0.1 F100
G3 X-57.859 Y40.584 Z0.076 I-0.436 J-0.9 F1000
G1 X-61.859 Y36.584 Z-0.035
G3 Y35.17 Z-0.065 I0.707 J-0.707
G1 X-57.859 Y31.17 Z-0.176
G3 X-56.152 Y31.877 Z-0.222 I0.707 J0.707
G1 Y39.877 Z-0.378
G3 X-57.859 Y40.584 Z-0.424 I-1 J0
G1 X-61.859 Y36.584 Z-0.535
G3 Y35.17 Z-0.565 I0.707 J-0.707
G1 X-57.859 Y31.17 Z-0.676
G3 X-56.152 Y31.877 Z-0.722 I0.707 J0.707
G1 Y39.877 Z-0.878
G3 X-57.859 Y40.584 Z-0.924 I-1 J0
G1 X-61.859 Y36.584 Z-1.035
G3 Y35.17 Z-1.065 I0.707 J-0.707
G1 X-57.859 Y31.17 Z-1.176
G3 X-56.152 Y31.877 Z-1.222 I0.707 J0.707
G1 Y39.877 Z-1.378
G3 X-57.859 Y40.584 Z-1.424 I-1 J0
G1 X-61.859 Y36.584 Z-1.535
G3 Y35.17 Z-1.565 I0.707 J-0.707
G1 X-57.859 Y31.17 Z-1.676
G3 X-56.152 Y31.877 Z-1.722 I0.707 J0.707
G1 Y39.877 Z-1.878
G3 X-57.859 Y40.584 Z-1.924 I-1 J0
G1 X-61.859 Y36.584 Z-2.035
G3 Y35.17 Z-2.065 I0.707 J-0.707
G1 X-57.859 Y31.17 Z-2.176
G3 X-56.152 Y31.877 Z-2.222 I0.707 J0.707
G1 Y39.877 Z-2.378
G3 X-57.859 Y40.584 Z-2.424 I-1 J0
G1 X-61.859 Y36.584 Z-2.535
G3 Y35.17 Z-2.565 I0.707 J-0.707
G1 X-57.859 Y31.17 Z-2.676
G3 X-56.152 Y31.877 Z-2.722 I0.707 J0.707
G1 Y39.877 Z-2.878
G3 X-57.859 Y40.584 Z-2.924 I-1 J0
G1 X-61.859 Y36.584 Z-3.035
G3 Y35.17 Z-3.065 I0.707 J-0.707
G1 X-57.859 Y31.17 Z-3.176
G3 X-56.152 Y31.877 Z-3.222 I0.707 J0.707
G1 Y35.877 Z-3.3
Y39.877
G3 X-57.859 Y40.584 I-1 J0
G1 X-61.859 Y36.584
G3 Y35.17 I0.707 J-0.707
G1 X-57.859 Y31.17
G3 X-56.152 Y31.877 I0.707 J0.707
G1 Y35.877
G0 Z5
X-17.775 Y13.679
Z2
G1 Z0.1 F100
X-17.621 Y13.662 Z0.099 F1000
G3 X-17.213 Y14.412 Z0.094 I0.05 J0.459
G1 X-46.377 Y50.219 Z-0.116
G3 X-48.152 Y49.588 Z-0.127 I-0.775 J-0.632
G1 Y25.082 Z-0.238
G3 X-40.135 Y16.136 Z-0.298 I9 J0
G1 X-17.621 Y13.662 Z-0.401
G3 X-17.213 Y14.412 Z-0.406 I0.05 J0.459
G1 X-46.377 Y50.219 Z-0.616
G3 X-48.152 Y49.588 Z-0.627 I-0.775 J-0.632
G1 Y25.082 Z-0.738
G3 X-40.135 Y16.136 Z-0.798 I9 J0
G1 X-17.621 Y13.662 Z-0.901
G3 X-17.213 Y14.412 Z-0.906 I0.05 J0.459
G1 X-46.377 Y50.219 Z-1.116
G3 X-48.152 Y49.588 Z-1.127 I-0.775 J-0.632
G1 Y25.082 Z-1.238
G3 X-40.135 Y16.136 Z-1.298 I9 J0
G1 X-17.621 Y13.662 Z-1.401
G3 X-17.213 Y14.412 Z-1.406 I0.05 J0.459
G1 X-46.377 Y50.219 Z-1.616
G3 X-48.152 Y49.588 Z-1.627 I-0.775 J-0.632
G1 Y25.082 Z-1.738
G3 X-40.135 Y16.136 Z-1.798 I9 J0
G1 X-17.621 Y13.662 Z-1.901
G3 X-17.213 Y14.412 Z-1.906 I0.05 J0.459
G1 X-46.377 Y50.219 Z-2.116
G3 X-48.152 Y49.588 Z-2.127 I-0.775 J-0.632
G1 Y25.082 Z-2.238
G3 X-40.135 Y16.136 Z-2.298 I9 J0
G1 X-17.621 Y13.662 Z-2.401
G3 X-17.213 Y14.412 Z-2.406 I0.05 J0.459
G1 X-46.377 Y50.219 Z-2.616
G3 X-48.152 Y49.588 Z-2.627 I-0.775 J-0.632
G1 Y25.082 Z-2.738
G3 X-40.135 Y16.136 Z-2.798 I9 J0
G1 X-17.621 Y13.662 Z-2.901
G3 X-17.213 Y14.412 Z-2.906 I0.05 J0.459
G1 X-46.377 Y50.219 Z-3.116
G3 X-48.152 Y49.588 Z-3.127 I-0.775 J-0.632
G1 Y25.082 Z-3.238
G3 X-40.135 Y16.136 Z-3.298 I9 J0
G1 X-39.651 Y16.083 Z-3.3
X-17.621 Y13.662
G3 X-17.213 Y14.412 I0.05 J0.459
G1 X-46.377 Y50.219
G3 X-48.152 Y49.588 I-0.775 J-0.632
G1 Y25.082
G3 X-40.135 Y16.136 I9 J0
G1 X-39.651 Y16.083
G0 Z5
X-63.332 Y9.039
Z2
G1 Z0.1 F100
X-61.052 Z0.047 F1000
Y12.159 Z-0.026
X-68.278 Z-0.194
X-69.252 Y11.185 Z-0.226
Y10.013 Z-0.253
X-68.278 Y9.039 Z-0.285
X-61.052 Z-0.453
Y12.159 Z-0.526
X-68.278 Z-0.694
X-69.252 Y11.185 Z-0.726
Y10.013 Z-0.753
X-68.278 Y9.039 Z-0.785
X-61.052 Z-0.953
Y12.159 Z-1.026
X-68.278 Z-1.194
X-69.252 Y11.185 Z-1.226
Y10.013 Z-1.253
X-68.278 Y9.039 Z-1.285
X-61.052 Z-1.453
Y12.159 Z-1.526
X-68.278 Z-1.694
X-69.252 Y11.185 Z-1.726
Y10.013 Z-1.753
X-68.278 Y9.039 Z-1.785
X-61.052 Z-1.953
Y12.159 Z-2.026
X-68.278 Z-2.194
X-69.252 Y11.185 Z-2.226
Y10.013 Z-2.253
X-68.278 Y9.039 Z-2.285
X-61.052 Z-2.453
Y12.159 Z-2.526
X-68.278 Z-2.694
X-69.252 Y11.185 Z-2.726
Y10.013 Z-2.753
X-68.278 Y9.039 Z-2.785
X-61.052 Z-2.953
Y12.159 Z-3.026
X-68.278 Z-3.194
X-69.252 Y11.185 Z-3.226
Y10.013 Z-3.253
X-68.278 Y9.039 Z-3.285
X-67.632 Z-3.3
X-61.052
Y12.159
X-68.278
X-69.252 Y11.185
Y10.013
X-68.278 Y9.039
X-67.632
G0 Z5
X-112.994 Y14.532
Z2
G1 Z0.1 F100
X-113.092 Y14.412 Z0.099 F1000
G3 X-112.683 Y13.662 Z0.094 I0.358 J-0.292
G1 X-90.169 Y16.136 Z-0.009
G3 X-82.152 Y25.082 Z-0.068 I-0.983 J8.946
G1 Y49.588 Z-0.18
G3 X-83.928 Y50.219 Z-0.191 I-1 J0
G1 X-113.092 Y14.412 Z-0.401
G3 X-112.683 Y13.662 Z-0.406 I0.358 J-0.292
G1 X-90.169 Y16.136 Z-0.509
G3 X-82.152 Y25.082 Z-0.568 I-0.983 J8.946
G1 Y49.588 Z-0.68
G3 X-83.928 Y50.219 Z-0.691 I-1 J0
G1 X-113.092 Y14.412 Z-0.901
G3 X-112.683 Y13.662 Z-0.906 I0.358 J-0.292
G1 X-90.169 Y16.136 Z-1.009
G3 X-82.152 Y25.082 Z-1.068 I-0.983 J8.946
G1 Y49.588 Z-1.18
G3 X-83.928 Y50.219 Z-1.191 I-1 J0
G1 X-113.092 Y14.412 Z-1.401
G3 X-112.683 Y13.662 Z-1.406 I0.358 J-0.292
G1 X-90.169 Y16.136 Z-1.509
G3 X-82.152 Y25.082 Z-1.568 I-0.983 J8.946
G1 Y49.588 Z-1.68
G3 X-83.928 Y50.219 Z-1.691 I-1 J0
G1 X-113.092 Y14.412 Z-1.901
G3 X-112.683 Y13.662 Z-1.906 I0.358 J-0.292
G1 X-90.169 Y16.136 Z-2.009
G3 X-82.152 Y25.082 Z-2.068 I-0.983 J8.946
G1 Y49.588 Z-2.18
G3 X-83.928 Y50.219 Z-2.191 I-1 J0
G1 X-113.092 Y14.412 Z-2.401
G3 X-112.683 Y13.662 Z-2.406 I0.358 J-0.292
G1 X-90.169 Y16.136 Z-2.509
G3 X-82.152 Y25.082 Z-2.568 I-0.983 J8.946
G1 Y49.588 Z-2.68
G3 X-83.928 Y50.219 Z-2.691 I-1 J0
G1 X-113.092 Y14.412 Z-2.901
G3 X-112.683 Y13.662 Z-2.906 I0.358 J-0.292
G1 X-90.169 Y16.136 Z-3.009
G3 X-82.152 Y25.082 Z-3.068 I-0.983 J8.946
G1 Y49.588 Z-3.18
G3 X-83.928 Y50.219 Z-3.191 I-1 J0
G1 X-99.096 Y31.596 Z-3.3
X-113.092 Y14.412
G3 X-112.683 Y13.662 I0.358 J-0.292
G1 X-90.169 Y16.136
G3 X-82.152 Y25.082 I-0.983 J8.946
G1 Y49.588
G3 X-83.928 Y50.219 I-1 J0
G1 X-99.096 Y31.596
G0 Z5
X-122.879 Y7.789
Z2
G1 Z0.1 F100
G3 X-120.425 Y9.515 Z-0.15 I1.227 J0.863 F1000
X-122.879 Y7.789 Z-0.4 I-1.227 J-0.863
X-120.425 Y9.515 Z-0.65 I1.227 J0.863
X-122.879 Y7.789 Z-0.9 I-1.227 J-0.863
X-120.425 Y9.515 Z-1.15 I1.227 J0.863
X-122.879 Y7.789 Z-1.4 I-1.227 J-0.863
X-120.425 Y9.515 Z-1.65 I1.227 J0.863
X-122.879 Y7.789 Z-1.9 I-1.227 J-0.863
X-120.425 Y9.515 Z-2.15 I1.227 J0.863
X-122.879 Y7.789 Z-2.4 I-1.227 J-0.863
X-120.425 Y9.515 Z-2.65 I1.227 J0.863
X-122.879 Y7.789 Z-2.9 I-1.227 J-0.863
X-120.425 Y9.515 Z-3.15 I1.227 J0.863
X-122.852 Y9.552 Z-3.3 I-1.227 J-0.863
X-120.452 Y7.752 I1.2 J-0.9
X-122.852 Y9.552 I-1.2 J0.9
G0 Z5
X-103.354 Y100.474
Z2
G1 Z0.1 F100
X-109.052 Y101.581 Z0.072 F1000
G3 X-110.501 Y99.161 Z0.054 I-0.286 J-1.473
G1 X-83.928 Y66.535 Z-0.152
G3 X-82.152 Y67.167 Z-0.164 I0.775 J0.632
G1 Y88.937 Z-0.27
G3 X-89.437 Y97.772 Z-0.331 I-9 J0
G1 X-109.052 Y101.581 Z-0.428
G3 X-110.501 Y99.161 Z-0.446 I-0.286 J-1.473
G1 X-83.928 Y66.535 Z-0.652
G3 X-82.152 Y67.167 Z-0.664 I0.775 J0.632
G1 Y88.937 Z-0.77
G3 X-89.437 Y97.772 Z-0.831 I-9 J0
G1 X-109.052 Y101.581 Z-0.928
G3 X-110.501 Y99.161 Z-0.946 I-0.286 J-1.473
G1 X-83.928 Y66.535 Z-1.152
G3 X-82.152 Y67.167 Z-1.164 I0.775 J0.632
G1 Y88.937 Z-1.27
G3 X-89.437 Y97.772 Z-1.331 I-9 J0
G1 X-109.052 Y101.581 Z-1.428
G3 X-110.501 Y99.161 Z-1.446 I-0.286 J-1.473
G1 X-83.928 Y66.535 Z-1.652
G3 X-82.152 Y67.167 Z-1.664 I0.775 J0.632
G1 Y88.937 Z-1.77
G3 X-89.437 Y97.772 Z-1.831 I-9 J0
G1 X-109.052 Y101.581 Z-1.928
G3 X-110.501 Y99.161 Z-1.946 I-0.286 J-1.473
G1 X-83.928 Y66.535 Z-2.152
G3 X-82.152 Y67.167 Z-2.164 I0.775 J0.632
G1 Y88.937 Z-2.27
G3 X-89.437 Y97.772 Z-2.331 I-9 J0
G1 X-109.052 Y101.581 Z-2.428
G3 X-110.501 Y99.161 Z-2.446 I-0.286 J-1.473
G1 X-83.928 Y66.535 Z-2.652
G3 X-82.152 Y67.167 Z-2.664 I0.775 J0.632
G1 Y88.937 Z-2.77
G3 X-89.437 Y97.772 Z-2.831 I-9 J0
G1 X-109.052 Y101.581 Z-2.928
G3 X-110.501 Y99.161 Z-2.946 I-0.286 J-1.473
G1 X-83.928 Y66.535 Z-3.152
G3 X-82.152 Y67.167 Z-3.164 I0.775 J0.632
G1 Y88.937 Z-3.27
G3 X-84.151 Y94.592 Z-3.3 I-9 J0
X-89.437 Y97.772 I-7.001 J-5.655
G1 X-109.052 Y101.581
G3 X-110.501 Y99.161 I-0.286 J-1.473
G1 X-83.928 Y66.535
G3 X-82.152 Y67.167 I0.775 J0.632
G1 Y88.937
G3 X-84.151 Y94.592 I-9 J0
G0 Z5
X-64.502 Y93.977
Z2
G1 Z0.1 F100
X-67.902 Z-0.031 F1000
Y92.977 Z-0.069
X-62.402 Z-0.281
Y93.977 Z-0.319
X-67.902 Z-0.531
Y92.977 Z-0.569
X-62.402 Z-0.781
Y93.977 Z-0.819
X-67.902 Z-1.031
Y92.977 Z-1.069
X-62.402 Z-1.281
Y93.977 Z-1.319
X-67.902 Z-1.531
Y92.977 Z-1.569
X-62.402 Z-1.781
Y93.977 Z-1.819
X-67.902 Z-2.031
Y92.977 Z-2.069
X-62.402 Z-2.281
Y93.977 Z-2.319
X-67.902 Z-2.531
Y92.977 Z-2.569
X-62.402 Z-2.781
Y93.977 Z-2.819
X-67.902 Z-3.031
Y92.977 Z-3.069
X-62.402 Z-3.281
Y93.477 Z-3.3
Y93.977
X-67.902
Y92.977
X-62.402
Y93.477
G0 Z5
X-63.546 Y84.195
Z2
G1 Z0.1 F100
X-61.571 Y86.17 Z0.031 F1000
G3 X-62.278 Y87.877 Z-0.028 I-0.707 J0.707
G1 X-68.026 Z-0.17
G3 X-68.733 Y86.17 Z-0.229 I0 J-1
G1 X-65.859 Y83.296 Z-0.33
G3 X-64.445 Z-0.368 I0.707 J0.707
G1 X-61.571 Y86.17 Z-0.469
G3 X-62.278 Y87.877 Z-0.528 I-0.707 J0.707
G1 X-68.026 Z-0.67
G3 X-68.733 Y86.17 Z-0.729 I0 J-1
G1 X-65.859 Y83.296 Z-0.83
G3 X-64.445 Z-0.868 I0.707 J0.707
G1 X-61.571 Y86.17 Z-0.969
G3 X-62.278 Y87.877 Z-1.028 I-0.707 J0.707
G1 X-68.026 Z-1.17
G3 X-68.733 Y86.17 Z-1.229 I0 J-1
G1 X-65.859 Y83.296 Z-1.33
G3 X-64.445 Z-1.368 I0.707 J0.707
G1 X-61.571 Y86.17 Z-1.469
G3 X-62.278 Y87.877 Z-1.528 I-0.707 J0.707
G1 X-68.026 Z-1.67
G3 X-68.733 Y86.17 Z-1.729 I0 J-1
G1 X-65.859 Y83.296 Z-1.83
G3 X-64.445 Z-1.868 I0.707 J0.707
G1 X-61.571 Y86.17 Z-1.969
G3 X-62.278 Y87.877 Z-2.028 I-0.707 J0.707
G1 X-68.026 Z-2.17
G3 X-68.733 Y86.17 Z-2.229 I0 J-1
G1 X-65.859 Y83.296 Z-2.33
G3 X-64.445 Z-2.368 I0.707 J0.707
G1 X-61.571 Y86.17 Z-2.469
G3 X-62.278 Y87.877 Z-2.528 I-0.707 J0.707
G1 X-68.026 Z-2.67
G3 X-68.733 Y86.17 Z-2.729 I0 J-1
G1 X-65.859 Y83.296 Z-2.83
G3 X-64.445 Z-2.868 I0.707 J0.707
G1 X-61.571 Y86.17 Z-2.969
G3 X-62.278 Y87.877 Z-3.028 I-0.707 J0.707
G1 X-68.026 Z-3.17
G3 X-68.733 Y86.17 Z-3.229 I0 J-1
G1 X-66.701 Y84.138 Z-3.3
X-65.859 Y83.296
G3 X-64.445 I0.707 J0.707
G1 X-61.571 Y86.17
G3 X-62.278 Y87.877 I-0.707 J0.707
G1 X-68.026
G3 X-68.733 Y86.17 I0 J-1
G1 X-66.701 Y84.138
G0 Z5
X-73.588 Y71.202
Z2
G1 Z0.1 F100
G3 X-72.445 Y71.395 Z0.076 I0.436 J0.9 F1000
G1 X-68.445 Y75.395 Z-0.035
G3 Y76.809 Z-0.065 I-0.707 J0.707
G1 X-72.445 Y80.809 Z-0.176
G3 X-74.152 Y80.102 Z-0.222 I-0.707 J-0.707
G1 Y72.102 Z-0.378
G3 X-72.445 Y71.395 Z-0.424 I1 J0
G1 X-68.445 Y75.395 Z-0.535
G3 Y76.809 Z-0.565 I-0.707 J0.707
G1 X-72.445 Y80.809 Z-0.676
G3 X-74.152 Y80.102 Z-0.722 I-0.707 J-0.707
G1 Y72.102 Z-0.878
G3 X-72.445 Y71.395 Z-0.924 I1 J0
G1 X-68.445 Y75.395 Z-1.035
G3 Y76.809 Z-1.065 I-0.707 J0.707
G1 X-72.445 Y80.809 Z-1.176
G3 X-74.152 Y80.102 Z-1.222 I-0.707 J-0.707
G1 Y72.102 Z-1.378
G3 X-72.445 Y71.395 Z-1.424 I1 J0
G1 X-68.445 Y75.395 Z-1.535
G3 Y76.809 Z-1.565 I-0.707 J0.707
G1 X-72.445 Y80.809 Z-1.676
G3 X-74.152 Y80.102 Z-1.722 I-0.707 J-0.707
G1 Y72.102 Z-1.878
G3 X-72.445 Y71.395 Z-1.924 I1 J0
G1 X-68.445 Y75.395 Z-2.035
G3 Y76.809 Z-2.065 I-0.707 J0.707
G1 X-72.445 Y80.809 Z-2.176
G3 X-74.152 Y80.102 Z-2.222 I-0.707 J-0.707
G1 Y72.102 Z-2.378
G3 X-72.445 Y71.395 Z-2.424 I1 J0
G1 X-68.445 Y75.395 Z-2.535
G3 Y76.809 Z-2.565 I-0.707 J0.707
G1 X-72.445 Y80.809 Z-2.676
G3 X-74.152 Y80.102 Z-2.722 I-0.707 J-0.707
G1 Y72.102 Z-2.878
G3 X-72.445 Y71.395 Z-2.924 I1 J0
G1 X-68.445 Y75.395 Z-3.035
G3 Y76.809 Z-3.065 I-0.707 J0.707
G1 X-72.445 Y80.809 Z-3.176
G3 X-74.152 Y80.102 Z-3.222 I-0.707 J-0.707
G1 Y76.102 Z-3.3
Y72.102
G3 X-72.445 Y71.395 I1 J0
G1 X-68.445 Y75.395
G3 Y76.809 I-0.707 J0.707
G1 X-72.445 Y80.809
G3 X-74.152 Y80.102 I-0.707 J-0.707
G1 Y76.102
G0 Z5
X-56.716 Y81.002
Z2
G1 Z0.1 F100
G3 X-57.859 Y80.809 Z0.076 I-0.436 J-0.9 F1000
G1 X-61.859 Y76.809 Z-0.035
G3 Y75.395 Z-0.065 I0.707 J-0.707
G1 X-57.859 Y71.395 Z-0.176
G3 X-56.152 Y72.102 Z-0.222 I0.707 J0.707
G1 Y80.102 Z-0.378
G3 X-57.859 Y80.809 Z-0.424 I-1 J0
G1 X-61.859 Y76.809 Z-0.535
G3 Y75.395 Z-0.565 I0.707 J-0.707
G1 X-57.859 Y71.395 Z-0.676
G3 X-56.152 Y72.102 Z-0.722 I0.707 J0.707
G1 Y80.102 Z-0.878
G3 X-57.859 Y80.809 Z-0.924 I-1 J0
G1 X-61.859 Y76.809 Z-1.035
G3 Y75.395 Z-1.065 I0.707 J-0.707
G1 X-57.859 Y71.395 Z-1.176
G3 X-56.152 Y72.102 Z-1.222 I0.707 J0.707
G1 Y80.102 Z-1.378
G3 X-57.859 Y80.809 Z-1.424 I-1 J0
G1 X-61.859 Y76.809 Z-1.535
G3 Y75.395 Z-1.565 I0.707 J-0.707
G1 X-57.859 Y71.395 Z-1.676
G3 X-56.152 Y72.102 Z-1.722 I0.707 J0.707
G1 Y80.102 Z-1.878
G3 X-57.859 Y80.809 Z-1.924 I-1 J0
G1 X-61.859 Y76.809 Z-2.035
G3 Y75.395 Z-2.065 I0.707 J-0.707
G1 X-57.859 Y71.395 Z-2.176
G3 X-56.152 Y72.102 Z-2.222 I0.707 J0.707
G1 Y80.102 Z-2.378
G3 X-57.859 Y80.809 Z-2.424 I-1 J0
G1 X-61.859 Y76.809 Z-2.535
G3 Y75.395 Z-2.565 I0.707 J-0.707
G1 X-57.859 Y71.395 Z-2.676
G3 X-56.152 Y72.102 Z-2.722 I0.707 J0.707
G1 Y80.102 Z-2.878
G3 X-57.859 Y80.809 Z-2.924 I-1 J0
G1 X-61.859 Y76.809 Z-3.035
G3 Y75.395 Z-3.065 I0.707 J-0.707
G1 X-57.859 Y71.395 Z-3.176
G3 X-56.152 Y72.102 Z-3.222 I0.707 J0.707
G1 Y76.102 Z-3.3
Y80.102
G3 X-57.859 Y80.809 I-1 J0
G1 X-61.859 Y76.809
G3 Y75.395 I0.707 J-0.707
G1 X-57.859 Y71.395
G3 X-56.152 Y72.102 I0.707 J0.707
G1 Y76.102
G0 Z5
X-48.152 Y74.578
Z2
G1 Z0.1 F100
Y67.167 Z0.064 F1000
G3 X-46.377 Y66.535 Z0.052 I1 J0
G1 X-19.804 Y99.161 Z-0.154
G3 X-21.253 Y101.581 Z-0.172 I-1.163 J0.947
G1 X-40.868 Y97.772 Z-0.269
G3 X-48.152 Y88.937 Z-0.33 I1.716 J-8.835
G1 Y67.167 Z-0.436
G3 X-46.377 Y66.535 Z-0.448 I1 J0
G1 X-19.804 Y99.161 Z-0.654
G3 X-21.253 Y101.581 Z-0.672 I-1.163 J0.947
G1 X-40.868 Y97.772 Z-0.769
G3 X-48.152 Y88.937 Z-0.83 I1.716 J-8.835
G1 Y67.167 Z-0.936
G3 X-46.377 Y66.535 Z-0.948 I1 J0
G1 X-19.804 Y99.161 Z-1.154
G3 X-21.253 Y101.581 Z-1.172 I-1.163 J0.947
G1 X-40.868 Y97.772 Z-1.269
G3 X-48.152 Y88.937 Z-1.33 I1.716 J-8.835
G1 Y67.167 Z-1.436
G3 X-46.377 Y66.535 Z-1.448 I1 J0
G1 X-19.804 Y99.161 Z-1.654
G3 X-21.253 Y101.581 Z-1.672 I-1.163 J0.947
G1 X-40.868 Y97.772 Z-1.769
G3 X-48.152 Y88.937 Z-1.83 I1.716 J-8.835
G1 Y67.167 Z-1.936
G3 X-46.377 Y66.535 Z-1.948 I1 J0
G1 X-19.804 Y99.161 Z-2.154
G3 X-21.253 Y101.581 Z-2.172 I-1.163 J0.947
G1 X-40.868 Y97.772 Z-2.269
G3 X-48.152 Y88.937 Z-2.33 I1.716 J-8.835
G1 Y67.167 Z-2.436
G3 X-46.377 Y66.535 Z-2.448 I1 J0
G1 X-19.804 Y99.161 Z-2.654
G3 X-21.253 Y101.581 Z-2.672 I-1.163 J0.947
G1 X-40.868 Y97.772 Z-2.769
G3 X-48.152 Y88.937 Z-2.83 I1.716 J-8.835
G1 Y67.167 Z-2.936
G3 X-46.377 Y66.535 Z-2.948 I1 J0
G1 X-19.804 Y99.161 Z-3.154
G3 X-21.253 Y101.581 Z-3.172 I-1.163 J0.947
G1 X-40.868 Y97.772 Z-3.269
G3 X-46.154 Y94.592 Z-3.3 I1.716 J-8.835
X-48.152 Y88.937 I7.001 J-5.655
G1 Y67.167
G3 X-46.377 Y66.535 I1 J0
G1 X-19.804 Y99.161
G3 X-21.253 Y101.581 I-1.163 J0.947
G1 X-40.868 Y97.772
G3 X-46.154 Y94.592 I1.716 J-8.835
G0 Z5
X-7.226 Y107.639
Z2
G1 Z0.1 F100
G3 X-10.079 Y108.566 Z-0.15 I-1.427 J0.464 F1000
X-7.226 Y107.639 Z-0.4 I1.427 J-0.464
X-10.079 Y108.566 Z-0.65 I-1.427 J0.464
X-7.226 Y107.639 Z-0.9 I1.427 J-0.464
X-10.079 Y108.566 Z-1.15 I-1.427 J0.464
X-7.226 Y107.639 Z-1.4 I1.427 J-0.464
X-10.079 Y108.566 Z-1.65 I-1.427 J0.464
X-7.226 Y107.639 Z-1.9 I1.427 J-0.464
X-10.079 Y108.566 Z-2.15 I-1.427 J0.464
X-7.226 Y107.639 Z-2.4 I1.427 J-0.464
X-10.079 Y108.566 Z-2.65 I-1.427 J0.464
X-7.226 Y107.639 Z-2.9 I1.427 J-0.464
X-10.079 Y108.566 Z-3.15 I-1.427 J0.464
X-8.652 Y106.602 Z-3.3 I1.427 J-0.464
Y109.602 I0 J1.5
Y106.602 I0 J-1.5
G0 Z5
X-9.888 Y116.65
Z2
G1 Z0.1 F100
X-10.866 Y115.062 Z-0.015 F1000
G2 X-10.589 Y114.829 Z-0.037 I-2.438 J-3.171
X-8.116 Y115.082 Z-0.19 I1.937 J-6.727
X-7.892 Y115.366 Z-0.213 I3.253 J-2.327
G1 X-9.578 Y117.154 Z-0.364
X-10.866 Y115.062 Z-0.515
G2 X-10.589 Y114.829 Z-0.537 I-2.438 J-3.171
X-8.116 Y115.082 Z-0.69 I1.937 J-6.727
X-7.892 Y115.366 Z-0.713 I3.253 J-2.327
G1 X-9.578 Y117.154 Z-0.864
X-10.866 Y115.062 Z-1.015
G2 X-10.589 Y114.829 Z-1.037 I-2.438 J-3.171
X-8.116 Y115.082 Z-1.19 I1.937 J-6.727
X-7.892 Y115.366 Z-1.213 I3.253 J-2.327
G1 X-9.578 Y117.154 Z-1.364
X-10.866 Y115.062 Z-1.515
G2 X-10.589 Y114.829 Z-1.537 I-2.438 J-3.171
X-8.116 Y115.082 Z-1.69 I1.937 J-6.727
X-7.892 Y115.366 Z-1.713 I3.253 J-2.327
G1 X-9.578 Y117.154 Z-1.864
X-10.866 Y115.062 Z-2.015
G2 X-10.589 Y114.829 Z-2.037 I-2.438 J-3.171
X-8.116 Y115.082 Z-2.19 I1.937 J-6.727
X-7.892 Y115.366 Z-2.213 I3.253 J-2.327
G1 X-9.578 Y117.154 Z-2.364
X-10.866 Y115.062 Z-2.515
G2 X-10.589 Y114.829 Z-2.537 I-2.438 J-3.171
X-8.116 Y115.082 Z-2.69 I1.937 J-6.727
X-7.892 Y115.366 Z-2.713 I3.253 J-2.327
G1 X-9.578 Y117.154 Z-2.864
X-10.866 Y115.062 Z-3.015
G2 X-10.589 Y114.829 Z-3.037 I-2.438 J-3.171
X-8.116 Y115.082 Z-3.19 I1.937 J-6.727
X-7.892 Y115.366 Z-3.213 I3.253 J-2.327
G1 X-8.867 Y116.4 Z-3.3
X-9.578 Y117.154
X-10.866 Y115.062
G2 X-10.589 Y114.829 I-2.438 J-3.171
X-8.116 Y115.082 I1.937 J-6.727
X-7.892 Y115.366 I3.253 J-2.327
G1 X-8.867 Y116.4
G0 Z5
X-7.226 Y8.189
Z2
G1 Z0.1 F100
G3 X-10.079 Y9.116 Z-0.15 I-1.427 J0.464 F1000
X-7.226 Y8.189 Z-0.4 I1.427 J-0.464
X-10.079 Y9.116 Z-0.65 I-1.427 J0.464
X-7.226 Y8.189 Z-0.9 I1.427 J-0.464
X-10.079 Y9.116 Z-1.15 I-1.427 J0.464
X-7.226 Y8.189 Z-1.4 I1.427 J-0.464
X-10.079 Y9.116 Z-1.65 I-1.427 J0.464
X-7.226 Y8.189 Z-1.9 I1.427 J-0.464
X-10.079 Y9.116 Z-2.15 I-1.427 J0.464
X-7.226 Y8.189 Z-2.4 I1.427 J-0.464
X-10.079 Y9.116 Z-2.65 I-1.427 J0.464
X-7.226 Y8.189 Z-2.9 I1.427 J-0.464
X-10.079 Y9.116 Z-3.15 I-1.427 J0.464
X-8.652 Y7.152 Z-3.3 I1.427 J-0.464
Y10.152 I0 J1.5
Y7.152 I0 J-1.5
G0 Z5
X-122.137 Y109.522
Z2
G1 Z0.1 F100
G3 X-121.167 Y106.683 Z-0.15 I0.485 J-1.419 F1000
X-122.137 Y109.522 Z-0.4 I-0.485 J1.419
X-121.167 Y106.683 Z-0.65 I0.485 J-1.419
X-122.137 Y109.522 Z-0.9 I-0.485 J1.419
X-121.167 Y106.683 Z-1.15 I0.485 J-1.419
X-122.137 Y109.522 Z-1.4 I-0.485 J1.419
X-121.167 Y106.683 Z-1.65 I0.485 J-1.419
X-122.137 Y109.522 Z-1.9 I-0.485 J1.419
X-121.167 Y106.683 Z-2.15 I0.485 J-1.419
X-122.137 Y109.522 Z-2.4 I-0.485 J1.419
X-121.167 Y106.683 Z-2.65 I0.485 J-1.419
X-122.137 Y109.522 Z-2.9 I-0.485 J1.419
X-121.167 Y106.683 Z-3.15 I0.485 J-1.419
X-120.452 Y109.002 Z-3.3 I-0.485 J1.419
X-122.852 Y107.202 I-1.2 J-0.9
X-120.452 Y109.002 I1.2 J0.9
G0 Z5
X-119.446 Y115.076
Z2
G1 Z0.1 F100
X-120.727 Y117.154 Z-0.05 F1000
X-122.412 Y115.366 Z-0.201
G2 X-122.188 Y115.082 Z-0.223 I-3.029 J-2.612
X-119.715 Y114.829 Z-0.377 I0.536 J-6.979
X-119.438 Y115.062 Z-0.399 I2.715 J-2.938
G1 X-120.727 Y117.154 Z-0.55
X-122.412 Y115.366 Z-0.701
G2 X-122.188 Y115.082 Z-0.723 I-3.029 J-2.612
X-119.715 Y114.829 Z-0.877 I0.536 J-6.979
X-119.438 Y115.062 Z-0.899 I2.715 J-2.938
G1 X-120.727 Y117.154 Z-1.05
X-122.412 Y115.366 Z-1.201
G2 X-122.188 Y115.082 Z-1.223 I-3.029 J-2.612
X-119.715 Y114.829 Z-1.377 I0.536 J-6.979
X-119.438 Y115.062 Z-1.399 I2.715 J-2.938
G1 X-120.727 Y117.154 Z-1.55
X-122.412 Y115.366 Z-1.701
G2 X-122.188 Y115.082 Z-1.723 I-3.029 J-2.612
X-119.715 Y114.829 Z-1.877 I0.536 J-6.979
X-119.438 Y115.062 Z-1.899 I2.715 J-2.938
G1 X-120.727 Y117.154 Z-2.05
X-122.412 Y115.366 Z-2.201
G2 X-122.188 Y115.082 Z-2.223 I-3.029 J-2.612
X-119.715 Y114.829 Z-2.377 I0.536 J-6.979
X-119.438 Y115.062 Z-2.399 I2.715 J-2.938
G1 X-120.727 Y117.154 Z-2.55
X-122.412 Y115.366 Z-2.701
G2 X-122.188 Y115.082 Z-2.723 I-3.029 J-2.612
X-119.715 Y114.829 Z-2.877 I0.536 J-6.979
X-119.438 Y115.062 Z-2.899 I2.715 J-2.938
G1 X-120.727 Y117.154 Z-3.05
X-122.412 Y115.366 Z-3.201
G2 X-122.188 Y115.082 Z-3.223 I-3.029 J-2.612
X-120.94 Y115.066 Z-3.3 I0.536 J-6.979
X-119.715 Y114.829 I-0.712 J-6.964
X-119.438 Y115.062 I2.715 J-2.938
G1 X-120.727 Y117.154
X-122.412 Y115.366
G2 X-122.188 Y115.082 I-3.029 J-2.612
X-120.94 Y115.066 I0.536 J-6.979
G0 Z15

M9
M30
