(04 2MM FLAT POCKETS)
(T11  D=2 CR=0 - ZMIN=-1 - FLAT END MILL)
G90 G94 G91.1 G40 G49 G17
G21

(04 2MM FLAT POCKETS)
M5
M9
T11
(DIAMOND OR SPIRAL)
S20000 M3
G54
M8
G0 X-74.432 Y89.877
G43 Z15 H1
Z2
G1 Z0.1 F100
X-72.102 Z0.019 F1000
Y90.977 Z-0.019
X-78.202 Z-0.231
Y89.877 Z-0.269
X-72.102 Z-0.481
Y90.977 Z-0.519
X-78.202 Z-0.731
Y89.877 Z-0.769
X-72.102 Z-0.981
Y90.427 Z-1
Y90.977
X-78.202
Y89.877
X-72.102
Y90.427
G0 Z5
X-54.772 Y90.977
Z2
G1 Z0.1 F100
X-58.202 Z-0.019 F1000
Y89.877 Z-0.057
X-52.102 Z-0.269
Y90.977 Z-0.307
X-58.202 Z-0.519
Y89.877 Z-0.557
X-52.102 Z-0.769
Y90.977 Z-0.807
X-57.652 Z-1
X-58.202
Y89.877
X-52.102
Y90.977
X-57.652
G0 Z15

M9
M30
