(05 2MM FLAT OUTER CONTOURS)
(T11  D=2 CR=0 - ZMIN=-3.3 - FLAT END MILL)
G90 G94 G91.1 G40 G49 G17
G21

(05 2MM FLAT OUTER CONTOURS)
M5
M9
T11
(DIAMOND OR SPIRAL)
S20000 M3
G54
M8
G0 X-102.358 Y37.092
G43 Z15 H1
Z2
G1 Z0.1 F100
X-89.651 Y52.694 Z0.083 F1000
G3 Y64.061 Z0.073 I-6.978 J5.684
G1 X-117.195 Y97.879 Z0.037
G3 X-125.246 Y100.456 Z0.03 I-6.003 J-4.889
G2 X-129.435 Y106.802 Z0.021 I-1.058 J3.857
G3 X-129.011 Y110.95 Z0.018 I-3.024 J2.405
G2 X-128.352 Y115.498 Z0.014 I3.57 J1.804
G1 X-122.226 Y121.996 Z0.006
G2 X-118.278 Y121.593 Z0.002 I1.819 J-1.715
G1 X-113.715 Y114.186 Z-0.005
G2 X-112.486 Y112.101 Z-0.007 I-7.937 J-6.083
G3 X-109.681 Y109.852 Z-0.01 I3.542 J1.545
G2 X-109.573 Y109.825 I-0.191 J-0.982
G3 X-78.152 Y103.611 Z-0.037 I44.421 J142.056
G1 Y104.427
G2 X-77.152 Y105.427 Z-0.039 I1 J0
G1 X-75.152 Z-0.04
G2 X-74.152 Y104.427 Z-0.042 I0 J-1
G1 Y103.314 Z-0.043
G3 X-56.152 Z-0.057 I9 J148.567
G1 Y104.427 Z-0.058
G2 X-55.152 Y105.427 Z-0.06 I1 J0
G1 X-53.152 Z-0.061
G2 X-52.152 Y104.427 Z-0.063 I0 J-1
G1 Y103.611
G3 X-20.731 Y109.825 Z-0.09 I-13 J148.271
G2 X-20.623 Y109.852 I0.298 J-0.954
G3 X-17.818 Y112.101 Z-0.093 I-0.737 J3.793
G2 X-16.589 Y114.186 Z-0.095 I9.166 J-3.998
G1 X-12.026 Y121.593 Z-0.102
G2 X-8.078 Y121.996 Z-0.106 I2.129 J-1.311
G1 X-1.953 Y115.498 Z-0.114
G2 X-1.293 Y110.95 Z-0.118 I-2.911 J-2.744
G3 X-0.869 Y106.802 Z-0.121 I3.449 J-1.743
G2 X-5.058 Y100.456 Z-0.13 I-3.131 J-2.489
G3 X-13.11 Y97.879 Z-0.137 I-2.049 J-7.466
G1 X-40.654 Y64.061 Z-0.173
G3 Y52.694 Z-0.183 I6.978 J-5.684
G1 X-13.11 Y18.875 Z-0.219
G3 X-5.058 Y16.299 Z-0.227 I6.003 J4.889
G2 X-0.869 Y9.952 Z-0.235 I1.058 J-3.857
G3 X-1.293 Y5.804 Z-0.239 I3.024 J-2.405
G2 X-7.352 Y0.869 Z-0.248 I-3.57 J-1.804
G3 X-11.5 Y1.293 Z-0.251 I-2.405 J-3.024
G2 X-16.406 Y2.337 Z-0.256 I-1.804 J3.57
X-16.885 Y2.976 Z-0.257 I7.754 J6.315
G3 X-22.133 Y6.109 Z-0.262 I-6.05 J-4.172
G2 X-22.204 Y6.12 I0.109 J0.994
G3 X-55.596 Y9.847 Z-0.29 I-42.948 J-233.353
X-57.052 Y8.45 Z-0.292 I-0.056 J-1.399
G2 X-60.452 Y5.039 Z-0.296 I-3.4 J-0.01
G1 X-69.852 Z-0.304
G2 X-73.252 Y8.439 Z-0.308 I0 J3.4
G1 Y8.443
G3 X-74.709 Y9.847 Z-0.31 I-1.4 J0.005
X-108.1 Y6.12 Z-0.338 I9.556 J-237.079
G2 X-108.172 Y6.109 I-0.181 J0.983
G3 X-113.419 Y2.976 Z-0.343 I0.803 J-7.305
G2 X-113.899 Y2.337 Z-0.344 I-8.233 J5.676
X-118.804 Y1.293 Z-0.349 I-3.101 J2.526
G3 X-122.952 Y0.869 Z-0.352 I-1.743 J-3.449
G2 X-129.011 Y5.804 Z-0.361 I-2.489 J3.131
G3 X-129.435 Y9.952 Z-0.365 I-3.449 J1.743
G2 X-125.246 Y16.299 Z-0.373 I3.131 J2.489
G3 X-117.195 Y18.875 Z-0.381 I2.049 J7.466
G1 X-89.651 Y52.694 Z-0.417
G3 Y64.061 Z-0.427 I-6.978 J5.684
G1 X-117.195 Y97.879 Z-0.463
G3 X-125.246 Y100.456 Z-0.47 I-6.003 J-4.889
G2 X-129.435 Y106.802 Z-0.479 I-1.058 J3.857
G3 X-129.011 Y110.95 Z-0.482 I-3.024 J2.405
G2 X-128.352 Y115.498 Z-0.486 I3.57 J1.804
G1 X-122.226 Y121.996 Z-0.494
G2 X-118.278 Y121.593 Z-0.498 I1.819 J-1.715
G1 X-113.715 Y114.186 Z-0.505
G2 X-112.486 Y112.101 Z-0.507 I-7.937 J-6.083
G3 X-109.681 Y109.852 Z-0.51 I3.542 J1.545
G2 X-109.573 Y109.825 I-0.191 J-0.982
G3 X-78.152 Y103.611 Z-0.537 I44.421 J142.056
G1 Y104.427
G2 X-77.152 Y105.427 Z-0.539 I1 J0
G1 X-75.152 Z-0.54
G2 X-74.152 Y104.427 Z-0.542 I0 J-1
G1 Y103.314 Z-0.543
G3 X-56.152 Z-0.557 I9 J148.567
G1 Y104.427 Z-0.558
G2 X-55.152 Y105.427 Z-0.56 I1 J0
G1 X-53.152 Z-0.561
G2 X-52.152 Y104.427 Z-0.563 I0 J-1
G1 Y103.611
G3 X-20.731 Y109.825 Z-0.59 I-13 J148.271
G2 X-20.623 Y109.852 I0.298 J-0.954
G3 X-17.818 Y112.101 Z-0.593 I-0.737 J3.793
G2 X-16.589 Y114.186 Z-0.595 I9.166 J-3.998
G1 X-12.026 Y121.593 Z-0.602
G2 X-8.078 Y121.996 Z-0.606 I2.129 J-1.311
G1 X-1.953 Y115.498 Z-0.614
G2 X-1.293 Y110.95 Z-0.618 I-2.911 J-2.744
G3 X-0.869 Y106.802 Z-0.621 I3.449 J-1.743
G2 X-5.058 Y100.456 Z-0.63 I-3.131 J-2.489
G3 X-13.11 Y97.879 Z-0.637 I-2.049 J-7.466
G1 X-40.654 Y64.061 Z-0.673
G3 Y52.694 Z-0.683 I6.978 J-5.684
G1 X-13.11 Y18.875 Z-0.719
G3 X-5.058 Y16.299 Z-0.727 I6.003 J4.889
G2 X-0.869 Y9.952 Z-0.735 I1.058 J-3.857
G3 X-1.293 Y5.804 Z-0.739 I3.024 J-2.405
G2 X-7.352 Y0.869 Z-0.748 I-3.57 J-1.804
G3 X-11.5 Y1.293 Z-0.751 I-2.405 J-3.024
G2 X-16.406 Y2.337 Z-0.756 I-1.804 J3.57
X-16.885 Y2.976 Z-0.757 I7.754 J6.315
G3 X-22.133 Y6.109 Z-0.762 I-6.05 J-4.172
G2 X-22.204 Y6.12 I0.109 J0.994
G3 X-55.596 Y9.847 Z-0.79 I-42.948 J-233.353
X-57.052 Y8.45 Z-0.792 I-0.056 J-1.399
G2 X-60.452 Y5.039 Z-0.796 I-3.4 J-0.01
G1 X-69.852 Z-0.804
G2 X-73.252 Y8.439 Z-0.808 I0 J3.4
G1 Y8.443
G3 X-74.709 Y9.847 Z-0.81 I-1.4 J0.005
X-108.1 Y6.12 Z-0.838 I9.556 J-237.079
G2 X-108.172 Y6.109 I-0.181 J0.983
G3 X-113.419 Y2.976 Z-0.843 I0.803 J-7.305
G2 X-113.899 Y2.337 Z-0.844 I-8.233 J5.676
X-118.804 Y1.293 Z-0.849 I-3.101 J2.526
G3 X-122.952 Y0.869 Z-0.852 I-1.743 J-3.449
G2 X-129.011 Y5.804 Z-0.861 I-2.489 J3.131
G3 X-129.435 Y9.952 Z-0.865 I-3.449 J1.743
G2 X-125.246 Y16.299 Z-0.873 I3.131 J2.489
G3 X-117.195 Y18.875 Z-0.881 I2.049 J7.466
G1 X-89.651 Y52.694 Z-0.917
G3 Y64.061 Z-0.927 I-6.978 J5.684
G1 X-117.195 Y97.879 Z-0.963
G3 X-125.246 Y100.456 Z-0.97 I-6.003 J-4.889
G2 X-129.435 Y106.802 Z-0.979 I-1.058 J3.857
G3 X-129.011 Y110.95 Z-0.982 I-3.024 J2.405
G2 X-128.352 Y115.498 Z-0.986 I3.57 J1.804
G1 X-122.226 Y121.996 Z-0.994
G2 X-118.278 Y121.593 Z-0.998 I1.819 J-1.715
G1 X-113.715 Y114.186 Z-1.005
G2 X-112.486 Y112.101 Z-1.007 I-7.937 J-6.083
G3 X-109.681 Y109.852 Z-1.01 I3.542 J1.545
G2 X-109.573 Y109.825 I-0.191 J-0.982
G3 X-78.152 Y103.611 Z-1.037 I44.421 J142.056
G1 Y104.427
G2 X-77.152 Y105.427 Z-1.039 I1 J0
G1 X-75.152 Z-1.04
G2 X-74.152 Y104.427 Z-1.042 I0 J-1
G1 Y103.314 Z-1.043
G3 X-56.152 Z-1.057 I9 J148.567
G1 Y104.427 Z-1.058
G2 X-55.152 Y105.427 Z-1.06 I1 J0
G1 X-53.152 Z-1.061
G2 X-52.152 Y104.427 Z-1.063 I0 J-1
G1 Y103.611
G3 X-20.731 Y109.825 Z-1.09 I-13 J148.271
G2 X-20.623 Y109.852 I0.298 J-0.954
G3 X-17.818 Y112.101 Z-1.093 I-0.737 J3.793
G2 X-16.589 Y114.186 Z-1.095 I9.166 J-3.998
G1 X-12.026 Y121.593 Z-1.102
G2 X-8.078 Y121.996 Z-1.106 I2.129 J-1.311
G1 X-1.953 Y115.498 Z-1.114
G2 X-1.293 Y110.95 Z-1.118 I-2.911 J-2.744
G3 X-0.869 Y106.802 Z-1.121 I3.449 J-1.743
G2 X-5.058 Y100.456 Z-1.13 I-3.131 J-2.489
G3 X-13.11 Y97.879 Z-1.137 I-2.049 J-7.466
G1 X-40.654 Y64.061 Z-1.173
G3 Y52.694 Z-1.183 I6.978 J-5.684
G1 X-13.11 Y18.875 Z-1.219
G3 X-5.058 Y16.299 Z-1.227 I6.003 J4.889
G2 X-0.869 Y9.952 Z-1.235 I1.058 J-3.857
G3 X-1.293 Y5.804 Z-1.239 I3.024 J-2.405
G2 X-7.352 Y0.869 Z-1.248 I-3.57 J-1.804
G3 X-11.5 Y1.293 Z-1.251 I-2.405 J-3.024
G2 X-16.406 Y2.337 Z-1.256 I-1.804 J3.57
X-16.885 Y2.976 Z-1.257 I7.754 J6.315
G3 X-22.133 Y6.109 Z-1.262 I-6.05 J-4.172
G2 X-22.204 Y6.12 I0.109 J0.994
G3 X-55.596 Y9.847 Z-1.29 I-42.948 J-233.353
X-57.052 Y8.45 Z-1.292 I-0.056 J-1.399
G2 X-60.452 Y5.039 Z-1.296 I-3.4 J-0.01
G1 X-69.852 Z-1.304
G2 X-73.252 Y8.439 Z-1.308 I0 J3.4
G1 Y8.443
G3 X-74.709 Y9.847 Z-1.31 I-1.4 J0.005
X-108.1 Y6.12 Z-1.338 I9.556 J-237.079
G2 X-108.172 Y6.109 I-0.181 J0.983
G3 X-113.419 Y2.976 Z-1.343 I0.803 J-7.305
G2 X-113.899 Y2.337 Z-1.344 I-8.233 J5.676
X-118.804 Y1.293 Z-1.349 I-3.101 J2.526
G3 X-122.952 Y0.869 Z-1.352 I-1.743 J-3.449
G2 X-129.011 Y5.804 Z-1.361 I-2.489 J3.131
G3 X-129.435 Y9.952 Z-1.365 I-3.449 J1.743
G2 X-125.246 Y16.299 Z-1.373 I3.131 J2.489
G3 X-117.195 Y18.875 Z-1.381 I2.049 J7.466
G1 X-89.651 Y52.694 Z-1.417
G3 Y64.061 Z-1.427 I-6.978 J5.684
G1 X-117.195 Y97.879 Z-1.463
G3 X-125.246 Y100.456 Z-1.47 I-6.003 J-4.889
G2 X-129.435 Y106.802 Z-1.479 I-1.058 J3.857
G3 X-129.011 Y110.95 Z-1.482 I-3.024 J2.405
G2 X-128.352 Y115.498 Z-1.486 I3.57 J1.804
G1 X-122.226 Y121.996 Z-1.494
G2 X-118.278 Y121.593 Z-1.498 I1.819 J-1.715
G1 X-113.715 Y114.186 Z-1.505
G2 X-112.486 Y112.101 Z-1.507 I-7.937 J-6.083
G3 X-109.681 Y109.852 Z-1.51 I3.542 J1.545
G2 X-109.573 Y109.825 I-0.191 J-0.982
G3 X-78.152 Y103.611 Z-1.537 I44.421 J142.056
G1 Y104.427
G2 X-77.152 Y105.427 Z-1.539 I1 J0
G1 X-75.152 Z-1.54
G2 X-74.152 Y104.427 Z-1.542 I0 J-1
G1 Y103.314 Z-1.543
G3 X-56.152 Z-1.557 I9 J148.567
G1 Y104.427 Z-1.558
G2 X-55.152 Y105.427 Z-1.56 I1 J0
G1 X-53.152 Z-1.561
G2 X-52.152 Y104.427 Z-1.563 I0 J-1
G1 Y103.611
G3 X-20.731 Y109.825 Z-1.59 I-13 J148.271
G2 X-20.623 Y109.852 I0.298 J-0.954
G3 X-17.818 Y112.101 Z-1.593 I-0.737 J3.793
G2 X-16.589 Y114.186 Z-1.595 I9.166 J-3.998
G1 X-12.026 Y121.593 Z-1.602
G2 X-8.078 Y121.996 Z-1.606 I2.129 J-1.311
G1 X-1.953 Y115.498 Z-1.614
G2 X-1.293 Y110.95 Z-1.618 I-2.911 J-2.744
G3 X-0.869 Y106.802 Z-1.621 I3.449 J-1.743
G2 X-5.058 Y100.456 Z-1.63 I-3.131 J-2.489
G3 X-13.11 Y97.879 Z-1.637 I-2.049 J-7.466
G1 X-40.654 Y64.061 Z-1.673
G3 Y52.694 Z-1.683 I6.978 J-5.684
G1 X-13.11 Y18.875 Z-1.719
G3 X-5.058 Y16.299 Z-1.727 I6.003 J4.889
G2 X-0.869 Y9.952 Z-1.735 I1.058 J-3.857
G3 X-1.293 Y5.804 Z-1.739 I3.024 J-2.405
G2 X-7.352 Y0.869 Z-1.748 I-3.57 J-1.804
G3 X-11.5 Y1.293 Z-1.751 I-2.405 J-3.024
G2 X-16.406 Y2.337 Z-1.756 I-1.804 J3.57
X-16.885 Y2.976 Z-1.757 I7.754 J6.315
G3 X-22.133 Y6.109 Z-1.762 I-6.05 J-4.172
G2 X-22.204 Y6.12 I0.109 J0.994
G3 X-55.596 Y9.847 Z-1.79 I-42.948 J-233.353
X-57.052 Y8.45 Z-1.792 I-0.056 J-1.399
G2 X-60.452 Y5.039 Z-1.796 I-3.4 J-0.01
G1 X-69.852 Z-1.804
G2 X-73.252 Y8.439 Z-1.808 I0 J3.4
G1 Y8.443
G3 X-74.709 Y9.847 Z-1.81 I-1.4 J0.005
X-108.1 Y6.12 Z-1.838 I9.556 J-237.079
G2 X-108.172 Y6.109 I-0.181 J0.983
G3 X-113.419 Y2.976 Z-1.843 I0.803 J-7.305
G2 X-113.899 Y2.337 Z-1.844 I-8.233 J5.676
X-118.804 Y1.293 Z-1.849 I-3.101 J2.526
G3 X-122.952 Y0.869 Z-1.852 I-1.743 J-3.449
G2 X-129.011 Y5.804 Z-1.861 I-2.489 J3.131
G3 X-129.435 Y9.952 Z-1.865 I-3.449 J1.743
G2 X-125.246 Y16.299 Z-1.873 I3.131 J2.489
G3 X-117.195 Y18.875 Z-1.881 I2.049 J7.466
G1 X-89.651 Y52.694 Z-1.917
G3 Y64.061 Z-1.927 I-6.978 J5.684
G1 X-117.195 Y97.879 Z-1.963
G3 X-125.246 Y100.456 Z-1.97 I-6.003 J-4.889
G2 X-129.435 Y106.802 Z-1.979 I-1.058 J3.857
G3 X-129.011 Y110.95 Z-1.982 I-3.024 J2.405
G2 X-128.352 Y115.498 Z-1.986 I3.57 J1.804
G1 X-122.226 Y121.996 Z-1.994
G2 X-118.278 Y121.593 Z-1.998 I1.819 J-1.715
G1 X-113.715 Y114.186 Z-2.005
G2 X-112.486 Y112.101 Z-2.007 I-7.937 J-6.083
G3 X-109.681 Y109.852 Z-2.01 I3.542 J1.545
G2 X-109.573 Y109.825 I-0.191 J-0.982
G3 X-78.152 Y103.611 Z-2.037 I44.421 J142.056
G1 Y104.427
G2 X-77.152 Y105.427 Z-2.039 I1 J0
G1 X-75.152 Z-2.04
G2 X-74.152 Y104.427 Z-2.042 I0 J-1
G1 Y103.314 Z-2.043
G3 X-56.152 Z-2.057 I9 J148.567
G1 Y104.427 Z-2.058
G2 X-55.152 Y105.427 Z-2.06 I1 J0
G1 X-53.152 Z-2.061
G2 X-52.152 Y104.427 Z-2.063 I0 J-1
G1 Y103.611
G3 X-20.731 Y109.825 Z-2.09 I-13 J148.271
G2 X-20.623 Y109.852 I0.298 J-0.954
G3 X-17.818 Y112.101 Z-2.093 I-0.737 J3.793
G2 X-16.589 Y114.186 Z-2.095 I9.166 J-3.998
G1 X-12.026 Y121.593 Z-2.102
G2 X-8.078 Y121.996 Z-2.106 I2.129 J-1.311
G1 X-1.953 Y115.498 Z-2.114
G2 X-1.293 Y110.95 Z-2.118 I-2.911 J-2.744
G3 X-0.869 Y106.802 Z-2.121 I3.449 J-1.743
G2 X-5.058 Y100.456 Z-2.13 I-3.131 J-2.489
G3 X-13.11 Y97.879 Z-2.137 I-2.049 J-7.466
G1 X-40.654 Y64.061 Z-2.173
G3 Y52.694 Z-2.183 I6.978 J-5.684
G1 X-13.11 Y18.875 Z-2.219
G3 X-5.058 Y16.299 Z-2.227 I6.003 J4.889
G2 X-0.869 Y9.952 Z-2.235 I1.058 J-3.857
G3 X-1.293 Y5.804 Z-2.239 I3.024 J-2.405
G2 X-7.352 Y0.869 Z-2.248 I-3.57 J-1.804
G3 X-11.5 Y1.293 Z-2.251 I-2.405 J-3.024
G2 X-16.406 Y2.337 Z-2.256 I-1.804 J3.57
X-16.885 Y2.976 Z-2.257 I7.754 J6.315
G3 X-22.133 Y6.109 Z-2.262 I-6.05 J-4.172
G2 X-22.204 Y6.12 I0.109 J0.994
G3 X-55.596 Y9.847 Z-2.29 I-42.948 J-233.353
X-57.052 Y8.45 Z-2.292 I-0.056 J-1.399
G2 X-60.452 Y5.039 Z-2.296 I-3.4 J-0.01
G1 X-69.852 Z-2.304
G2 X-73.252 Y8.439 Z-2.308 I0 J3.4
G1 Y8.443
G3 X-74.709 Y9.847 Z-2.31 I-1.4 J0.005
X-108.1 Y6.12 Z-2.338 I9.556 J-237.079
G2 X-108.172 Y6.109 I-0.181 J0.983
G3 X-113.419 Y2.976 Z-2.343 I0.803 J-7.305
G2 X-113.899 Y2.337 Z-2.344 I-8.233 J5.676
X-118.804 Y1.293 Z-2.349 I-3.101 J2.526
G3 X-122.952 Y0.869 Z-2.352 I-1.743 J-3.449
G2 X-129.011 Y5.804 Z-2.361 I-2.489 J3.131
G3 X-129.435 Y9.952 Z-2.365 I-3.449 J1.743
G2 X-125.246 Y16.299 Z-2.373 I3.131 J2.489
G3 X-117.195 Y18.875 Z-2.381 I2.049 J7.466
G1 X-89.651 Y52.694 Z-2.417
G3 Y64.061 Z-2.427 I-6.978 J5.684
G1 X-117.195 Y97.879 Z-2.463
G3 X-125.246 Y100.456 Z-2.47 I-6.003 J-4.889
G2 X-129.435 Y106.802 Z-2.479 I-1.058 J3.857
G3 X-129.011 Y110.95 Z-2.482 I-3.024 J2.405
G2 X-128.352 Y115.498 Z-2.486 I3.57 J1.804
G1 X-122.226 Y121.996 Z-2.494
G2 X-118.278 Y121.593 Z-2.498 I1.819 J-1.715
G1 X-113.715 Y114.186 Z-2.505
G2 X-112.486 Y112.101 Z-2.507 I-7.937 J-6.083
G3 X-109.681 Y109.852 Z-2.51 I3.542 J1.545
G2 X-109.573 Y109.825 I-0.191 J-0.982
G3 X-78.152 Y103.611 Z-2.537 I44.421 J142.056
G1 Y104.427
G2 X-77.152 Y105.427 Z-2.539 I1 J0
G1 X-75.152 Z-2.54
G2 X-74.152 Y104.427 Z-2.542 I0 J-1
G1 Y103.314 Z-2.543
G3 X-56.152 Z-2.557 I9 J148.567
G1 Y104.427 Z-2.558
G2 X-55.152 Y105.427 Z-2.56 I1 J0
G1 X-53.152 Z-2.561
G2 X-52.152 Y104.427 Z-2.563 I0 J-1
G1 Y103.611
G3 X-20.731 Y109.825 Z-2.59 I-13 J148.271
G2 X-20.623 Y109.852 I0.298 J-0.954
G3 X-17.818 Y112.101 Z-2.593 I-0.737 J3.793
G2 X-16.589 Y114.186 Z-2.595 I9.166 J-3.998
G1 X-12.026 Y121.593 Z-2.602
G2 X-8.078 Y121.996 Z-2.606 I2.129 J-1.311
G1 X-1.953 Y115.498 Z-2.614
G2 X-1.293 Y110.95 Z-2.618 I-2.911 J-2.744
G3 X-0.869 Y106.802 Z-2.621 I3.449 J-1.743
G2 X-5.058 Y100.456 Z-2.63 I-3.131 J-2.489
G3 X-13.11 Y97.879 Z-2.637 I-2.049 J-7.466
G1 X-40.654 Y64.061 Z-2.673
G3 Y52.694 Z-2.683 I6.978 J-5.684
G1 X-13.11 Y18.875 Z-2.719
G3 X-5.058 Y16.299 Z-2.727 I6.003 J4.889
G2 X-0.869 Y9.952 Z-2.735 I1.058 J-3.857
G3 X-1.293 Y5.804 Z-2.739 I3.024 J-2.405
G2 X-7.352 Y0.869 Z-2.748 I-3.57 J-1.804
G3 X-11.5 Y1.293 Z-2.751 I-2.405 J-3.024
G2 X-16.406 Y2.337 Z-2.756 I-1.804 J3.57
X-16.885 Y2.976 Z-2.757 I7.754 J6.315
G3 X-22.133 Y6.109 Z-2.762 I-6.05 J-4.172
G2 X-22.204 Y6.12 I0.109 J0.994
G3 X-55.596 Y9.847 Z-2.79 I-42.948 J-233.353
X-57.052 Y8.45 Z-2.792 I-0.056 J-1.399
G2 X-60.452 Y5.039 Z-2.796 I-3.4 J-0.01
G1 X-69.852 Z-2.804
G2 X-73.252 Y8.439 Z-2.808 I0 J3.4
G1 Y8.443
G3 X-74.709 Y9.847 Z-2.81 I-1.4 J0.005
X-108.1 Y6.12 Z-2.838 I9.556 J-237.079
G2 X-108.172 Y6.109 I-0.181 J0.983
G3 X-113.419 Y2.976 Z-2.843 I0.803 J-7.305
G2 X-113.899 Y2.337 Z-2.844 I-8.233 J5.676
X-118.804 Y1.293 Z-2.849 I-3.101 J2.526
G3 X-122.952 Y0.869 Z-2.852 I-1.743 J-3.449
G2 X-129.011 Y5.804 Z-2.861 I-2.489 J3.131
G3 X-129.435 Y9.952 Z-2.865 I-3.449 J1.743
G2 X-125.246 Y16.299 Z-2.873 I3.131 J2.489
G3 X-117.195 Y18.875 Z-2.881 I2.049 J7.466
G1 X-89.651 Y52.694 Z-2.917
G3 Y64.061 Z-2.927 I-6.978 J5.684
G1 X-117.195 Y97.879 Z-2.963
G3 X-125.246 Y100.456 Z-2.97 I-6.003 J-4.889
G2 X-129.435 Y106.802 Z-2.979 I-1.058 J3.857
G3 X-129.011 Y110.95 Z-2.982 I-3.024 J2.405
G2 X-128.352 Y115.498 Z-2.986 I3.57 J1.804
G1 X-122.226 Y121.996 Z-2.994
G2 X-118.278 Y121.593 Z-2.998 I1.819 J-1.715
G1 X-113.715 Y114.186 Z-3.005
G2 X-112.486 Y112.101 Z-3.007 I-7.937 J-6.083
G3 X-109.681 Y109.852 Z-3.01 I3.542 J1.545
G2 X-109.573 Y109.825 I-0.191 J-0.982
G3 X-78.152 Y103.611 Z-3.037 I44.421 J142.056
G1 Y104.427
G2 X-77.152 Y105.427 Z-3.039 I1 J0
G1 X-75.152 Z-3.04
G2 X-74.152 Y104.427 Z-3.042 I0 J-1
G1 Y103.314 Z-3.043
G3 X-56.152 Z-3.057 I9 J148.567
G1 Y104.427 Z-3.058
G2 X-55.152 Y105.427 Z-3.06 I1 J0
G1 X-53.152 Z-3.061
G2 X-52.152 Y104.427 Z-3.063 I0 J-1
G1 Y103.611
G3 X-20.731 Y109.825 Z-3.09 I-13 J148.271
G2 X-20.623 Y109.852 I0.298 J-0.954
G3 X-17.818 Y112.101 Z-3.093 I-0.737 J3.793
G2 X-16.589 Y114.186 Z-3.095 I9.166 J-3.998
G1 X-12.026 Y121.593 Z-3.102
G2 X-8.078 Y121.996 Z-3.106 I2.129 J-1.311
G1 X-1.953 Y115.498 Z-3.114
G2 X-1.293 Y110.95 Z-3.118 I-2.911 J-2.744
G3 X-0.869 Y106.802 Z-3.121 I3.449 J-1.743
G2 X-5.058 Y100.456 Z-3.13 I-3.131 J-2.489
G3 X-13.11 Y97.879 Z-3.137 I-2.049 J-7.466
G1 X-40.654 Y64.061 Z-3.173
G3 Y52.694 Z-3.183 I6.978 J-5.684
G1 X-13.11 Y18.875 Z-3.219
G3 X-5.058 Y16.299 Z-3.227 I6.003 J4.889
G2 X-0.869 Y9.952 Z-3.235 I1.058 J-3.857
G3 X-1.293 Y5.804 Z-3.239 I3.024 J-2.405
G2 X-7.352 Y0.869 Z-3.248 I-3.57 J-1.804
G3 X-11.5 Y1.293 Z-3.251 I-2.405 J-3.024
G2 X-16.406 Y2.337 Z-3.256 I-1.804 J3.57
X-16.885 Y2.976 Z-3.257 I7.754 J6.315
G3 X-22.133 Y6.109 Z-3.262 I-6.05 J-4.172
G2 X-22.204 Y6.12 I0.109 J0.994
G3 X-55.596 Y9.847 Z-3.29 I-42.948 J-233.353
X-57.052 Y8.45 Z-3.292 I-0.056 J-1.399
G2 X-60.452 Y5.039 Z-3.296 I-3.4 J-0.01
G1 X-65.152 Z-3.3
X-69.852
G2 X-73.252 Y8.439 I0 J3.4
G1 Y8.443
G3 X-74.709 Y9.847 I-1.4 J0.005
X-108.1 Y6.12 I9.556 J-237.079
G2 X-108.172 Y6.109 I-0.181 J0.983
G3 X-113.419 Y2.976 I0.803 J-7.305
G2 X-113.899 Y2.337 I-8.233 J5.676
X-118.804 Y1.293 I-3.101 J2.526
G3 X-122.952 Y0.869 I-1.743 J-3.449
G2 X-129.011 Y5.804 I-2.489 J3.131
G3 X-129.435 Y9.952 I-3.449 J1.743
G2 X-125.246 Y16.299 I3.131 J2.489
G3 X-117.195 Y18.875 I2.049 J7.466
G1 X-89.651 Y52.694
G3 Y64.061 I-6.978 J5.684
G1 X-117.195 Y97.879
G3 X-125.246 Y100.456 I-6.003 J-4.889
G2 X-129.435 Y106.802 I-1.058 J3.857
G3 X-129.011 Y110.95 I-3.024 J2.405
G2 X-128.352 Y115.498 I3.57 J1.804
G1 X-122.226 Y121.996
G2 X-118.278 Y121.593 I1.819 J-1.715
G1 X-113.715 Y114.186
G2 X-112.486 Y112.101 I-7.937 J-6.083
G3 X-109.681 Y109.852 I3.542 J1.545
G2 X-109.573 Y109.825 I-0.191 J-0.982
G3 X-78.152 Y103.611 I44.421 J142.056
G1 Y104.427
G2 X-77.152 Y105.427 I1 J0
G1 X-75.152
G2 X-74.152 Y104.427 I0 J-1
G1 Y103.314
G3 X-56.152 I9 J148.567
G1 Y104.427
G2 X-55.152 Y105.427 I1 J0
G1 X-53.152
G2 X-52.152 Y104.427 I0 J-1
G1 Y103.611
G3 X-20.731 Y109.825 I-13 J148.271
G2 X-20.623 Y109.852 I0.298 J-0.954
G3 X-17.818 Y112.101 I-0.737 J3.793
G2 X-16.589 Y114.186 I9.166 J-3.998
G1 X-12.026 Y121.593
G2 X-8.078 Y121.996 I2.129 J-1.311
G1 X-1.953 Y115.498
G2 X-1.293 Y110.95 I-2.911 J-2.744
G3 X-0.869 Y106.802 I3.449 J-1.743
G2 X-5.058 Y100.456 I-3.131 J-2.489
G3 X-13.11 Y97.879 I-2.049 J-7.466
G1 X-40.654 Y64.061
G3 Y52.694 I6.978 J-5.684
G1 X-13.11 Y18.875
G3 X-5.058 Y16.299 I6.003 J4.889
G2 X-0.869 Y9.952 I1.058 J-3.857
G3 X-1.293 Y5.804 I3.024 J-2.405
G2 X-7.352 Y0.869 I-3.57 J-1.804
G3 X-11.5 Y1.293 I-2.405 J-3.024
G2 X-16.406 Y2.337 I-1.804 J3.57
X-16.885 Y2.976 I7.754 J6.315
G3 X-22.133 Y6.109 I-6.05 J-4.172
G2 X-22.204 Y6.12 I0.109 J0.994
G3 X-55.596 Y9.847 I-42.948 J-233.353
X-57.052 Y8.45 I-0.056 J-1.399
G2 X-60.452 Y5.039 I-3.4 J-0.01
G1 X-65.152
G0 Z5
X-48.652 Y113.172
Z2
G1 Z0.1 F100
Y108.327 Z0.079 F1000
G2 X-49.652 Y107.327 Z0.072 I-1 J0
G1 X-50.157 Z0.07
G2 X-51.152 Y106.427 Z0.063 I-0.995 J0.1
G1 X-54.102 Z0.05
G2 X-55.102 Y107.427 Z0.043 I0 J1
G1 Y109.227 Z0.035
G2 X-54.102 Y110.227 Z0.028 I1 J0
G1 X-53.852 Z0.027
Y110.427
X-56.452 Z0.015
Y110.227 Z0.014
X-56.202 Z0.013
G2 X-55.202 Y109.227 Z0.006 I0 J-1
G1 Y107.427 Z-0.002
G2 X-56.202 Y106.427 Z-0.009 I-1 J0
G1 X-59.152 Z-0.022
G2 X-60.147 Y107.327 Z-0.028 I0 J1
G1 X-70.157 Z-0.072
G2 X-71.152 Y106.427 Z-0.078 I-0.995 J0.1
G1 X-74.102 Z-0.091
G2 X-75.102 Y107.427 Z-0.098 I0 J1
G1 Y109.227 Z-0.106
G2 X-74.102 Y110.227 Z-0.113 I1 J0
G1 X-73.852 Z-0.114
Y110.427 Z-0.115
X-76.452 Z-0.127
Y110.227
X-76.202 Z-0.128
G2 X-75.202 Y109.227 Z-0.135 I0 J-1
G1 Y107.427 Z-0.143
G2 X-76.202 Y106.427 Z-0.15 I-1 J0
G1 X-79.152 Z-0.163
G2 X-80.147 Y107.327 Z-0.17 I0 J1
G1 X-80.652 Z-0.172
G2 X-81.652 Y108.327 Z-0.179 I0 J1
G1 Y116.927 Z-0.216
G2 X-77.252 Y121.327 Z-0.247 I4.4 J0
G1 X-53.052 Z-0.353
G2 X-48.652 Y116.927 Z-0.384 I0 J-4.4
G1 Y108.327 Z-0.421
G2 X-49.652 Y107.327 Z-0.428 I-1 J0
G1 X-50.157 Z-0.43
G2 X-51.152 Y106.427 Z-0.437 I-0.995 J0.1
G1 X-54.102 Z-0.45
G2 X-55.102 Y107.427 Z-0.457 I0 J1
G1 Y109.227 Z-0.465
G2 X-54.102 Y110.227 Z-0.472 I1 J0
G1 X-53.852 Z-0.473
Y110.427
X-56.452 Z-0.485
Y110.227 Z-0.486
X-56.202 Z-0.487
G2 X-55.202 Y109.227 Z-0.494 I0 J-1
G1 Y107.427 Z-0.502
G2 X-56.202 Y106.427 Z-0.509 I-1 J0
G1 X-59.152 Z-0.522
G2 X-60.147 Y107.327 Z-0.528 I0 J1
G1 X-70.157 Z-0.572
G2 X-71.152 Y106.427 Z-0.578 I-0.995 J0.1
G1 X-74.102 Z-0.591
G2 X-75.102 Y107.427 Z-0.598 I0 J1
G1 Y109.227 Z-0.606
G2 X-74.102 Y110.227 Z-0.613 I1 J0
G1 X-73.852 Z-0.614
Y110.427 Z-0.615
X-76.452 Z-0.627
Y110.227
X-76.202 Z-0.628
G2 X-75.202 Y109.227 Z-0.635 I0 J-1
G1 Y107.427 Z-0.643
G2 X-76.202 Y106.427 Z-0.65 I-1 J0
G1 X-79.152 Z-0.663
G2 X-80.147 Y107.327 Z-0.67 I0 J1
G1 X-80.652 Z-0.672
G2 X-81.652 Y108.327 Z-0.679 I0 J1
G1 Y116.927 Z-0.716
G2 X-77.252 Y121.327 Z-0.747 I4.4 J0
G1 X-53.052 Z-0.853
G2 X-48.652 Y116.927 Z-0.884 I0 J-4.4
G1 Y108.327 Z-0.921
G2 X-49.652 Y107.327 Z-0.928 I-1 J0
G1 X-50.157 Z-0.93
G2 X-51.152 Y106.427 Z-0.937 I-0.995 J0.1
G1 X-54.102 Z-0.95
G2 X-55.102 Y107.427 Z-0.957 I0 J1
G1 Y109.227 Z-0.965
G2 X-54.102 Y110.227 Z-0.972 I1 J0
G1 X-53.852 Z-0.973
Y110.427
X-56.452 Z-0.985
Y110.227 Z-0.986
X-56.202 Z-0.987
G2 X-55.202 Y109.227 Z-0.994 I0 J-1
G1 Y107.427 Z-1.002
G2 X-56.202 Y106.427 Z-1.009 I-1 J0
G1 X-59.152 Z-1.022
G2 X-60.147 Y107.327 Z-1.028 I0 J1
G1 X-70.157 Z-1.072
G2 X-71.152 Y106.427 Z-1.078 I-0.995 J0.1
G1 X-74.102 Z-1.091
G2 X-75.102 Y107.427 Z-1.098 I0 J1
G1 Y109.227 Z-1.106
G2 X-74.102 Y110.227 Z-1.113 I1 J0
G1 X-73.852 Z-1.114
Y110.427 Z-1.115
X-76.452 Z-1.127
Y110.227
X-76.202 Z-1.128
G2 X-75.202 Y109.227 Z-1.135 I0 J-1
G1 Y107.427 Z-1.143
G2 X-76.202 Y106.427 Z-1.15 I-1 J0
G1 X-79.152 Z-1.163
G2 X-80.147 Y107.327 Z-1.17 I0 J1
G1 X-80.652 Z-1.172
G2 X-81.652 Y108.327 Z-1.179 I0 J1
G1 Y116.927 Z-1.216
G2 X-77.252 Y121.327 Z-1.247 I4.4 J0
G1 X-53.052 Z-1.353
G2 X-48.652 Y116.927 Z-1.384 I0 J-4.4
G1 Y108.327 Z-1.421
G2 X-49.652 Y107.327 Z-1.428 I-1 J0
G1 X-50.157 Z-1.43
G2 X-51.152 Y106.427 Z-1.437 I-0.995 J0.1
G1 X-54.102 Z-1.45
G2 X-55.102 Y107.427 Z-1.457 I0 J1
G1 Y109.227 Z-1.465
G2 X-54.102 Y110.227 Z-1.472 I1 J0
G1 X-53.852 Z-1.473
Y110.427
X-56.452 Z-1.485
Y110.227 Z-1.486
X-56.202 Z-1.487
G2 X-55.202 Y109.227 Z-1.494 I0 J-1
G1 Y107.427 Z-1.502
G2 X-56.202 Y106.427 Z-1.509 I-1 J0
G1 X-59.152 Z-1.522
G2 X-60.147 Y107.327 Z-1.528 I0 J1
G1 X-70.157 Z-1.572
G2 X-71.152 Y106.427 Z-1.578 I-0.995 J0.1
G1 X-74.102 Z-1.591
G2 X-75.102 Y107.427 Z-1.598 I0 J1
G1 Y109.227 Z-1.606
G2 X-74.102 Y110.227 Z-1.613 I1 J0
G1 X-73.852 Z-1.614
Y110.427 Z-1.615
X-76.452 Z-1.627
Y110.227
X-76.202 Z-1.628
G2 X-75.202 Y109.227 Z-1.635 I0 J-1
G1 Y107.427 Z-1.643
G2 X-76.202 Y106.427 Z-1.65 I-1 J0
G1 X-79.152 Z-1.663
G2 X-80.147 Y107.327 Z-1.67 I0 J1
G1 X-80.652 Z-1.672
G2 X-81.652 Y108.327 Z-1.679 I0 J1
G1 Y116.927 Z-1.716
G2 X-77.252 Y121.327 Z-1.747 I4.4 J0
G1 X-53.052 Z-1.853
G2 X-48.652 Y116.927 Z-1.884 I0 J-4.4
G1 Y108.327 Z-1.921
G2 X-49.652 Y107.327 Z-1.928 I-1 J0
G1 X-50.157 Z-1.93
G2 X-51.152 Y106.427 Z-1.937 I-0.995 J0.1
G1 X-54.102 Z-1.95
G2 X-55.102 Y107.427 Z-1.957 I0 J1
G1 Y109.227 Z-1.965
G2 X-54.102 Y110.227 Z-1.972 I1 J0
G1 X-53.852 Z-1.973
Y110.427
X-56.452 Z-1.985
Y110.227 Z-1.986
X-56.202 Z-1.987
G2 X-55.202 Y109.227 Z-1.994 I0 J-1
G1 Y107.427 Z-2.002
G2 X-56.202 Y106.427 Z-2.009 I-1 J0
G1 X-59.152 Z-2.022
G2 X-60.147 Y107.327 Z-2.028 I0 J1
G1 X-70.157 Z-2.072
G2 X-71.152 Y106.427 Z-2.078 I-0.995 J0.1
G1 X-74.102 Z-2.091
G2 X-75.102 Y107.427 Z-2.098 I0 J1
G1 Y109.227 Z-2.106
G2 X-74.102 Y110.227 Z-2.113 I1 J0
G1 X-73.852 Z-2.114
Y110.427 Z-2.115
X-76.452 Z-2.127
Y110.227
X-76.202 Z-2.128
G2 X-75.202 Y109.227 Z-2.135 I0 J-1
G1 Y107.427 Z-2.143
G2 X-76.202 Y106.427 Z-2.15 I-1 J0
G1 X-79.152 Z-2.163
G2 X-80.147 Y107.327 Z-2.17 I0 J1
G1 X-80.652 Z-2.172
G2 X-81.652 Y108.327 Z-2.179 I0 J1
G1 Y116.927 Z-2.216
G2 X-77.252 Y121.327 Z-2.247 I4.4 J0
G1 X-53.052 Z-2.353
G2 X-48.652 Y116.927 Z-2.384 I0 J-4.4
G1 Y108.327 Z-2.421
G2 X-49.652 Y107.327 Z-2.428 I-1 J0
G1 X-50.157 Z-2.43
G2 X-51.152 Y106.427 Z-2.437 I-0.995 J0.1
G1 X-54.102 Z-2.45
G2 X-55.102 Y107.427 Z-2.457 I0 J1
G1 Y109.227 Z-2.465
G2 X-54.102 Y110.227 Z-2.472 I1 J0
G1 X-53.852 Z-2.473
Y110.427
X-56.452 Z-2.485
Y110.227 Z-2.486
X-56.202 Z-2.487
G2 X-55.202 Y109.227 Z-2.494 I0 J-1
G1 Y107.427 Z-2.502
G2 X-56.202 Y106.427 Z-2.509 I-1 J0
G1 X-59.152 Z-2.522
G2 X-60.147 Y107.327 Z-2.528 I0 J1
G1 X-70.157 Z-2.572
G2 X-71.152 Y106.427 Z-2.578 I-0.995 J0.1
G1 X-74.102 Z-2.591
G2 X-75.102 Y107.427 Z-2.598 I0 J1
G1 Y109.227 Z-2.606
G2 X-74.102 Y110.227 Z-2.613 I1 J0
G1 X-73.852 Z-2.614
Y110.427 Z-2.615
X-76.452 Z-2.627
Y110.227
X-76.202 Z-2.628
G2 X-75.202 Y109.227 Z-2.635 I0 J-1
G1 Y107.427 Z-2.643
G2 X-76.202 Y106.427 Z-2.65 I-1 J0
G1 X-79.152 Z-2.663
G2 X-80.147 Y107.327 Z-2.67 I0 J1
G1 X-80.652 Z-2.672
G2 X-81.652 Y108.327 Z-2.679 I0 J1
G1 Y116.927 Z-2.716
G2 X-77.252 Y121.327 Z-2.747 I4.4 J0
G1 X-53.052 Z-2.853
G2 X-48.652 Y116.927 Z-2.884 I0 J-4.4
G1 Y108.327 Z-2.921
G2 X-49.652 Y107.327 Z-2.928 I-1 J0
G1 X-50.157 Z-2.93
G2 X-51.152 Y106.427 Z-2.937 I-0.995 J0.1
G1 X-54.102 Z-2.95
G2 X-55.102 Y107.427 Z-2.957 I0 J1
G1 Y109.227 Z-2.965
G2 X-54.102 Y110.227 Z-2.972 I1 J0
G1 X-53.852 Z-2.973
Y110.427
X-56.452 Z-2.985
Y110.227 Z-2.986
X-56.202 Z-2.987
G2 X-55.202 Y109.227 Z-2.994 I0 J-1
G1 Y107.427 Z-3.002
G2 X-56.202 Y106.427 Z-3.009 I-1 J0
G1 X-59.152 Z-3.022
G2 X-60.147 Y107.327 Z-3.028 I0 J1
G1 X-70.157 Z-3.072
G2 X-71.152 Y106.427 Z-3.078 I-0.995 J0.1
G1 X-74.102 Z-3.091
G2 X-75.102 Y107.427 Z-3.098 I0 J1
G1 Y109.227 Z-3.106
G2 X-74.102 Y110.227 Z-3.113 I1 J0
G1 X-73.852 Z-3.114
Y110.427 Z-3.115
X-76.452 Z-3.127
Y110.227
X-76.202 Z-3.128
G2 X-75.202 Y109.227 Z-3.135 I0 J-1
G1 Y107.427 Z-3.143
G2 X-76.202 Y106.427 Z-3.15 I-1 J0
G1 X-79.152 Z-3.163
G2 X-80.147 Y107.327 Z-3.17 I0 J1
G1 X-80.652 Z-3.172
G2 X-81.652 Y108.327 Z-3.179 I0 J1
G1 Y116.927 Z-3.216
G2 X-77.252 Y121.327 Z-3.247 I4.4 J0
G1 X-65.152 Z-3.3
X-53.052
G2 X-48.652 Y116.927 I0 J-4.4
G1 Y108.327
G2 X-49.652 Y107.327 I-1 J0
G1 X-50.157
G2 X-51.152 Y106.427 I-0.995 J0.1
G1 X-54.102
G2 X-55.102 Y107.427 I0 J1
G1 Y109.227
G2 X-54.102 Y110.227 I1 J0
G1 X-53.852
Y110.427
X-56.452
Y110.227
X-56.202
G2 X-55.202 Y109.227 I0 J-1
G1 Y107.427
G2 X-56.202 Y106.427 I-1 J0
G1 X-59.152
G2 X-60.147 Y107.327 I0 J1
G1 X-70.157
G2 X-71.152 Y106.427 I-0.995 J0.1
G1 X-74.102
G2 X-75.102 Y107.427 I0 J1
G1 Y109.227
G2 X-74.102 Y110.227 I1 J0
G1 X-73.852
Y110.427
X-76.452
Y110.227
X-76.202
G2 X-75.202 Y109.227 I0 J-1
G1 Y107.427
G2 X-76.202 Y106.427 I-1 J0
G1 X-79.152
G2 X-80.147 Y107.327 I0 J1
G1 X-80.652
G2 X-81.652 Y108.327 I0 J1
G1 Y116.927
G2 X-77.252 Y121.327 I4.4 J0
G1 X-65.152
G0 Z15

M9
M30
