(06 1MM FLAT FINE CONTOURS)
(T10  D=1 CR=0 - ZMIN=-3.3 - FLAT END MILL)
G90 G94 G91.1 G40 G49 G17
G21

(06 1MM FLAT FINE CONTOURS)
M5
M9
T10
(DIAMOND OR SPIRAL)
S20000 M3
G54
M8
G0 X-74.232 Y91.477
G43 Z15 H1
Z2
G1 Z0.1 F50
X-78.702 Z-0.021 F500
Y89.377 Z-0.079
X-71.602 Z-0.271
Y91.477 Z-0.329
X-78.702 Z-0.521
Y89.377 Z-0.579
X-71.602 Z-0.771
Y91.477 Z-0.829
X-78.702 Z-1.021
Y89.377 Z-1.079
X-71.602 Z-1.271
Y90.427 Z-1.3
Y91.477
X-78.702
Y89.377
X-71.602
Y90.427
G0 Z5
X-58.172 Y89.377
Z2
G1 Z0.1 F50
X-51.602 Z-0.079 F500
Y91.477 Z-0.136
X-58.702 Z-0.329
Y89.377 Z-0.386
X-51.602 Z-0.579
Y91.477 Z-0.636
X-58.702 Z-0.829
Y89.377 Z-0.886
X-51.602 Z-1.079
Y91.477 Z-1.136
X-57.652 Z-1.3
X-58.702
Y89.377
X-51.602
Y91.477
X-57.652
G0 Z15
X-62.601 Y8.539
Z2
G1 Z0.1 F50
X-60.552 Z0.059 F500
Y12.659 Z-0.023
X-68.485 Z-0.18
X-69.752 Y11.392 Z-0.216
Y9.806 Z-0.247
X-68.485 Y8.539 Z-0.283
X-60.552 Z-0.441
Y12.659 Z-0.523
X-68.485 Z-0.68
X-69.752 Y11.392 Z-0.716
Y9.806 Z-0.747
X-68.485 Y8.539 Z-0.783
X-60.552 Z-0.941
Y12.659 Z-1.023
X-68.485 Z-1.18
X-69.752 Y11.392 Z-1.216
Y9.806 Z-1.247
X-68.485 Y8.539 Z-1.283
X-60.552 Z-1.441
Y12.659 Z-1.523
X-68.485 Z-1.68
X-69.752 Y11.392 Z-1.716
Y9.806 Z-1.747
X-68.485 Y8.539 Z-1.783
X-60.552 Z-1.941
Y12.659 Z-2.023
X-68.485 Z-2.18
X-69.752 Y11.392 Z-2.216
Y9.806 Z-2.247
X-68.485 Y8.539 Z-2.283
X-60.552 Z-2.441
Y12.659 Z-2.523
X-68.485 Z-2.68
X-69.752 Y11.392 Z-2.716
Y9.806 Z-2.747
X-68.485 Y8.539 Z-2.783
X-60.552 Z-2.941
Y12.659 Z-3.023
X-68.485 Z-3.18
X-69.752 Y11.392 Z-3.216
Y9.806 Z-3.247
X-68.485 Y8.539 Z-3.283
X-67.632 Z-3.3
X-60.552
Y12.659
X-68.485
X-69.752 Y11.392
Y9.806
X-68.485 Y8.539
X-67.632
G0 Z15

M9
M30
