(07 4MM CHAMFER)
(T49  D=4 CR=0 TAPER=45DEG - ZMIN=-2.3 - CHAMFER MILL)
G90 G94 G91.1 G40 G49 G17
G21

(07 4MM CHAMFER)
M5
M9
T49
(4 FLUTE FISH)
S20000 M3
G54
M8
G0 X-78.652 Y13.377
G43 Z15 H26
Z5
G98 G81 X-78.652 Y13.377 Z-2.3 R1 F30
X-75.152 Y25.877
X-55.152
X-51.652 Y13.377
X-55.152 Y45.877
X-51.652 Y58.377
X-55.152 Y66.102
X-75.152
X-78.652 Y58.377
X-75.152 Y45.877
X-54.152 Y96.427
X-55.152 Y86.102
X-75.152
X-76.152 Y96.427
Y117.027
X-54.152
G80
Z15

M9
M30
