(08 1.6MM DRILL WASTEBOARD)
(T53  D=1.6 CR=0 TAPER=118DEG - ZMIN=-10 - DRILL)
G90 G94 G91.1 G40 G49 G17
G21

(08 1.6MM DRILL WASTEBOARD)
M5
M9
T53
(DIAMOND OR SPIRAL)
S20000 M3
G54
M8
G0 X-4.863 Y4
G43 Z12 H1
Z2
G98 G81 X-4.863 Y4 Z-10 R1 F200
X-13.304 Y4.863
X-12.441 Y13.304
X-4 Y12.441
X-4.863 Y112.754
X-13.304 Y111.891
X-12.441 Y103.45
X-4 Y104.313
X-55.152 Y90.427
X-75.152
X-117.863 Y103.45
X-126.304 Y104.313
X-125.441 Y112.754
X-117 Y111.891
X-126.304 Y12.441
X-117.863 Y13.304
X-117 Y4.863
X-125.441 Y4
G80
Z12

M9
M30
