(01 2MM FLAT POCKETS)
(T11  D=2 CR=0 - ZMIN=-1 - FLAT END MILL)
G90 G94 G91.1 G40 G49 G17
G21

(01 2MM FLAT POCKETS)
M5
M9
T11
(DIAMOND OR SPIRAL)
S20000 M3
G54
M8
G0 X-76.202 Y95.707
G43 Z15 H1
Z2
G1 Z0.1 F100
Y93.377 Z0.006 F1000
X-76.102 Z0.002
Y99.477 Z-0.244
X-76.202 Z-0.248
Y93.377 Z-0.494
X-76.102 Z-0.498
Y99.477 Z-0.744
X-76.202 Z-0.748
Y93.377 Z-0.994
X-76.102 Z-0.998
Y93.427 Z-1
Y99.477
X-76.202
Y93.377
X-76.102
Y93.427
G0 Z5
X-76.052 Y117.987
Z2
G1 Z0.1 F100
Y120.527 Z-0.004 F1000
X-76.252 Z-0.012
Y114.627 Z-0.254
X-76.052 Z-0.262
Y120.527 Z-0.504
X-76.252 Z-0.512
Y114.627 Z-0.754
X-76.052 Z-0.762
Y120.427 Z-1
Y120.527
X-76.252
Y114.627
X-76.052
Y120.427
G0 Z5
X-54.052 Y117.987
Z2
G1 Z0.1 F100
Y120.527 Z-0.004 F1000
X-54.252 Z-0.012
Y114.627 Z-0.254
X-54.052 Z-0.262
Y120.527 Z-0.504
X-54.252 Z-0.512
Y114.627 Z-0.754
X-54.052 Z-0.762
Y120.427 Z-1
Y120.527
X-54.252
Y114.627
X-54.052
Y120.427
G0 Z5
X-54.102 Y96.947
Z2
G1 Z0.1 F100
Y99.477 Z-0.002 F1000
X-54.202 Z-0.006
Y93.377 Z-0.252
X-54.102 Z-0.256
Y99.477 Z-0.502
X-54.202 Z-0.506
Y93.377 Z-0.752
X-54.102 Z-0.756
Y99.427 Z-1
Y99.477
X-54.202
Y93.377
X-54.102
Y99.427
G0 Z15

M9
M30
