(02 1MM FLAT FINE CONTOURS)
(T10  D=1 CR=0 - ZMIN=-1 - FLAT END MILL)
G90 G94 G91.1 G40 G49 G17
G21

(02 1MM FLAT FINE CONTOURS)
M5
M9
T10
(DIAMOND OR SPIRAL)
S20000 M3
G54
M8
G0 X-76.702 Y94.507
G43 Z15 H1
Z2
G1 Z0.1 F50
Y92.877 Z0.05 F500
X-75.602 Z0.017
Y99.977 Z-0.2
X-76.702 Z-0.233
Y92.877 Z-0.45
X-75.602 Z-0.483
Y99.977 Z-0.7
X-76.702 Z-0.733
Y92.877 Z-0.95
X-75.602 Z-0.983
Y93.427 Z-1
Y99.977
X-76.702
Y92.877
X-75.602
Y93.427
G0 Z5
X-75.552 Y119.587
Z2
G1 Z0.1 F50
Y121.027 Z0.056 F500
X-76.752 Z0.019
Y114.127 Z-0.194
X-75.552 Z-0.231
Y121.027 Z-0.444
X-76.752 Z-0.481
Y114.127 Z-0.694
X-75.552 Z-0.731
Y121.027 Z-0.944
X-76.752 Z-0.981
Y120.427 Z-1
Y114.127
X-75.552
Y121.027
X-76.752
Y120.427
G0 Z5
X-53.552 Y119.587
Z2
G1 Z0.1 F50
Y121.027 Z0.056 F500
X-54.752 Z0.019
Y114.127 Z-0.194
X-53.552 Z-0.231
Y121.027 Z-0.444
X-54.752 Z-0.481
Y114.127 Z-0.694
X-53.552 Z-0.731
Y121.027 Z-0.944
X-54.752 Z-0.981
Y120.427 Z-1
Y114.127
X-53.552
Y121.027
X-54.752
Y120.427
G0 Z5
X-53.602 Y97.247
Z2
G1 Z0.1 F50
Y99.977 Z0.017 F500
X-54.702 Z-0.017
Y92.877 Z-0.233
X-53.602 Z-0.267
Y99.977 Z-0.483
X-54.702 Z-0.517
Y92.877 Z-0.733
X-53.602 Z-0.767
Y99.977 Z-0.983
X-54.152 Z-1
X-54.702
Y92.877
X-53.602
Y99.977
X-54.152
G0 Z15

M9
M30
