(01 2MM FLAT CONTOUR)
(T11  D=2 CR=0 - ZMIN=-3.95 - FLAT END MILL)
G90 G94 G91.1 G40 G49 G17
G21

(01 2MM FLAT CONTOUR)
M5
M9
T11
(DIAMOND OR SPIRAL)
S20000 M3
G54
M8
G0 X1 Y2.091
G43 Z15 H1
Z2
G1 Z0.5 F100
Y1.75 Z0.495 F1000
G2 X-3.695 Y-0.195 Z0.407 I-2.75 J0
G1 X-7.695 Y3.805 Z0.33
G2 Y7.695 Z0.27 I1.945 J1.945
G1 X-3.695 Y11.695 Z0.193
G2 X1 Y9.75 Z0.105 I1.945 J-1.945
G1 Y1.75 Z-0.005
G2 X-3.695 Y-0.195 Z-0.093 I-2.75 J0
G1 X-7.695 Y3.805 Z-0.17
G2 Y7.695 Z-0.23 I1.945 J1.945
G1 X-3.695 Y11.695 Z-0.307
G2 X1 Y9.75 Z-0.395 I1.945 J-1.945
G1 Y1.75 Z-0.505
G2 X-3.695 Y-0.195 Z-0.593 I-2.75 J0
G1 X-7.695 Y3.805 Z-0.67
G2 Y7.695 Z-0.73 I1.945 J1.945
G1 X-3.695 Y11.695 Z-0.807
G2 X1 Y9.75 Z-0.895 I1.945 J-1.945
G1 Y1.75 Z-1.005
G2 X-3.695 Y-0.195 Z-1.093 I-2.75 J0
G1 X-7.695 Y3.805 Z-1.17
G2 Y7.695 Z-1.23 I1.945 J1.945
G1 X-3.695 Y11.695 Z-1.307
G2 X1 Y9.75 Z-1.395 I1.945 J-1.945
G1 Y1.75 Z-1.505
G2 X-3.695 Y-0.195 Z-1.593 I-2.75 J0
G1 X-7.695 Y3.805 Z-1.67
G2 Y7.695 Z-1.73 I1.945 J1.945
G1 X-3.695 Y11.695 Z-1.807
G2 X1 Y9.75 Z-1.895 I1.945 J-1.945
G1 Y1.75 Z-2.005
G2 X-3.695 Y-0.195 Z-2.093 I-2.75 J0
G1 X-7.695 Y3.805 Z-2.17
G2 Y7.695 Z-2.23 I1.945 J1.945
G1 X-3.695 Y11.695 Z-2.307
G2 X1 Y9.75 Z-2.395 I1.945 J-1.945
G1 Y1.75 Z-2.505
G2 X-3.695 Y-0.195 Z-2.593 I-2.75 J0
G1 X-7.695 Y3.805 Z-2.67
G2 Y7.695 Z-2.73 I1.945 J1.945
G1 X-3.695 Y11.695 Z-2.807
G2 X1 Y9.75 Z-2.895 I1.945 J-1.945
G1 Y1.75 Z-3.005
G2 X-3.695 Y-0.195 Z-3.093 I-2.75 J0
G1 X-7.695 Y3.805 Z-3.17
G2 Y7.695 Z-3.23 I1.945 J1.945
G1 X-3.695 Y11.695 Z-3.307
G2 X1 Y9.75 Z-3.395 I1.945 J-1.945
G1 Y1.75 Z-3.505
G2 X-3.695 Y-0.195 Z-3.593 I-2.75 J0
G1 X-7.695 Y3.805 Z-3.67
G2 Y7.695 Z-3.73 I1.945 J1.945
G1 X-3.695 Y11.695 Z-3.807
G2 X1 Y9.75 Z-3.895 I1.945 J-1.945
G1 Y5.75 Z-3.95
Y1.75
G2 X-3.695 Y-0.195 I-2.75 J0
G1 X-7.695 Y3.805
G2 Y7.695 I1.945 J1.945
G1 X-3.695 Y11.695
G2 X1 Y9.75 I1.945 J-1.945
G1 Y5.75
G0 Z15

M9
M30
