(01 TOP 2MM FLAT DRILL HOLES TO BASE)
(T11  D=2 CR=0 - ZMIN=-4 - FLAT END MILL)
G90 G94 G91.1 G40 G49 G17
G21

(01 TOP 2MM FLAT DRILL HOLES TO BASE)
M5
M9
T11
(DIAMOND OR SPIRAL)
S20000 M3
G54
M8
G0 X-6 Y35.9
G43 Z15 H1
Z5
G98 G81 X-6 Y35.9 Z-4 R-2 F100
X-7 Y22.9
G80
X-5.5 Y10.6 Z5
G81 X-5.5 Y10.6 Z-4 R-1 F100
X-27.5
G80
X-27 Y22.9 Z5
G81 X-27 Y22.9 Z-4 R-2 F100
X-17 Y20.4
Y26.4
Y32.4
Y38.4
X-28 Y35.9
G80
Z15

M9
M30
