(01 2MM FLAT DRILL HOLES TO BASE)
(T11  D=2 CR=0 - ZMIN=-3.5 - FLAT END MILL)
G90 G94 G91.1 G40 G49 G17
G21

(01 TOP 2MM FLAT DRILL HOLES TO BASE)
M5
M9
T11
(DIAMOND OR SPIRAL)
S20000 M3
G54
M8
G0 X-6 Y10.6
G43 Z7 H1
Z2
G98 G81 X-6 Y10.6 Z-3.5 R1 F100
X-7 Y22.9
X-6 Y35.9
X-17 Y36.9
X-28 Y35.9
X-27 Y22.9
X-28 Y10.6
G80
Z7

M9
M30
