(01 2MM FLAT DRILL HOLES TO BASE)
(T11  D=2 CR=0 - ZMIN=-1 - FLAT END MILL)
G90 G94 G91.1 G40 G49 G17
G21

(02 TOP 2MM FLAT POCKETS)
M5
M9
T11
(DIAMOND OR SPIRAL)
S20000 M3
G54
M8
G0 X-17.889 Y37.235
G43 Z15 H1
Z2
G1 Z0.5 F500
G3 X-16.111 Y36.565 Z0.344 I0.889 J-0.335 F1000
X-17.889 Y37.235 Z0.187 I-0.889 J0.335
X-16.111 Y36.565 Z0.031 I0.889 J-0.335
X-17.889 Y37.235 Z-0.126 I-0.889 J0.335
X-16.111 Y36.565 Z-0.282 I0.889 J-0.335
X-16.05 Y36.9 Z-0.3 I-0.889 J0.335
X-16.1 I-0.025 J0
X-16 I0.05 J0
X-18 I-1 J0
X-16 I1 J0
G0 Z5
X-6.889 Y10.935
Z2
G1 Z0.5 F500
G3 X-5.111 Y10.265 Z0.344 I0.889 J-0.335 F1000
X-6.889 Y10.935 Z0.187 I-0.889 J0.335
X-5.111 Y10.265 Z0.031 I0.889 J-0.335
X-6.889 Y10.935 Z-0.126 I-0.889 J0.335
X-5.111 Y10.265 Z-0.282 I0.889 J-0.335
X-5.05 Y10.6 Z-0.3 I-0.889 J0.335
X-5.1 I-0.025 J0
X-5 I0.05 J0
X-7 I-1 J0
X-5 I1 J0
G0 Z5
X-28.889 Y10.935
Z2
G1 Z0.5 F500
G3 X-27.111 Y10.265 Z0.344 I0.889 J-0.335 F1000
X-28.889 Y10.935 Z0.187 I-0.889 J0.335
X-27.111 Y10.265 Z0.031 I0.889 J-0.335
X-28.889 Y10.935 Z-0.126 I-0.889 J0.335
X-27.111 Y10.265 Z-0.282 I0.889 J-0.335
X-27.05 Y10.6 Z-0.3 I-0.889 J0.335
X-27.1 I-0.025 J0
X-27 I0.05 J0
X-29 I-1 J0
X-27 I1 J0
G0 Z15
X-5.9 Y32.89
Z2
G1 Z0.5 F500
Y39 Z0.261 F1000
X-6.1 Z0.254
Y32.8 Z0.011
X-5.9 Z0.004
Y39 Z-0.239
X-6.1 Z-0.246
Y32.8 Z-0.489
X-5.9 Z-0.496
Y39 Z-0.739
X-6.1 Z-0.746
Y32.8 Z-0.989
X-5.9 Z-0.996
Y32.89 Z-1
Y39
X-6.1
Y32.8
X-5.9
Y32.89
G0 Z5
X-3.9 Y23.09
Z2
G1 Z0.5 F500
Y23.5 Z0.486 F1000
X-10.1 Z0.277
Y22.3 Z0.236
X-3.9 Z0.027
Y23.5 Z-0.014
X-10.1 Z-0.223
Y22.3 Z-0.264
X-3.9 Z-0.473
Y23.5 Z-0.514
X-10.1 Z-0.723
Y22.3 Z-0.764
X-3.9 Z-0.973
Y23.09 Z-1
Y23.5
X-10.1
Y22.3
X-3.9
Y23.09
G0 Z5
X-29.69 Y23.5
Z2
G1 Z0.5 F500
X-30.1 Z0.486 F1000
Y22.3 Z0.446
X-23.9 Z0.236
Y23.5 Z0.196
X-30.1 Z-0.014
Y22.3 Z-0.054
X-23.9 Z-0.264
Y23.5 Z-0.304
X-30.1 Z-0.514
Y22.3 Z-0.554
X-23.9 Z-0.764
Y23.5 Z-0.804
X-29.69 Z-1
X-30.1
Y22.3
X-23.9
Y23.5
X-29.69
G0 Z5
X-27.9 Y33.09
Z2
G1 Z0.5 F500
Y39 Z0.269 F1000
X-28.1 Z0.261
Y32.8 Z0.019
X-27.9 Z0.011
Y39 Z-0.231
X-28.1 Z-0.239
Y32.8 Z-0.481
X-27.9 Z-0.489
Y39 Z-0.731
X-28.1 Z-0.739
Y32.8 Z-0.981
X-27.9 Z-0.989
Y33.09 Z-1
Y39
X-28.1
Y32.8
X-27.9
Y33.09
G0 Z15

M9
M30
