(01 2MM FLAT DRILL HOLES TO BASE)
(T11  D=2 CR=0 - ZMIN=-3.25 - FLAT END MILL)
G90 G94 G91.1 G40 G49 G17
G21

(03 TOP 2MM SLOTS)
M5
M9
T11
(DIAMOND OR SPIRAL)
S20000 M3
G54
M8
G0 X-11.5 Y7.4
G43 Z15 H1
Z1
G1 Z0.5 F500
X-9.5 Z0.33 F1000
X-11.5 Z0.159
X-9.5 Z-0.011
X-11.5 Z-0.182
X-9.5 Z-0.352
X-11.5 Z-0.523
X-9.5 Z-0.693
X-11.5 Z-0.864
X-9.5 Z-1.034
X-11.5 Z-1.205
X-9.5 Z-1.375
X-11.5 Z-1.545
X-9.5 Z-1.716
X-11.5 Z-1.886
X-9.5 Z-2.057
X-11.5 Z-2.227
X-9.5 Z-2.398
X-11.5 Z-2.568
X-9.5 Z-2.739
X-11.5 Z-2.909
X-9.5 Z-3.08
X-11.5 Z-3.25
X-9.5
G0 Z5
X-23.5
Z1
G1 Z0.5 F500
X-21.5 Z0.33 F1000
X-23.5 Z0.159
X-21.5 Z-0.011
X-23.5 Z-0.182
X-21.5 Z-0.352
X-23.5 Z-0.523
X-21.5 Z-0.693
X-23.5 Z-0.864
X-21.5 Z-1.034
X-23.5 Z-1.205
X-21.5 Z-1.375
X-23.5 Z-1.545
X-21.5 Z-1.716
X-23.5 Z-1.886
X-21.5 Z-2.057
X-23.5 Z-2.227
X-21.5 Z-2.398
X-23.5 Z-2.568
X-21.5 Z-2.739
X-23.5 Z-2.909
X-21.5 Z-3.08
X-23.5 Z-3.25
X-21.5
G0 Z15

M9
M30
