(01 2MM FLAT DRILL HOLES TO BASE)
(T11  D=2 CR=0 - ZMIN=-3.25 - FLAT END MILL)
G90 G94 G91.1 G40 G49 G17
G21

(03 TOP 2MM SLOTS)
M5
M9
T11
(DIAMOND OR SPIRAL)
S20000 M3
G54
M8
G0 X-12 Y7.4
G43 Z15 H1
Z1
G1 Z0.5 F500
X-10 Z0.33 F1000
X-12 Z0.159
X-10 Z-0.011
X-12 Z-0.182
X-10 Z-0.352
X-12 Z-0.523
X-10 Z-0.693
X-12 Z-0.864
X-10 Z-1.034
X-12 Z-1.205
X-10 Z-1.375
X-12 Z-1.545
X-10 Z-1.716
X-12 Z-1.886
X-10 Z-2.057
X-12 Z-2.227
X-10 Z-2.398
X-12 Z-2.568
X-10 Z-2.739
X-12 Z-2.909
X-10 Z-3.08
X-12 Z-3.25
X-10
G0 Z5
X-24
Z1
G1 Z0.5 F500
X-22 Z0.33 F1000
X-24 Z0.159
X-22 Z-0.011
X-24 Z-0.182
X-22 Z-0.352
X-24 Z-0.523
X-22 Z-0.693
X-24 Z-0.864
X-22 Z-1.034
X-24 Z-1.205
X-22 Z-1.375
X-24 Z-1.545
X-22 Z-1.716
X-24 Z-1.886
X-22 Z-2.057
X-24 Z-2.227
X-22 Z-2.398
X-24 Z-2.568
X-22 Z-2.739
X-24 Z-2.909
X-22 Z-3.08
X-24 Z-3.25
X-22
G0 Z15

M9
M30
