(01 2MM FLAT DRILL HOLES TO BASE)
(T49  D=4 CR=0 TAPER=45DEG - ZMIN=-2.4 - CHAMFER MILL)
G90 G94 G91.1 G40 G49 G17
G21

(04 TOP 4MM CHAMFERS)
M5
M9
T49
(4 FLUTE FISH)
S14000 M3
G54
M8
G0 X-17 Y38.4
G43 Z15 H26
Z5
G98 G81 X-17 Y38.4 Z-2.1 R0.4 F30
G80
Y32.4 Z5
G81 X-17 Y32.4 Z-2.2 R0.3 F30
G80
Y26.4 Z5
G81 X-17 Y26.4 Z-2.3 R0.2 F30
G80
Y20.4 Z5
G81 X-17 Y20.4 Z-2.4 R0.1 F30
G80
X-27.5 Y10.6 Z5
G81 X-27.5 Y10.6 Z-2.3 R0.2 F30
X-5.5
G80
Z15

M9
M30
