(01 2MM FLAT DRILL HOLES TO BASE)
(T11  D=2 CR=0 - ZMIN=-3.25 - FLAT END MILL)
G90 G94 G91.1 G40 G49 G17
G21

(04 TOP 2MM FLAT CONTOUR)
M5
M9
T11
(DIAMOND OR SPIRAL)
S20000 M3
G54
M8
G0 X-20.5 Y26.4
G43 Z5 H1
Z2
G1 Z0.5 F100
X-10.5 Z0.368 F1000
Y32.4 Z0.289
X-23.5 Z0.118
Y26.4 Z0.039
X-10.5 Z-0.132
Y32.4 Z-0.211
X-23.5 Z-0.382
Y26.4 Z-0.461
X-10.5 Z-0.632
Y32.4 Z-0.711
X-23.5 Z-0.882
Y26.4 Z-0.961
X-10.5 Z-1.132
Y32.4 Z-1.211
X-23.5 Z-1.382
Y26.4 Z-1.461
X-10.5 Z-1.632
Y32.4 Z-1.711
X-23.5 Z-1.882
Y26.4 Z-1.961
X-10.5 Z-2.132
Y32.4 Z-2.211
X-23.5 Z-2.382
Y26.4 Z-2.461
X-10.5 Z-2.632
Y32.4 Z-2.711
X-23.5 Z-2.882
Y26.4 Z-2.961
X-10.5 Z-3.132
Y32.4 Z-3.211
X-13.5 Z-3.25
X-23.5
Y26.4
X-10.5
Y32.4
X-13.5
G0 Z5

M9
M30
