(06 BOTTOM 2MM POCKETS)
(T11  D=2 CR=0 - ZMIN=-1 - FLAT END MILL)
G90 G94 G91.1 G40 G49 G17
G21

(06 BOTTOM 2MM POCKETS)
M5
M9
T11
(DIAMOND OR SPIRAL)
S20000 M3
G54
M8
G0 X-27.4 Y8.49
G43 Z15 H1
Z2
G1 Z0.5 F500
Y12.9 Z0.275 F1000
X-27.6 Z0.265
Y8.2 Z0.025
X-27.4 Z0.015
Y12.9 Z-0.225
X-27.6 Z-0.235
Y8.2 Z-0.475
X-27.4 Z-0.485
Y12.9 Z-0.725
X-27.6 Z-0.735
Y8.2 Z-0.975
X-27.4 Z-0.985
Y8.49 Z-1
Y12.9
X-27.6
Y8.2
X-27.4
Y8.49
G0 Z5
X-5.49 Y12.9
Z2
G1 Z0.5 F500
X-5.6 Z0.494 F1000
Y8.2 Z0.255
X-5.4 Z0.244
Y12.9 Z0.005
X-5.6 Z-0.006
Y8.2 Z-0.245
X-5.4 Z-0.256
Y12.9 Z-0.495
X-5.6 Z-0.506
Y8.2 Z-0.745
X-5.4 Z-0.756
Y12.9 Z-0.995
X-5.49 Z-1
X-5.6
Y8.2
X-5.4
Y12.9
X-5.49
G0 Z15

M9
M30
