(01 2MM FLAT DRILL HOLES TO BASE)
(T11  D=2 CR=0 - ZMIN=-8 - FLAT END MILL)
G90 G94 G91.1 G40 G49 G17
G21

(06 TOP 1.5MM DRILL WASTEBOARD)
M5
M9
T11
(DIAMOND OR SPIRAL)
S20000 M3
G54
M8
G0 X-28 Y35.9
G43 Z2 H1
G98 G81 X-28 Y35.9 Z-8 R1 F300
X-17 Y36.9
X-6 Y35.9
X-7 Y22.9
X-6 Y10.6
X-10 Y7.4
X-24
X-28 Y10.6
X-27 Y22.9
G80
Z2

M9
M30
