(07 BOTTOM 2MM FLAT CONTOURS)
(T11  D=2 CR=0 - ZMIN=-3.25 - FLAT END MILL)
G90 G94 G91.1 G40 G49 G17
G21

(07 BOTTOM 2MM FLAT CONTOURS)
M5
M9
T11
(DIAMOND OR SPIRAL)
S20000 M3
G54
M8
G0 X1 Y37.35
G43 Z5 H1
Z2
G1 Z0.5 F100
Y18.9 Z0.421 F1000
G2 X-2 Y15.9 Z0.401 I-3 J0
G1 X-30 Z0.281
G2 X-33 Y18.9 Z0.261 I0 J3
G1 Y39.9 Z0.171
G2 X-30 Y42.9 Z0.151 I3 J0
G1 X-2 Z0.031
G2 X1 Y39.9 Z0.011 I0 J-3
G1 Y18.9 Z-0.079
G2 X-2 Y15.9 Z-0.099 I-3 J0
G1 X-30 Z-0.219
G2 X-33 Y18.9 Z-0.239 I0 J3
G1 Y39.9 Z-0.329
G2 X-30 Y42.9 Z-0.349 I3 J0
G1 X-2 Z-0.469
G2 X1 Y39.9 Z-0.489 I0 J-3
G1 Y18.9 Z-0.579
G2 X-2 Y15.9 Z-0.599 I-3 J0
G1 X-30 Z-0.719
G2 X-33 Y18.9 Z-0.739 I0 J3
G1 Y39.9 Z-0.829
G2 X-30 Y42.9 Z-0.849 I3 J0
G1 X-2 Z-0.969
G2 X1 Y39.9 Z-0.989 I0 J-3
G1 Y18.9 Z-1.079
G2 X-2 Y15.9 Z-1.099 I-3 J0
G1 X-30 Z-1.219
G2 X-33 Y18.9 Z-1.239 I0 J3
G1 Y39.9 Z-1.329
G2 X-30 Y42.9 Z-1.349 I3 J0
G1 X-2 Z-1.469
G2 X1 Y39.9 Z-1.489 I0 J-3
G1 Y18.9 Z-1.579
G2 X-2 Y15.9 Z-1.599 I-3 J0
G1 X-30 Z-1.719
G2 X-33 Y18.9 Z-1.739 I0 J3
G1 Y39.9 Z-1.829
G2 X-30 Y42.9 Z-1.849 I3 J0
G1 X-2 Z-1.969
G2 X1 Y39.9 Z-1.989 I0 J-3
G1 Y18.9 Z-2.079
G2 X-2 Y15.9 Z-2.099 I-3 J0
G1 X-30 Z-2.219
G2 X-33 Y18.9 Z-2.239 I0 J3
G1 Y39.9 Z-2.329
G2 X-30 Y42.9 Z-2.349 I3 J0
G1 X-2 Z-2.469
G2 X1 Y39.9 Z-2.489 I0 J-3
G1 Y18.9 Z-2.579
G2 X-2 Y15.9 Z-2.599 I-3 J0
G1 X-30 Z-2.719
G2 X-33 Y18.9 Z-2.739 I0 J3
G1 Y39.9 Z-2.829
G2 X-30 Y42.9 Z-2.849 I3 J0
G1 X-2 Z-2.969
G2 X1 Y39.9 Z-2.989 I0 J-3
G1 Y18.9 Z-3.079
G2 X-2 Y15.9 Z-3.099 I-3 J0
G1 X-30 Z-3.219
G2 X-33 Y18.9 Z-3.239 I0 J3
G1 Y21.45 Z-3.25
Y39.9
G2 X-30 Y42.9 I3 J0
G1 X-2
G2 X1 Y39.9 I0 J-3
G1 Y18.9
G2 X-2 Y15.9 I-3 J0
G1 X-30
G2 X-33 Y18.9 I0 J3
G1 Y21.45
G0 Z5
X-6.066 Y3.788
Z2
G1 Z0.5 F100
G2 X-5.45 Y4 Z0.497 I0.616 J-0.788 F1000
G1 X-5.2 Z0.496
Y4.2 Z0.495
X-7.8 Z0.484
Y4 Z0.483
X-7.55 Z0.482
G2 X-6.55 Y3 Z0.475 I0 J-1
G1 Y1 Z0.466
G2 X-7.55 Y0 Z0.459 I-1 J0
G1 X-10.5 Z0.447
G2 X-11.495 Y0.9 Z0.44 I0 J1
G1 X-21.505 Z0.396
G2 X-22.5 Y0 Z0.39 I-0.995 J0.1
G1 X-25.45 Z0.377
G2 X-26.45 Y1 Z0.37 I0 J1
G1 Y3 Z0.362
G2 X-25.45 Y4 Z0.355 I1 J0
G1 X-25.2 Z0.354
Y4.2 Z0.353
X-27.8 Z0.341
Y4
X-27.55 Z0.339
G2 X-26.55 Y3 Z0.333 I0 J-1
G1 Y1 Z0.324
G2 X-27.55 Y0 Z0.317 I-1 J0
G1 X-30.5 Z0.304
G2 X-31.495 Y0.9 Z0.298 I0 J1
G1 X-32 Z0.296
G2 X-33 Y1.9 Z0.289 I0 J1
G1 Y10.5 Z0.251
G2 X-28.6 Y14.9 Z0.221 I4.4 J0
G1 X-4.4 Z0.116
G2 X0 Y10.5 Z0.085 I0 J-4.4
G1 Y1.9 Z0.048
G2 X-1 Y0.9 Z0.041 I-1 J0
G1 X-1.505 Z0.039
G2 X-2.5 Y0 Z0.032 I-0.995 J0.1
G1 X-5.45 Z0.02
G2 X-6.45 Y1 Z0.013 I0 J1
G1 Y3 Z0.004
G2 X-5.45 Y4 Z-0.003 I1 J0
G1 X-5.2 Z-0.004
Y4.2 Z-0.005
X-7.8 Z-0.016
Y4 Z-0.017
X-7.55 Z-0.018
G2 X-6.55 Y3 Z-0.025 I0 J-1
G1 Y1 Z-0.034
G2 X-7.55 Y0 Z-0.041 I-1 J0
G1 X-10.5 Z-0.053
G2 X-11.495 Y0.9 Z-0.06 I0 J1
G1 X-21.505 Z-0.104
G2 X-22.5 Y0 Z-0.11 I-0.995 J0.1
G1 X-25.45 Z-0.123
G2 X-26.45 Y1 Z-0.13 I0 J1
G1 Y3 Z-0.138
G2 X-25.45 Y4 Z-0.145 I1 J0
G1 X-25.2 Z-0.146
Y4.2 Z-0.147
X-27.8 Z-0.159
Y4
X-27.55 Z-0.161
G2 X-26.55 Y3 Z-0.167 I0 J-1
G1 Y1 Z-0.176
G2 X-27.55 Y0 Z-0.183 I-1 J0
G1 X-30.5 Z-0.196
G2 X-31.495 Y0.9 Z-0.202 I0 J1
G1 X-32 Z-0.204
G2 X-33 Y1.9 Z-0.211 I0 J1
G1 Y10.5 Z-0.249
G2 X-28.6 Y14.9 Z-0.279 I4.4 J0
G1 X-4.4 Z-0.384
G2 X0 Y10.5 Z-0.415 I0 J-4.4
G1 Y1.9 Z-0.452
G2 X-1 Y0.9 Z-0.459 I-1 J0
G1 X-1.505 Z-0.461
G2 X-2.5 Y0 Z-0.468 I-0.995 J0.1
G1 X-5.45 Z-0.48
G2 X-6.45 Y1 Z-0.487 I0 J1
G1 Y3 Z-0.496
G2 X-5.45 Y4 Z-0.503 I1 J0
G1 X-5.2 Z-0.504
Y4.2 Z-0.505
X-7.8 Z-0.516
Y4 Z-0.517
X-7.55 Z-0.518
G2 X-6.55 Y3 Z-0.525 I0 J-1
G1 Y1 Z-0.534
G2 X-7.55 Y0 Z-0.541 I-1 J0
G1 X-10.5 Z-0.553
G2 X-11.495 Y0.9 Z-0.56 I0 J1
G1 X-21.505 Z-0.604
G2 X-22.5 Y0 Z-0.61 I-0.995 J0.1
G1 X-25.45 Z-0.623
G2 X-26.45 Y1 Z-0.63 I0 J1
G1 Y3 Z-0.638
G2 X-25.45 Y4 Z-0.645 I1 J0
G1 X-25.2 Z-0.646
Y4.2 Z-0.647
X-27.8 Z-0.659
Y4
X-27.55 Z-0.661
G2 X-26.55 Y3 Z-0.667 I0 J-1
G1 Y1 Z-0.676
G2 X-27.55 Y0 Z-0.683 I-1 J0
G1 X-30.5 Z-0.696
G2 X-31.495 Y0.9 Z-0.702 I0 J1
G1 X-32 Z-0.704
G2 X-33 Y1.9 Z-0.711 I0 J1
G1 Y10.5 Z-0.749
G2 X-28.6 Y14.9 Z-0.779 I4.4 J0
G1 X-4.4 Z-0.884
G2 X0 Y10.5 Z-0.915 I0 J-4.4
G1 Y1.9 Z-0.952
G2 X-1 Y0.9 Z-0.959 I-1 J0
G1 X-1.505 Z-0.961
G2 X-2.5 Y0 Z-0.968 I-0.995 J0.1
G1 X-5.45 Z-0.98
G2 X-6.45 Y1 Z-0.987 I0 J1
G1 Y3 Z-0.996
G2 X-5.45 Y4 Z-1.003 I1 J0
G1 X-5.2 Z-1.004
Y4.2 Z-1.005
X-7.8 Z-1.016
Y4 Z-1.017
X-7.55 Z-1.018
G2 X-6.55 Y3 Z-1.025 I0 J-1
G1 Y1 Z-1.034
G2 X-7.55 Y0 Z-1.041 I-1 J0
G1 X-10.5 Z-1.053
G2 X-11.495 Y0.9 Z-1.06 I0 J1
G1 X-21.505 Z-1.104
G2 X-22.5 Y0 Z-1.11 I-0.995 J0.1
G1 X-25.45 Z-1.123
G2 X-26.45 Y1 Z-1.13 I0 J1
G1 Y3 Z-1.138
G2 X-25.45 Y4 Z-1.145 I1 J0
G1 X-25.2 Z-1.146
Y4.2 Z-1.147
X-27.8 Z-1.159
Y4
X-27.55 Z-1.161
G2 X-26.55 Y3 Z-1.167 I0 J-1
G1 Y1 Z-1.176
G2 X-27.55 Y0 Z-1.183 I-1 J0
G1 X-30.5 Z-1.196
G2 X-31.495 Y0.9 Z-1.202 I0 J1
G1 X-32 Z-1.204
G2 X-33 Y1.9 Z-1.211 I0 J1
G1 Y10.5 Z-1.249
G2 X-28.6 Y14.9 Z-1.279 I4.4 J0
G1 X-4.4 Z-1.384
G2 X0 Y10.5 Z-1.415 I0 J-4.4
G1 Y1.9 Z-1.452
G2 X-1 Y0.9 Z-1.459 I-1 J0
G1 X-1.505 Z-1.461
G2 X-2.5 Y0 Z-1.468 I-0.995 J0.1
G1 X-5.45 Z-1.48
G2 X-6.45 Y1 Z-1.487 I0 J1
G1 Y3 Z-1.496
G2 X-5.45 Y4 Z-1.503 I1 J0
G1 X-5.2 Z-1.504
Y4.2 Z-1.505
X-7.8 Z-1.516
Y4 Z-1.517
X-7.55 Z-1.518
G2 X-6.55 Y3 Z-1.525 I0 J-1
G1 Y1 Z-1.534
G2 X-7.55 Y0 Z-1.541 I-1 J0
G1 X-10.5 Z-1.553
G2 X-11.495 Y0.9 Z-1.56 I0 J1
G1 X-21.505 Z-1.604
G2 X-22.5 Y0 Z-1.61 I-0.995 J0.1
G1 X-25.45 Z-1.623
G2 X-26.45 Y1 Z-1.63 I0 J1
G1 Y3 Z-1.638
G2 X-25.45 Y4 Z-1.645 I1 J0
G1 X-25.2 Z-1.646
Y4.2 Z-1.647
X-27.8 Z-1.659
Y4
X-27.55 Z-1.661
G2 X-26.55 Y3 Z-1.667 I0 J-1
G1 Y1 Z-1.676
G2 X-27.55 Y0 Z-1.683 I-1 J0
G1 X-30.5 Z-1.696
G2 X-31.495 Y0.9 Z-1.702 I0 J1
G1 X-32 Z-1.704
G2 X-33 Y1.9 Z-1.711 I0 J1
G1 Y10.5 Z-1.749
G2 X-28.6 Y14.9 Z-1.779 I4.4 J0
G1 X-4.4 Z-1.884
G2 X0 Y10.5 Z-1.915 I0 J-4.4
G1 Y1.9 Z-1.952
G2 X-1 Y0.9 Z-1.959 I-1 J0
G1 X-1.505 Z-1.961
G2 X-2.5 Y0 Z-1.968 I-0.995 J0.1
G1 X-5.45 Z-1.98
G2 X-6.45 Y1 Z-1.987 I0 J1
G1 Y3 Z-1.996
G2 X-5.45 Y4 Z-2.003 I1 J0
G1 X-5.2 Z-2.004
Y4.2 Z-2.005
X-7.8 Z-2.016
Y4 Z-2.017
X-7.55 Z-2.018
G2 X-6.55 Y3 Z-2.025 I0 J-1
G1 Y1 Z-2.034
G2 X-7.55 Y0 Z-2.041 I-1 J0
G1 X-10.5 Z-2.053
G2 X-11.495 Y0.9 Z-2.06 I0 J1
G1 X-21.505 Z-2.104
G2 X-22.5 Y0 Z-2.11 I-0.995 J0.1
G1 X-25.45 Z-2.123
G2 X-26.45 Y1 Z-2.13 I0 J1
G1 Y3 Z-2.138
G2 X-25.45 Y4 Z-2.145 I1 J0
G1 X-25.2 Z-2.146
Y4.2 Z-2.147
X-27.8 Z-2.159
Y4
X-27.55 Z-2.161
G2 X-26.55 Y3 Z-2.167 I0 J-1
G1 Y1 Z-2.176
G2 X-27.55 Y0 Z-2.183 I-1 J0
G1 X-30.5 Z-2.196
G2 X-31.495 Y0.9 Z-2.202 I0 J1
G1 X-32 Z-2.204
G2 X-33 Y1.9 Z-2.211 I0 J1
G1 Y10.5 Z-2.249
G2 X-28.6 Y14.9 Z-2.279 I4.4 J0
G1 X-4.4 Z-2.384
G2 X0 Y10.5 Z-2.415 I0 J-4.4
G1 Y1.9 Z-2.452
G2 X-1 Y0.9 Z-2.459 I-1 J0
G1 X-1.505 Z-2.461
G2 X-2.5 Y0 Z-2.468 I-0.995 J0.1
G1 X-5.45 Z-2.48
G2 X-6.45 Y1 Z-2.487 I0 J1
G1 Y3 Z-2.496
G2 X-5.45 Y4 Z-2.503 I1 J0
G1 X-5.2 Z-2.504
Y4.2 Z-2.505
X-7.8 Z-2.516
Y4 Z-2.517
X-7.55 Z-2.518
G2 X-6.55 Y3 Z-2.525 I0 J-1
G1 Y1 Z-2.534
G2 X-7.55 Y0 Z-2.541 I-1 J0
G1 X-10.5 Z-2.553
G2 X-11.495 Y0.9 Z-2.56 I0 J1
G1 X-21.505 Z-2.604
G2 X-22.5 Y0 Z-2.61 I-0.995 J0.1
G1 X-25.45 Z-2.623
G2 X-26.45 Y1 Z-2.63 I0 J1
G1 Y3 Z-2.638
G2 X-25.45 Y4 Z-2.645 I1 J0
G1 X-25.2 Z-2.646
Y4.2 Z-2.647
X-27.8 Z-2.659
Y4
X-27.55 Z-2.661
G2 X-26.55 Y3 Z-2.667 I0 J-1
G1 Y1 Z-2.676
G2 X-27.55 Y0 Z-2.683 I-1 J0
G1 X-30.5 Z-2.696
G2 X-31.495 Y0.9 Z-2.702 I0 J1
G1 X-32 Z-2.704
G2 X-33 Y1.9 Z-2.711 I0 J1
G1 Y10.5 Z-2.749
G2 X-28.6 Y14.9 Z-2.779 I4.4 J0
G1 X-4.4 Z-2.884
G2 X0 Y10.5 Z-2.915 I0 J-4.4
G1 Y1.9 Z-2.952
G2 X-1 Y0.9 Z-2.959 I-1 J0
G1 X-1.505 Z-2.961
G2 X-2.5 Y0 Z-2.968 I-0.995 J0.1
G1 X-5.45 Z-2.98
G2 X-6.45 Y1 Z-2.987 I0 J1
G1 Y3 Z-2.996
G2 X-5.45 Y4 Z-3.003 I1 J0
G1 X-5.2 Z-3.004
Y4.2 Z-3.005
X-7.8 Z-3.016
Y4 Z-3.017
X-7.55 Z-3.018
G2 X-6.55 Y3 Z-3.025 I0 J-1
G1 Y1 Z-3.034
G2 X-7.55 Y0 Z-3.041 I-1 J0
G1 X-10.5 Z-3.053
G2 X-11.495 Y0.9 Z-3.06 I0 J1
G1 X-21.505 Z-3.104
G2 X-22.5 Y0 Z-3.11 I-0.995 J0.1
G1 X-25.45 Z-3.123
G2 X-26.45 Y1 Z-3.13 I0 J1
G1 Y3 Z-3.138
G2 X-25.45 Y4 Z-3.145 I1 J0
G1 X-25.2 Z-3.146
Y4.2 Z-3.147
X-27.8 Z-3.159
Y4
X-27.55 Z-3.161
G2 X-26.55 Y3 Z-3.167 I0 J-1
G1 Y1 Z-3.176
G2 X-27.55 Y0 Z-3.183 I-1 J0
G1 X-30.5 Z-3.196
G2 X-31.495 Y0.9 Z-3.202 I0 J1
G1 X-32 Z-3.204
G2 X-33 Y1.9 Z-3.211 I0 J1
G1 Y10.5 Z-3.249
G2 X-32.991 Y10.78 Z-3.25 I4.4 J0
X-28.6 Y14.9 I4.391 J-0.28
G1 X-4.4
G2 X0 Y10.5 I0 J-4.4
G1 Y1.9
G2 X-1 Y0.9 I-1 J0
G1 X-1.505
G2 X-2.5 Y0 I-0.995 J0.1
G1 X-5.45
G2 X-6.45 Y1 I0 J1
G1 Y3
G2 X-5.45 Y4 I1 J0
G1 X-5.2
Y4.2
X-7.8
Y4
X-7.55
G2 X-6.55 Y3 I0 J-1
G1 Y1
G2 X-7.55 Y0 I-1 J0
G1 X-10.5
G2 X-11.495 Y0.9 I0 J1
G1 X-21.505
G2 X-22.5 Y0 I-0.995 J0.1
G1 X-25.45
G2 X-26.45 Y1 I0 J1
G1 Y3
G2 X-25.45 Y4 I1 J0
G1 X-25.2
Y4.2
X-27.8
Y4
X-27.55
G2 X-26.55 Y3 I0 J-1
G1 Y1
G2 X-27.55 Y0 I-1 J0
G1 X-30.5
G2 X-31.495 Y0.9 I0 J1
G1 X-32
G2 X-33 Y1.9 I0 J1
G1 Y10.5
G2 X-32.991 Y10.78 I4.4 J0
G0 Z5

M9
M30
