(09 BOTTOM 2MM FLAT POCKETS)
(T11  D=2 CR=0 - ZMIN=-1 - FLAT END MILL)
G90 G94 G91.1 G40 G49 G17
G21

(09 BOTTOM 2MM FLAT POCKETS)
M5
M9
T11
(DIAMOND OR SPIRAL)
S20000 M3
G54
M8
G0 X-6.1 Y14.01
G43 Z15 H1
Z2
G1 Z0.5 F500
Y8.2 Z0.262 F1000
X-5.9 Z0.254
Y14.1 Z0.012
X-6.1 Z0.004
Y8.2 Z-0.238
X-5.9 Z-0.246
Y14.1 Z-0.488
X-6.1 Z-0.496
Y8.2 Z-0.738
X-5.9 Z-0.746
Y14.1 Z-0.988
X-6.1 Z-0.996
Y14.01 Z-1
Y8.2
X-5.9
Y14.1
X-6.1
Y14.01
G0 Z5
X-27.9 Y8.29
Z2
G1 Z0.5 F500
Y14.1 Z0.262 F1000
X-28.1 Z0.254
Y8.2 Z0.012
X-27.9 Z0.004
Y14.1 Z-0.238
X-28.1 Z-0.246
Y8.2 Z-0.488
X-27.9 Z-0.496
Y14.1 Z-0.738
X-28.1 Z-0.746
Y8.2 Z-0.988
X-27.9 Z-0.996
Y8.29 Z-1
Y14.1
X-28.1
Y8.2
X-27.9
Y8.29
G0 Z15

M9
M30
