(10 BOTTOM 2MM FLAT CONTOURS)
(T11  D=2 CR=0 - ZMIN=-3.25 - FLAT END MILL)
G90 G94 G91.1 G40 G49 G17
G21

(10 BOTTOM 2MM FLAT CONTOURS)
M5
M9
T11
(DIAMOND OR SPIRAL)
S20000 M3
G54
M8
G0 X0 Y37.35
G43 Z5 H1
Z2
G1 Z0.5 F100
Y18.9 Z0.421 F1000
G2 X-3 Y15.9 Z0.401 I-3 J0
G1 X-31 Z0.281
G2 X-34 Y18.9 Z0.261 I0 J3
G1 Y39.9 Z0.171
G2 X-31 Y42.9 Z0.151 I3 J0
G1 X-3 Z0.031
G2 X0 Y39.9 Z0.011 I0 J-3
G1 Y18.9 Z-0.079
G2 X-3 Y15.9 Z-0.099 I-3 J0
G1 X-31 Z-0.219
G2 X-34 Y18.9 Z-0.239 I0 J3
G1 Y39.9 Z-0.329
G2 X-31 Y42.9 Z-0.349 I3 J0
G1 X-3 Z-0.469
G2 X0 Y39.9 Z-0.489 I0 J-3
G1 Y18.9 Z-0.579
G2 X-3 Y15.9 Z-0.599 I-3 J0
G1 X-31 Z-0.719
G2 X-34 Y18.9 Z-0.739 I0 J3
G1 Y39.9 Z-0.829
G2 X-31 Y42.9 Z-0.849 I3 J0
G1 X-3 Z-0.969
G2 X0 Y39.9 Z-0.989 I0 J-3
G1 Y18.9 Z-1.079
G2 X-3 Y15.9 Z-1.099 I-3 J0
G1 X-31 Z-1.219
G2 X-34 Y18.9 Z-1.239 I0 J3
G1 Y39.9 Z-1.329
G2 X-31 Y42.9 Z-1.349 I3 J0
G1 X-3 Z-1.469
G2 X0 Y39.9 Z-1.489 I0 J-3
G1 Y18.9 Z-1.579
G2 X-3 Y15.9 Z-1.599 I-3 J0
G1 X-31 Z-1.719
G2 X-34 Y18.9 Z-1.739 I0 J3
G1 Y39.9 Z-1.829
G2 X-31 Y42.9 Z-1.849 I3 J0
G1 X-3 Z-1.969
G2 X0 Y39.9 Z-1.989 I0 J-3
G1 Y18.9 Z-2.079
G2 X-3 Y15.9 Z-2.099 I-3 J0
G1 X-31 Z-2.219
G2 X-34 Y18.9 Z-2.239 I0 J3
G1 Y39.9 Z-2.329
G2 X-31 Y42.9 Z-2.349 I3 J0
G1 X-3 Z-2.469
G2 X0 Y39.9 Z-2.489 I0 J-3
G1 Y18.9 Z-2.579
G2 X-3 Y15.9 Z-2.599 I-3 J0
G1 X-31 Z-2.719
G2 X-34 Y18.9 Z-2.739 I0 J3
G1 Y39.9 Z-2.829
G2 X-31 Y42.9 Z-2.849 I3 J0
G1 X-3 Z-2.969
G2 X0 Y39.9 Z-2.989 I0 J-3
G1 Y18.9 Z-3.079
G2 X-3 Y15.9 Z-3.099 I-3 J0
G1 X-31 Z-3.219
G2 X-34 Y18.9 Z-3.239 I0 J3
G1 Y21.45 Z-3.25
Y39.9
G2 X-31 Y42.9 I3 J0
G1 X-3
G2 X0 Y39.9 I0 J-3
G1 Y18.9
G2 X-3 Y15.9 I-3 J0
G1 X-31
G2 X-34 Y18.9 I0 J3
G1 Y21.45
G0 Z5
X-27.272 Y3.628
Z2
G1 Z0.5 F100
G2 X-27.05 Y3 Z0.497 I-0.778 J-0.628 F1000
G1 Y1 Z0.488
G2 X-28.05 Y0 Z0.481 I-1 J0
G1 X-31 Z0.469
G2 X-31.995 Y0.9 Z0.462 I0 J1
G1 X-32.5 Z0.46
G2 X-33.5 Y1.9 Z0.453 I0 J1
G1 Y10.5 Z0.416
G2 X-29.1 Y14.9 Z0.385 I4.4 J0
G1 X-4.9 Z0.28
G2 X-0.5 Y10.5 Z0.25 I0 J-4.4
G1 Y1.9 Z0.212
G2 X-1.5 Y0.9 Z0.205 I-1 J0
G1 X-2.005 Z0.203
G2 X-3 Y0 Z0.197 I-0.995 J0.1
G1 X-5.95 Z0.184
G2 X-6.95 Y1 Z0.177 I0 J1
G1 Y3 Z0.168
G2 X-5.95 Y4 Z0.162 I1 J0
G1 X-5.7 Z0.16
Y4.2
X-8.3 Z0.148
Y4 Z0.147
X-8.05 Z0.146
G2 X-7.05 Y3 Z0.139 I0 J-1
G1 Y1 Z0.131
G2 X-8.05 Y0 Z0.124 I-1 J0
G1 X-11 Z0.111
G2 X-11.995 Y0.9 Z0.105 I0 J1
G1 X-22.005 Z0.061
G2 X-23 Y0 Z0.054 I-0.995 J0.1
G1 X-25.95 Z0.042
G2 X-26.95 Y1 Z0.035 I0 J1
G1 Y3 Z0.026
G2 X-25.95 Y4 Z0.019 I1 J0
G1 X-25.7 Z0.018
Y4.2 Z0.017
X-28.3 Z0.006
Y4 Z0.005
X-28.05 Z0.004
G2 X-27.05 Y3 Z-0.003 I0 J-1
G1 Y1 Z-0.012
G2 X-28.05 Y0 Z-0.019 I-1 J0
G1 X-31 Z-0.031
G2 X-31.995 Y0.9 Z-0.038 I0 J1
G1 X-32.5 Z-0.04
G2 X-33.5 Y1.9 Z-0.047 I0 J1
G1 Y10.5 Z-0.084
G2 X-29.1 Y14.9 Z-0.115 I4.4 J0
G1 X-4.9 Z-0.22
G2 X-0.5 Y10.5 Z-0.25 I0 J-4.4
G1 Y1.9 Z-0.288
G2 X-1.5 Y0.9 Z-0.295 I-1 J0
G1 X-2.005 Z-0.297
G2 X-3 Y0 Z-0.303 I-0.995 J0.1
G1 X-5.95 Z-0.316
G2 X-6.95 Y1 Z-0.323 I0 J1
G1 Y3 Z-0.332
G2 X-5.95 Y4 Z-0.338 I1 J0
G1 X-5.7 Z-0.34
Y4.2
X-8.3 Z-0.352
Y4 Z-0.353
X-8.05 Z-0.354
G2 X-7.05 Y3 Z-0.361 I0 J-1
G1 Y1 Z-0.369
G2 X-8.05 Y0 Z-0.376 I-1 J0
G1 X-11 Z-0.389
G2 X-11.995 Y0.9 Z-0.395 I0 J1
G1 X-22.005 Z-0.439
G2 X-23 Y0 Z-0.446 I-0.995 J0.1
G1 X-25.95 Z-0.458
G2 X-26.95 Y1 Z-0.465 I0 J1
G1 Y3 Z-0.474
G2 X-25.95 Y4 Z-0.481 I1 J0
G1 X-25.7 Z-0.482
Y4.2 Z-0.483
X-28.3 Z-0.494
Y4 Z-0.495
X-28.05 Z-0.496
G2 X-27.05 Y3 Z-0.503 I0 J-1
G1 Y1 Z-0.512
G2 X-28.05 Y0 Z-0.519 I-1 J0
G1 X-31 Z-0.531
G2 X-31.995 Y0.9 Z-0.538 I0 J1
G1 X-32.5 Z-0.54
G2 X-33.5 Y1.9 Z-0.547 I0 J1
G1 Y10.5 Z-0.584
G2 X-29.1 Y14.9 Z-0.615 I4.4 J0
G1 X-4.9 Z-0.72
G2 X-0.5 Y10.5 Z-0.75 I0 J-4.4
G1 Y1.9 Z-0.788
G2 X-1.5 Y0.9 Z-0.795 I-1 J0
G1 X-2.005 Z-0.797
G2 X-3 Y0 Z-0.803 I-0.995 J0.1
G1 X-5.95 Z-0.816
G2 X-6.95 Y1 Z-0.823 I0 J1
G1 Y3 Z-0.832
G2 X-5.95 Y4 Z-0.838 I1 J0
G1 X-5.7 Z-0.84
Y4.2
X-8.3 Z-0.852
Y4 Z-0.853
X-8.05 Z-0.854
G2 X-7.05 Y3 Z-0.861 I0 J-1
G1 Y1 Z-0.869
G2 X-8.05 Y0 Z-0.876 I-1 J0
G1 X-11 Z-0.889
G2 X-11.995 Y0.9 Z-0.895 I0 J1
G1 X-22.005 Z-0.939
G2 X-23 Y0 Z-0.946 I-0.995 J0.1
G1 X-25.95 Z-0.958
G2 X-26.95 Y1 Z-0.965 I0 J1
G1 Y3 Z-0.974
G2 X-25.95 Y4 Z-0.981 I1 J0
G1 X-25.7 Z-0.982
Y4.2 Z-0.983
X-28.3 Z-0.994
Y4 Z-0.995
X-28.05 Z-0.996
G2 X-27.05 Y3 Z-1.003 I0 J-1
G1 Y1 Z-1.012
G2 X-28.05 Y0 Z-1.019 I-1 J0
G1 X-31 Z-1.031
G2 X-31.995 Y0.9 Z-1.038 I0 J1
G1 X-32.5 Z-1.04
G2 X-33.5 Y1.9 Z-1.047 I0 J1
G1 Y10.5 Z-1.084
G2 X-29.1 Y14.9 Z-1.115 I4.4 J0
G1 X-4.9 Z-1.22
G2 X-0.5 Y10.5 Z-1.25 I0 J-4.4
G1 Y1.9 Z-1.288
G2 X-1.5 Y0.9 Z-1.295 I-1 J0
G1 X-2.005 Z-1.297
G2 X-3 Y0 Z-1.303 I-0.995 J0.1
G1 X-5.95 Z-1.316
G2 X-6.95 Y1 Z-1.323 I0 J1
G1 Y3 Z-1.332
G2 X-5.95 Y4 Z-1.338 I1 J0
G1 X-5.7 Z-1.34
Y4.2
X-8.3 Z-1.352
Y4 Z-1.353
X-8.05 Z-1.354
G2 X-7.05 Y3 Z-1.361 I0 J-1
G1 Y1 Z-1.369
G2 X-8.05 Y0 Z-1.376 I-1 J0
G1 X-11 Z-1.389
G2 X-11.995 Y0.9 Z-1.395 I0 J1
G1 X-22.005 Z-1.439
G2 X-23 Y0 Z-1.446 I-0.995 J0.1
G1 X-25.95 Z-1.458
G2 X-26.95 Y1 Z-1.465 I0 J1
G1 Y3 Z-1.474
G2 X-25.95 Y4 Z-1.481 I1 J0
G1 X-25.7 Z-1.482
Y4.2 Z-1.483
X-28.3 Z-1.494
Y4 Z-1.495
X-28.05 Z-1.496
G2 X-27.05 Y3 Z-1.503 I0 J-1
G1 Y1 Z-1.512
G2 X-28.05 Y0 Z-1.519 I-1 J0
G1 X-31 Z-1.531
G2 X-31.995 Y0.9 Z-1.538 I0 J1
G1 X-32.5 Z-1.54
G2 X-33.5 Y1.9 Z-1.547 I0 J1
G1 Y10.5 Z-1.584
G2 X-29.1 Y14.9 Z-1.615 I4.4 J0
G1 X-4.9 Z-1.72
G2 X-0.5 Y10.5 Z-1.75 I0 J-4.4
G1 Y1.9 Z-1.788
G2 X-1.5 Y0.9 Z-1.795 I-1 J0
G1 X-2.005 Z-1.797
G2 X-3 Y0 Z-1.803 I-0.995 J0.1
G1 X-5.95 Z-1.816
G2 X-6.95 Y1 Z-1.823 I0 J1
G1 Y3 Z-1.832
G2 X-5.95 Y4 Z-1.838 I1 J0
G1 X-5.7 Z-1.84
Y4.2
X-8.3 Z-1.852
Y4 Z-1.853
X-8.05 Z-1.854
G2 X-7.05 Y3 Z-1.861 I0 J-1
G1 Y1 Z-1.869
G2 X-8.05 Y0 Z-1.876 I-1 J0
G1 X-11 Z-1.889
G2 X-11.995 Y0.9 Z-1.895 I0 J1
G1 X-22.005 Z-1.939
G2 X-23 Y0 Z-1.946 I-0.995 J0.1
G1 X-25.95 Z-1.958
G2 X-26.95 Y1 Z-1.965 I0 J1
G1 Y3 Z-1.974
G2 X-25.95 Y4 Z-1.981 I1 J0
G1 X-25.7 Z-1.982
Y4.2 Z-1.983
X-28.3 Z-1.994
Y4 Z-1.995
X-28.05 Z-1.996
G2 X-27.05 Y3 Z-2.003 I0 J-1
G1 Y1 Z-2.012
G2 X-28.05 Y0 Z-2.019 I-1 J0
G1 X-31 Z-2.031
G2 X-31.995 Y0.9 Z-2.038 I0 J1
G1 X-32.5 Z-2.04
G2 X-33.5 Y1.9 Z-2.047 I0 J1
G1 Y10.5 Z-2.084
G2 X-29.1 Y14.9 Z-2.115 I4.4 J0
G1 X-4.9 Z-2.22
G2 X-0.5 Y10.5 Z-2.25 I0 J-4.4
G1 Y1.9 Z-2.288
G2 X-1.5 Y0.9 Z-2.295 I-1 J0
G1 X-2.005 Z-2.297
G2 X-3 Y0 Z-2.303 I-0.995 J0.1
G1 X-5.95 Z-2.316
G2 X-6.95 Y1 Z-2.323 I0 J1
G1 Y3 Z-2.332
G2 X-5.95 Y4 Z-2.338 I1 J0
G1 X-5.7 Z-2.34
Y4.2
X-8.3 Z-2.352
Y4 Z-2.353
X-8.05 Z-2.354
G2 X-7.05 Y3 Z-2.361 I0 J-1
G1 Y1 Z-2.369
G2 X-8.05 Y0 Z-2.376 I-1 J0
G1 X-11 Z-2.389
G2 X-11.995 Y0.9 Z-2.395 I0 J1
G1 X-22.005 Z-2.439
G2 X-23 Y0 Z-2.446 I-0.995 J0.1
G1 X-25.95 Z-2.458
G2 X-26.95 Y1 Z-2.465 I0 J1
G1 Y3 Z-2.474
G2 X-25.95 Y4 Z-2.481 I1 J0
G1 X-25.7 Z-2.482
Y4.2 Z-2.483
X-28.3 Z-2.494
Y4 Z-2.495
X-28.05 Z-2.496
G2 X-27.05 Y3 Z-2.503 I0 J-1
G1 Y1 Z-2.512
G2 X-28.05 Y0 Z-2.519 I-1 J0
G1 X-31 Z-2.531
G2 X-31.995 Y0.9 Z-2.538 I0 J1
G1 X-32.5 Z-2.54
G2 X-33.5 Y1.9 Z-2.547 I0 J1
G1 Y10.5 Z-2.584
G2 X-29.1 Y14.9 Z-2.615 I4.4 J0
G1 X-4.9 Z-2.72
G2 X-0.5 Y10.5 Z-2.75 I0 J-4.4
G1 Y1.9 Z-2.788
G2 X-1.5 Y0.9 Z-2.795 I-1 J0
G1 X-2.005 Z-2.797
G2 X-3 Y0 Z-2.803 I-0.995 J0.1
G1 X-5.95 Z-2.816
G2 X-6.95 Y1 Z-2.823 I0 J1
G1 Y3 Z-2.832
G2 X-5.95 Y4 Z-2.838 I1 J0
G1 X-5.7 Z-2.84
Y4.2
X-8.3 Z-2.852
Y4 Z-2.853
X-8.05 Z-2.854
G2 X-7.05 Y3 Z-2.861 I0 J-1
G1 Y1 Z-2.869
G2 X-8.05 Y0 Z-2.876 I-1 J0
G1 X-11 Z-2.889
G2 X-11.995 Y0.9 Z-2.895 I0 J1
G1 X-22.005 Z-2.939
G2 X-23 Y0 Z-2.946 I-0.995 J0.1
G1 X-25.95 Z-2.958
G2 X-26.95 Y1 Z-2.965 I0 J1
G1 Y3 Z-2.974
G2 X-25.95 Y4 Z-2.981 I1 J0
G1 X-25.7 Z-2.982
Y4.2 Z-2.983
X-28.3 Z-2.994
Y4 Z-2.995
X-28.05 Z-2.996
G2 X-27.05 Y3 Z-3.003 I0 J-1
G1 Y1 Z-3.012
G2 X-28.05 Y0 Z-3.019 I-1 J0
G1 X-31 Z-3.031
G2 X-31.995 Y0.9 Z-3.038 I0 J1
G1 X-32.5 Z-3.04
G2 X-33.5 Y1.9 Z-3.047 I0 J1
G1 Y10.5 Z-3.084
G2 X-29.1 Y14.9 Z-3.115 I4.4 J0
G1 X-4.9 Z-3.22
G2 X-0.5 Y10.552 Z-3.25 I0 J-4.4
Y10.5 I-4.4 J-0.052
G1 Y1.9
G2 X-1.5 Y0.9 I-1 J0
G1 X-2.005
G2 X-3 Y0 I-0.995 J0.1
G1 X-5.95
G2 X-6.95 Y1 I0 J1
G1 Y3
G2 X-5.95 Y4 I1 J0
G1 X-5.7
Y4.2
X-8.3
Y4
X-8.05
G2 X-7.05 Y3 I0 J-1
G1 Y1
G2 X-8.05 Y0 I-1 J0
G1 X-11
G2 X-11.995 Y0.9 I0 J1
G1 X-22.005
G2 X-23 Y0 I-0.995 J0.1
G1 X-25.95
G2 X-26.95 Y1 I0 J1
G1 Y3
G2 X-25.95 Y4 I1 J0
G1 X-25.7
Y4.2
X-28.3
Y4
X-28.05
G2 X-27.05 Y3 I0 J-1
G1 Y1
G2 X-28.05 Y0 I-1 J0
G1 X-31
G2 X-31.995 Y0.9 I0 J1
G1 X-32.5
G2 X-33.5 Y1.9 I0 J1
G1 Y10.5
G2 X-29.1 Y14.9 I4.4 J0
G1 X-4.9
G2 X-0.5 Y10.552 I0 J-4.4
G0 Z5

M9
M30
